;FLAVOR:Marlin
;TIME:1418
;Filament used: 0.320649m
;Layer height: 0.12
;MINX:93.5
;MINY:104
;MINZ:0.12
;MAXX:141.5
;MAXY:131
;MAXZ:9.96
;Generated with Cura_SteamEngine 4.6.1
M140 S60
M105
M190 S60
M104 S200
M105
M109 S200
M82 ;absolute extrusion mode
; Ender 3 Custom Start G-code
G92 E0 ; Reset Extruder
G28 ; Home all axes
G1 Z2.0 F3000 ; Move Z Axis up little to prevent scratching of Heat Bed
G1 X0.1 Y20 Z0.3 F5000.0 ; Move to start position
G1 X0.1 Y200.0 Z0.3 F1500.0 E15 ; Draw the first line
G1 X0.4 Y200.0 Z0.3 F5000.0 ; Move to side a little
G1 X0.4 Y20 Z0.3 F1500.0 E30 ; Draw the second line
G92 E0 ; Reset Extruder
G1 Z2.0 F3000 ; Move Z Axis up little to prevent scratching of Heat Bed
G1 X5 Y20 Z0.3 F5000.0 ; Move over to prevent blob squish
G92 E0
G92 E0
G1 F1500 E-6.5
;LAYER_COUNT:83
;LAYER:0
M107
G0 F6000 X130.637 Y104.811 Z0.12
;TYPE:SKIRT
G1 F1500 E0
G1 F1200 X131.539 Y104.864 E0.01803
G1 X132.432 Y104.996 E0.03605
G1 X133.31 Y105.207 E0.05407
G1 X134.166 Y105.495 E0.07209
G1 X134.993 Y105.857 E0.09011
G1 X135.785 Y106.292 E0.10814
G1 X136.536 Y106.794 E0.12616
G1 X137.239 Y107.361 E0.14419
G1 X137.889 Y107.988 E0.16221
G1 X138.481 Y108.67 E0.18023
G1 X139.011 Y109.401 E0.19825
G1 X139.473 Y110.177 E0.21627
G1 X139.866 Y110.99 E0.23429
G1 X140.184 Y111.835 E0.25231
G1 X140.427 Y112.705 E0.27034
G1 X140.592 Y113.593 E0.28836
G1 X140.687 Y114.723 E0.31099
G1 X140.7 Y115.33 E0.32311
G1 X140.699 Y119.39 E0.40413
G1 X140.69 Y120.117 E0.41864
G1 X140.639 Y121.019 E0.43667
G1 X140.508 Y121.913 E0.4547
G1 X140.299 Y122.791 E0.47271
G1 X140.013 Y123.648 E0.49074
G1 X139.652 Y124.476 E0.50877
G1 X139.22 Y125.268 E0.52677
G1 X138.719 Y126.02 E0.5448
G1 X138.153 Y126.724 E0.56283
G1 X137.528 Y127.375 E0.58084
G1 X136.847 Y127.969 E0.59887
G1 X136.116 Y128.5 E0.6169
G1 X135.342 Y128.964 E0.63491
G1 X134.529 Y129.358 E0.65294
G1 X133.685 Y129.678 E0.67095
G1 X132.815 Y129.923 E0.68899
G1 X131.928 Y130.089 E0.707
G1 X130.777 Y130.187 E0.73005
G1 X130.17 Y130.2 E0.74217
G1 X105.075 Y130.199 E1.24297
G1 X104.377 Y130.19 E1.2569
G1 X103.476 Y130.139 E1.2749
G1 X102.582 Y130.007 E1.29294
G1 X101.704 Y129.798 E1.31095
G1 X100.847 Y129.511 E1.32899
G1 X100.02 Y129.15 E1.34699
G1 X99.227 Y128.717 E1.36502
G1 X98.476 Y128.216 E1.38304
G1 X97.772 Y127.65 E1.40107
G1 X97.121 Y127.024 E1.41909
G1 X96.528 Y126.343 E1.43711
G1 X95.998 Y125.612 E1.45513
G1 X95.534 Y124.837 E1.47315
G1 X95.14 Y124.024 E1.49118
G1 X94.82 Y123.18 E1.5092
G1 X94.576 Y122.31 E1.52723
G1 X94.41 Y121.422 E1.54526
G1 X94.313 Y120.267 E1.56839
G1 X94.3 Y119.658 E1.58054
G1 X94.301 Y115.536 E1.6628
G1 X94.31 Y114.871 E1.67607
G1 X94.362 Y113.969 E1.6941
G1 X94.494 Y113.076 E1.71212
G1 X94.704 Y112.198 E1.73013
G1 X94.991 Y111.341 E1.74817
G1 X95.353 Y110.514 E1.76619
G1 X95.786 Y109.722 E1.7842
G1 X96.288 Y108.971 E1.80223
G1 X96.855 Y108.267 E1.82026
G1 X97.481 Y107.617 E1.83827
G1 X98.162 Y107.024 E1.85629
G1 X98.894 Y106.494 E1.87433
G1 X99.669 Y106.031 E1.89234
G1 X100.482 Y105.638 E1.91037
G1 X101.327 Y105.318 E1.9284
G1 X102.196 Y105.075 E1.9464
G1 X103.084 Y104.909 E1.96443
G1 X104.223 Y104.813 E1.98724
G1 X104.83 Y104.8 E1.99936
G1 X129.939 Y104.801 E2.50044
G1 X130.637 Y104.811 E2.51437
G0 F6000 X130.643 Y104.411
G1 F1200 X131.562 Y104.464 E2.53274
G1 X132.473 Y104.597 E2.55111
G1 X133.369 Y104.808 E2.56948
G1 X134.243 Y105.096 E2.58784
G1 X135.09 Y105.459 E2.60623
G1 X135.901 Y105.894 E2.6246
G1 X136.671 Y106.398 E2.64296
G1 X137.395 Y106.967 E2.66134
G1 X138.067 Y107.597 E2.67972
G1 X138.682 Y108.282 E2.69809
G1 X139.235 Y109.018 E2.71646
G1 X139.722 Y109.799 E2.73483
G1 X140.139 Y110.62 E2.75321
G1 X140.484 Y111.474 E2.77159
G1 X140.753 Y112.354 E2.78995
G1 X140.945 Y113.255 E2.80834
G1 X141.058 Y114.168 E2.8267
G1 X141.087 Y114.712 E2.83757
G1 X141.1 Y115.33 E2.8499
G1 X141.099 Y119.395 E2.93102
G1 X141.09 Y120.122 E2.94553
G1 X141.039 Y121.041 E2.9639
G1 X140.908 Y121.953 E2.98229
G1 X140.698 Y122.849 E3.00065
G1 X140.412 Y123.724 E3.01902
G1 X140.051 Y124.571 E3.0374
G1 X139.617 Y125.383 E3.05577
G1 X139.115 Y126.155 E3.07415
G1 X138.547 Y126.88 E3.09253
G1 X137.919 Y127.553 E3.1109
G1 X137.235 Y128.169 E3.12927
G1 X136.5 Y128.723 E3.14763
G1 X135.72 Y129.212 E3.16601
G1 X134.9 Y129.631 E3.18438
G1 X134.047 Y129.977 E3.20275
G1 X133.167 Y130.248 E3.22113
G1 X132.267 Y130.441 E3.2395
G1 X131.353 Y130.556 E3.25788
G1 X130.788 Y130.587 E3.26917
G1 X130.17 Y130.6 E3.28151
G1 X105.07 Y130.599 E3.78241
G1 X104.372 Y130.59 E3.79634
G1 X103.453 Y130.538 E3.8147
G1 X102.542 Y130.407 E3.83307
G1 X101.646 Y130.197 E3.85144
G1 X100.771 Y129.91 E3.86981
G1 X99.924 Y129.548 E3.8882
G1 X99.112 Y129.114 E3.90657
G1 X98.341 Y128.612 E3.92493
G1 X97.616 Y128.044 E3.94331
G1 X96.943 Y127.415 E3.96169
G1 X96.328 Y126.731 E3.98005
G1 X95.774 Y125.996 E3.99842
G1 X95.286 Y125.215 E4.01679
G1 X94.867 Y124.395 E4.03517
G1 X94.521 Y123.542 E4.05354
G1 X94.251 Y122.662 E4.07191
G1 X94.058 Y121.761 E4.0903
G1 X93.944 Y120.848 E4.10866
G1 X93.913 Y120.277 E4.12007
G1 X93.9 Y119.658 E4.13243
G1 X93.901 Y115.531 E4.21479
G1 X93.91 Y114.866 E4.22806
G1 X93.962 Y113.946 E4.24645
G1 X94.094 Y113.035 E4.26482
G1 X94.305 Y112.139 E4.28319
G1 X94.592 Y111.264 E4.30156
G1 X94.955 Y110.418 E4.31993
G1 X95.389 Y109.606 E4.33831
G1 X95.892 Y108.835 E4.35668
G1 X96.461 Y108.111 E4.37506
G1 X97.089 Y107.439 E4.39341
G1 X97.774 Y106.823 E4.41179
G1 X98.51 Y106.27 E4.43017
G1 X99.291 Y105.782 E4.44854
G1 X100.111 Y105.364 E4.46691
G1 X100.965 Y105.019 E4.48529
G1 X101.845 Y104.749 E4.50366
G1 X102.745 Y104.557 E4.52203
G1 X103.659 Y104.443 E4.54041
G1 X104.212 Y104.413 E4.55146
G1 X104.83 Y104.4 E4.56379
G1 X129.945 Y104.401 E5.06499
G1 X130.643 Y104.411 E5.07892
G0 F6000 X130.649 Y104.011
G1 F1200 X131.585 Y104.065 E5.09763
G1 X132.513 Y104.197 E5.11634
G1 X133.427 Y104.409 E5.13506
G1 X134.319 Y104.698 E5.15377
G1 X135.184 Y105.061 E5.17249
G1 X136.014 Y105.497 E5.1912
G1 X136.805 Y106.002 E5.20993
G1 X137.549 Y106.573 E5.22865
G1 X138.242 Y107.205 E5.24737
G1 X138.879 Y107.893 E5.26608
G1 X139.454 Y108.634 E5.28479
G1 X139.965 Y109.42 E5.3035
G1 X140.407 Y110.248 E5.32223
G1 X140.776 Y111.11 E5.34094
G1 X141.071 Y112 E5.35966
G1 X141.289 Y112.912 E5.37837
G1 X141.429 Y113.84 E5.3971
G1 X141.487 Y114.701 E5.41432
G1 X141.5 Y115.33 E5.42687
G1 X141.499 Y119.4 E5.50809
G1 X141.49 Y120.127 E5.5226
G1 X141.439 Y121.064 E5.54133
G1 X141.307 Y121.992 E5.56004
G1 X141.098 Y122.906 E5.57875
G1 X140.811 Y123.799 E5.59747
G1 X140.449 Y124.665 E5.6162
G1 X140.015 Y125.496 E5.63491
G1 X139.511 Y126.287 E5.65362
G1 X138.942 Y127.032 E5.67233
G1 X138.311 Y127.727 E5.69106
G1 X137.624 Y128.365 E5.70977
G1 X136.885 Y128.942 E5.72848
G1 X136.099 Y129.454 E5.7472
G1 X135.273 Y129.897 E5.76591
G1 X134.411 Y130.269 E5.78464
G1 X133.522 Y130.565 E5.80334
G1 X132.61 Y130.785 E5.82206
G1 X131.683 Y130.926 E5.84078
G1 X130.799 Y130.987 E5.85846
G1 X130.17 Y131 E5.87101
G1 X105.065 Y130.999 E6.37201
G1 X104.367 Y130.99 E6.38594
G1 X103.431 Y130.938 E6.40465
G1 X102.502 Y130.806 E6.42338
G1 X101.588 Y130.596 E6.44209
G1 X100.695 Y130.309 E6.46081
G1 X99.83 Y129.946 E6.47953
G1 X98.999 Y129.512 E6.49824
G1 X98.208 Y129.008 E6.51696
G1 X97.463 Y128.438 E6.53568
G1 X96.769 Y127.807 E6.55439
G1 X96.132 Y127.12 E6.57309
G1 X95.555 Y126.38 E6.59182
G1 X95.043 Y125.594 E6.61054
G1 X94.6 Y124.767 E6.62926
G1 X94.229 Y123.906 E6.64797
G1 X93.933 Y123.016 E6.66669
G1 X93.714 Y122.104 E6.6854
G1 X93.573 Y121.177 E6.70411
G1 X93.513 Y120.288 E6.7219
G1 X93.5 Y119.658 E6.73447
G1 X93.501 Y115.525 E6.81695
G1 X93.51 Y114.86 E6.83022
G1 X93.563 Y113.924 E6.84893
G1 X93.695 Y112.995 E6.86766
G1 X93.906 Y112.081 E6.88638
G1 X94.194 Y111.189 E6.90508
G1 X94.557 Y110.324 E6.9238
G1 X94.992 Y109.493 E6.94252
G1 X95.496 Y108.703 E6.96122
G1 X96.066 Y107.958 E6.97994
G1 X96.698 Y107.264 E6.99867
G1 X97.386 Y106.627 E7.01738
G1 X98.126 Y106.051 E7.0361
G1 X98.912 Y105.539 E7.05482
G1 X99.739 Y105.097 E7.07353
G1 X100.601 Y104.727 E7.09225
G1 X101.491 Y104.431 E7.11097
G1 X102.403 Y104.213 E7.12968
G1 X103.33 Y104.072 E7.14839
G1 X104.201 Y104.013 E7.16581
G1 X104.83 Y104 E7.17837
G1 X129.951 Y104.001 E7.67968
G1 X130.649 Y104.011 E7.69362
G1 F1500 E1.19362
;MESH:Servo Screw Test 1.stl
G0 F6000 X130.086 Y114.335
G0 X130.086 Y115.414
G0 X105.682 Y116.182
G0 X105.5 Y119
;TYPE:WALL-INNER
G1 F1500 E7.69362
G1 F1200 X105.5 Y116 E7.75348
G1 X129.5 Y116 E8.23243
G1 X129.5 Y119 E8.2923
G1 X105.5 Y119 E8.77124
G0 F6000 X105.1 Y119.4
G1 F1200 X105.1 Y115.6 E8.84708
G1 X129.9 Y115.6 E9.34199
G1 X129.9 Y119.4 E9.41782
G1 X105.1 Y119.4 E9.91273
G0 F6000 X104.7 Y119.8
;TYPE:WALL-OUTER
G1 F1200 X104.7 Y115.2 E10.00453
G1 X130.3 Y115.2 E10.51541
G1 X130.3 Y119.8 E10.6072
G1 X104.7 Y119.8 E11.11808
G0 F6000 X104.97 Y119.53
G0 X105.61 Y118.61
G0 X105.89 Y118.61
;TYPE:SKIN
G1 F1200 X105.89 Y116.39 E11.16238
G1 X129.11 Y116.39 E11.62576
G1 X129.11 Y118.61 E11.67006
G1 X105.89 Y118.61 E12.13344
G0 F6000 X106.57 Y118.449
G1 F1200 X106.049 Y117.929 E12.14813
G0 F6000 X106.049 Y117.363
G1 F1200 X107.135 Y118.449 E12.17878
G0 F6000 X107.701 Y118.449
G1 F1200 X106.049 Y116.797 E12.22541
G0 F6000 X106.367 Y116.549
G1 F1200 X108.267 Y118.449 E12.27903
G0 F6000 X108.832 Y118.449
G1 F1200 X106.932 Y116.549 E12.33265
G0 F6000 X107.498 Y116.549
G1 F1200 X109.398 Y118.449 E12.38627
G0 F6000 X109.964 Y118.449
G1 F1200 X108.064 Y116.549 E12.43989
G0 F6000 X108.629 Y116.549
G1 F1200 X110.529 Y118.449 E12.49352
G0 F6000 X111.095 Y118.449
G1 F1200 X109.195 Y116.549 E12.54714
G0 F6000 X109.761 Y116.549
G1 F1200 X111.661 Y118.449 E12.60076
G0 F6000 X112.227 Y118.449
G1 F1200 X110.327 Y116.549 E12.65438
G0 F6000 X110.892 Y116.549
G1 F1200 X112.792 Y118.449 E12.70801
G0 F6000 X113.358 Y118.449
G1 F1200 X111.458 Y116.549 E12.76163
G0 F6000 X112.024 Y116.549
G1 F1200 X113.924 Y118.449 E12.81525
G0 F6000 X114.489 Y118.449
G1 F1200 X112.589 Y116.549 E12.86887
G0 F6000 X113.155 Y116.549
G1 F1200 X115.055 Y118.449 E12.92249
G0 F6000 X115.621 Y118.449
G1 F1200 X113.721 Y116.549 E12.97612
G0 F6000 X114.286 Y116.549
G1 F1200 X116.186 Y118.449 E13.02974
G0 F6000 X116.752 Y118.449
G1 F1200 X114.852 Y116.549 E13.08336
G0 F6000 X115.418 Y116.549
G1 F1200 X117.318 Y118.449 E13.13698
G0 F6000 X117.883 Y118.449
G1 F1200 X115.983 Y116.549 E13.1906
G0 F6000 X116.549 Y116.549
G1 F1200 X118.449 Y118.449 E13.24423
G0 F6000 X119.015 Y118.449
G1 F1200 X117.115 Y116.549 E13.29785
G0 F6000 X117.68 Y116.549
G1 F1200 X119.58 Y118.449 E13.35147
G0 F6000 X120.146 Y118.449
G1 F1200 X118.246 Y116.549 E13.40509
G0 F6000 X118.812 Y116.549
G1 F1200 X120.712 Y118.449 E13.45871
G0 F6000 X121.278 Y118.449
G1 F1200 X119.378 Y116.549 E13.51234
G0 F6000 X119.943 Y116.549
G1 F1200 X121.843 Y118.449 E13.56596
G0 F6000 X122.409 Y118.449
G1 F1200 X120.509 Y116.549 E13.61958
G0 F6000 X121.075 Y116.549
G1 F1200 X122.975 Y118.449 E13.6732
G0 F6000 X123.54 Y118.449
G1 F1200 X121.64 Y116.549 E13.72683
G0 F6000 X122.206 Y116.549
G1 F1200 X124.106 Y118.449 E13.78045
G0 F6000 X124.672 Y118.449
G1 F1200 X122.772 Y116.549 E13.83407
G0 F6000 X123.337 Y116.549
G1 F1200 X125.237 Y118.449 E13.88769
G0 F6000 X125.803 Y118.449
G1 F1200 X123.903 Y116.549 E13.94131
G0 F6000 X124.469 Y116.549
G1 F1200 X126.369 Y118.449 E13.99494
G0 F6000 X126.934 Y118.449
G1 F1200 X125.034 Y116.549 E14.04856
G0 F6000 X125.6 Y116.549
G1 F1200 X127.5 Y118.449 E14.10218
G0 F6000 X128.066 Y118.449
G1 F1200 X126.166 Y116.549 E14.1558
G0 F6000 X126.731 Y116.549
G1 F1200 X128.631 Y118.449 E14.20942
G0 F6000 X128.949 Y118.201
G1 F1200 X127.297 Y116.549 E14.25605
G0 F6000 X127.863 Y116.549
G1 F1200 X128.949 Y117.635 E14.2867
G0 F6000 X128.949 Y117.07
G1 F1200 X128.428 Y116.549 E14.3014
G0 F6000 X128.428 Y115.81
;MESH:NONMESH
G0 F300 X128.428 Y115.81 Z0.24
G0 F6000 X105.682 Y116.182
G0 X105.5 Y119
;TIME_ELAPSED:45.981756
;LAYER:1
M140 S60
M106 S85
;TYPE:WALL-INNER
;MESH:Servo Screw Test 1.stl
G1 F1350 X105.5 Y116 E14.36127
G1 X129.5 Y116 E14.84021
G1 X129.5 Y119 E14.90008
G1 X105.5 Y119 E15.37903
G0 F7500 X105.1 Y119.4
G1 F1350 X105.1 Y115.6 E15.45486
G1 X129.9 Y115.6 E15.94977
G1 X129.9 Y119.4 E16.02561
G1 X105.1 Y119.4 E16.52052
G0 F7500 X104.7 Y119.8
;TYPE:WALL-OUTER
G1 F1350 X104.7 Y115.2 E16.61231
G1 X130.3 Y115.2 E17.12319
G1 X130.3 Y119.8 E17.21499
G1 X104.7 Y119.8 E17.72586
G0 F7500 X104.97 Y119.53
G0 X105.61 Y118.61
G0 X105.89 Y118.61
;TYPE:SKIN
G1 F1350 X105.89 Y116.39 E17.77017
G1 X129.11 Y116.39 E18.23355
G1 X129.11 Y118.61 E18.27785
G1 X105.89 Y118.61 E18.74123
G0 F7500 X105.61 Y118.61
G0 X105.61 Y116.83
G0 X106.049 Y116.83
G1 F1350 X106.331 Y116.548 E18.74919
G0 F7500 X106.896 Y116.548
G1 F1350 X106.049 Y117.395 E18.77309
G0 F7500 X106.049 Y117.961
G1 F1350 X107.462 Y116.548 E18.81297
G0 F7500 X108.028 Y116.548
G1 F1350 X106.126 Y118.45 E18.86665
G0 F7500 X106.692 Y118.45
G1 F1350 X108.593 Y116.548 E18.92031
G0 F7500 X109.159 Y116.548
G1 F1350 X107.258 Y118.45 E18.97398
G0 F7500 X107.823 Y118.45
G1 F1350 X109.725 Y116.548 E19.02766
G0 F7500 X110.29 Y116.548
G1 F1350 X108.389 Y118.45 E19.08132
G0 F7500 X108.955 Y118.45
G1 F1350 X110.856 Y116.548 E19.13498
G0 F7500 X111.422 Y116.548
G1 F1350 X109.52 Y118.45 E19.18866
G0 F7500 X110.086 Y118.45
G1 F1350 X111.988 Y116.548 E19.24234
G0 F7500 X112.553 Y116.548
G1 F1350 X110.652 Y118.45 E19.29601
G0 F7500 X111.217 Y118.45
G1 F1350 X113.119 Y116.548 E19.34968
G0 F7500 X113.685 Y116.548
G1 F1350 X111.783 Y118.45 E19.40336
G0 F7500 X112.349 Y118.45
G1 F1350 X114.25 Y116.548 E19.45703
G0 F7500 X114.816 Y116.548
G1 F1350 X112.915 Y118.45 E19.51069
G0 F7500 X113.48 Y118.45
G1 F1350 X115.382 Y116.548 E19.56437
G0 F7500 X115.947 Y116.548
G1 F1350 X114.046 Y118.45 E19.61803
G0 F7500 X114.612 Y118.45
G1 F1350 X116.513 Y116.548 E19.6717
G0 F7500 X117.079 Y116.548
G1 F1350 X115.177 Y118.45 E19.72538
G0 F7500 X115.743 Y118.45
G1 F1350 X117.644 Y116.548 E19.77904
G0 F7500 X118.21 Y116.548
G1 F1350 X116.309 Y118.45 E19.83271
G0 F7500 X116.874 Y118.45
G1 F1350 X118.776 Y116.548 E19.88639
G0 F7500 X119.341 Y116.548
G1 F1350 X117.44 Y118.45 E19.94005
G0 F7500 X118.006 Y118.45
G1 F1350 X119.907 Y116.548 E19.99371
G0 F7500 X120.473 Y116.548
G1 F1350 X118.571 Y118.45 E20.04739
G0 F7500 X119.137 Y118.45
G1 F1350 X121.039 Y116.548 E20.10107
G0 F7500 X121.604 Y116.548
G1 F1350 X119.703 Y118.45 E20.15474
G0 F7500 X120.268 Y118.45
G1 F1350 X122.17 Y116.548 E20.20841
G0 F7500 X122.736 Y116.548
G1 F1350 X120.834 Y118.45 E20.26209
G0 F7500 X121.4 Y118.45
G1 F1350 X123.301 Y116.548 E20.31576
G0 F7500 X123.867 Y116.548
G1 F1350 X121.966 Y118.45 E20.36942
G0 F7500 X122.531 Y118.45
G1 F1350 X124.433 Y116.548 E20.4231
G0 F7500 X124.998 Y116.548
G1 F1350 X123.097 Y118.45 E20.47676
G0 F7500 X123.663 Y118.45
G1 F1350 X125.564 Y116.548 E20.53043
G0 F7500 X126.13 Y116.548
G1 F1350 X124.228 Y118.45 E20.58411
G0 F7500 X124.794 Y118.45
G1 F1350 X126.695 Y116.548 E20.63777
G0 F7500 X127.261 Y116.548
G1 F1350 X125.36 Y118.45 E20.69144
G0 F7500 X125.925 Y118.45
G1 F1350 X127.827 Y116.548 E20.74512
G0 F7500 X128.392 Y116.548
G1 F1350 X126.491 Y118.45 E20.79878
G0 F7500 X127.057 Y118.45
G1 F1350 X128.949 Y116.558 E20.85218
G0 F7500 X128.949 Y117.123
G1 F1350 X127.622 Y118.45 E20.88963
G0 F7500 X128.188 Y118.45
G1 F1350 X128.949 Y117.689 E20.9111
G0 F7500 X128.949 Y118.255
G1 F1350 X128.754 Y118.45 E20.91661
G0 F7500 X128.754 Y119.19
;MESH:NONMESH
G0 F300 X128.754 Y119.19 Z0.36
G0 F7500 X105.5 Y119
;TIME_ELAPSED:65.221740
;LAYER:2
M106 S170
;TYPE:WALL-INNER
;MESH:Servo Screw Test 1.stl
G1 F1500 X105.5 Y116 E20.97648
G1 X129.5 Y116 E21.45542
G1 X129.5 Y119 E21.51529
G1 X105.5 Y119 E21.99424
G0 F9000 X105.1 Y119.4
G1 F1500 X105.1 Y115.6 E22.07007
G1 X129.9 Y115.6 E22.56498
G1 X129.9 Y119.4 E22.64081
G1 X105.1 Y119.4 E23.13572
G0 F9000 X104.7 Y119.8
;TYPE:WALL-OUTER
G1 F1500 X104.7 Y115.2 E23.22752
G1 X130.3 Y115.2 E23.7384
G1 X130.3 Y119.8 E23.83019
G1 X104.7 Y119.8 E24.34107
G0 F9000 X104.97 Y119.53
G0 X105.61 Y118.61
G0 X105.89 Y118.61
;TYPE:SKIN
G1 F1500 X105.89 Y116.39 E24.38537
G1 X129.11 Y116.39 E24.84875
