;FLAVOR:Marlin
;TIME:1369
;Filament used: 0.751891m
;Layer height: 0.2
;MINX:103
;MINY:65.5
;MINZ:0.2
;MAXX:132
;MAXY:169.5
;MAXZ:5
;Generated with Cura_SteamEngine 4.6.1
M140 S60
M105
M190 S60
M104 S200
M105
M109 S200
M82 ;absolute extrusion mode
; Ender 3 Custom Start G-code
G92 E0 ; Reset Extruder
G28 ; Home all axes
G1 Z2.0 F3000 ; Move Z Axis up little to prevent scratching of Heat Bed
G1 X0.1 Y20 Z0.3 F5000.0 ; Move to start position
G1 X0.1 Y200.0 Z0.3 F1500.0 E15 ; Draw the first line
G1 X0.4 Y200.0 Z0.3 F5000.0 ; Move to side a little
G1 X0.4 Y20 Z0.3 F1500.0 E30 ; Draw the second line
G92 E0 ; Reset Extruder
G1 Z2.0 F3000 ; Move Z Axis up little to prevent scratching of Heat Bed
G1 X5 Y20 Z0.3 F5000.0 ; Move over to prevent blob squish
G92 E0
G92 E0
G1 F1500 E-6.5
;LAYER_COUNT:25
;LAYER:0
M107
G0 F6000 X119.314 Y66.318 Z0.2
;TYPE:SKIRT
G1 F1500 E0
G1 F1200 X119.673 Y66.334 E0.01195
G1 X120.573 Y66.414 E0.042
G1 X121.659 Y66.62 E0.07877
G1 X122.146 Y66.74 E0.09545
G1 X123.013 Y66.995 E0.12551
G1 X123.853 Y67.325 E0.15553
G1 X124.344 Y67.559 E0.17362
G1 X124.724 Y67.753 E0.18781
G1 X125.509 Y68.199 E0.21784
G1 X126.225 Y68.692 E0.24675
G1 X126.436 Y68.851 E0.25554
G1 X127.371 Y69.649 E0.29642
G1 X127.532 Y69.804 E0.30386
G1 X128.394 Y70.744 E0.34627
G1 X128.545 Y70.931 E0.35427
G1 X129.223 Y71.876 E0.39295
G1 X129.36 Y72.092 E0.40146
G1 X129.962 Y73.185 E0.44296
G1 X130.063 Y73.398 E0.4508
G1 X130.414 Y74.23 E0.48084
G1 X130.748 Y75.317 E0.51866
G1 X130.876 Y75.834 E0.53637
G1 X131.054 Y76.719 E0.5664
G1 X131.172 Y78.046 E0.61071
G1 X131.2 Y79.351 E0.65412
G1 X131.2 Y155.793 E3.19659
G1 X131.191 Y156.503 E3.22021
G1 X131.182 Y156.814 E3.23056
G1 X131.166 Y157.172 E3.24248
G1 X131.086 Y158.072 E3.27253
G1 X130.884 Y159.138 E3.30862
G1 X130.765 Y159.625 E3.32529
G1 X130.512 Y160.492 E3.35533
G1 X130.219 Y161.252 E3.38242
G1 X130.139 Y161.437 E3.38913
G1 X129.586 Y162.531 E3.4299
G1 X129.471 Y162.728 E3.43748
G1 X128.817 Y163.712 E3.47678
G1 X128.66 Y163.921 E3.48548
G1 X127.851 Y164.871 E3.52698
G1 X127.694 Y165.034 E3.5345
G1 X126.756 Y165.894 E3.57683
G1 X126.569 Y166.045 E3.58482
G1 X125.624 Y166.723 E3.62351
G1 X125.408 Y166.86 E3.63202
G1 X124.3 Y167.469 E3.67407
G1 X124.084 Y167.571 E3.68201
G1 X123.252 Y167.92 E3.71202
G1 X122.159 Y168.254 E3.75003
G1 X121.625 Y168.385 E3.76832
G1 X120.739 Y168.561 E3.79836
G1 X119.598 Y168.671 E3.83649
G1 X118.888 Y168.695 E3.86012
G1 X118.432 Y168.7 E3.87529
G1 X116.563 Y168.699 E3.93745
G1 X115.688 Y168.682 E3.96656
G1 X115.328 Y168.666 E3.97854
G1 X114.429 Y168.586 E4.00856
G1 X113.341 Y168.38 E4.04539
G1 X112.854 Y168.26 E4.06207
G1 X111.987 Y168.005 E4.09213
G1 X111.246 Y167.718 E4.11856
G1 X111.061 Y167.638 E4.12527
G1 X109.961 Y167.082 E4.16626
G1 X109.766 Y166.968 E4.17377
G1 X108.775 Y166.308 E4.21337
G1 X108.564 Y166.149 E4.22216
G1 X107.629 Y165.351 E4.26305
G1 X107.468 Y165.196 E4.27048
G1 X106.606 Y164.256 E4.3129
G1 X106.455 Y164.069 E4.32089
G1 X105.773 Y163.117 E4.35984
G1 X105.635 Y162.899 E4.36843
G1 X105.029 Y161.797 E4.41025
G1 X104.928 Y161.583 E4.41813
G1 X104.579 Y160.75 E4.44816
G1 X104.248 Y159.667 E4.48583
G1 X104.121 Y159.151 E4.5035
G1 X103.944 Y158.265 E4.53355
G1 X103.828 Y156.953 E4.57736
G1 X103.8 Y155.649 E4.62074
G1 X103.8 Y79.174 E7.16431
G1 X103.809 Y78.488 E7.18713
G1 X103.818 Y78.188 E7.19711
G1 X103.834 Y77.828 E7.2091
G1 X103.914 Y76.929 E7.23912
G1 X104.123 Y75.831 E7.27629
G1 X104.244 Y75.342 E7.29305
G1 X104.499 Y74.476 E7.32307
G1 X104.83 Y73.636 E7.3531
G1 X105.06 Y73.154 E7.37087
G1 X105.255 Y72.772 E7.38513
G1 X105.701 Y71.987 E7.41516
G1 X106.204 Y71.258 E7.44462
G1 X106.359 Y71.053 E7.45317
G1 X107.149 Y70.129 E7.4936
G1 X107.306 Y69.966 E7.50113
G1 X108.244 Y69.106 E7.54345
G1 X108.431 Y68.955 E7.55145
G1 X109.376 Y68.277 E7.59013
G1 X109.592 Y68.14 E7.59864
G1 X110.7 Y67.531 E7.64069
G1 X110.916 Y67.429 E7.64864
G1 X111.748 Y67.08 E7.67864
G1 X112.833 Y66.748 E7.71638
G1 X113.349 Y66.621 E7.73406
G1 X114.235 Y66.444 E7.76411
G1 X115.547 Y66.328 E7.80792
G1 X116.851 Y66.3 E7.8513
G1 X118.437 Y66.301 E7.90405
G1 X119.314 Y66.318 E7.93322
G0 F6000 X119.332 Y65.919
G1 F1200 X119.691 Y65.935 E7.94517
G1 X120.608 Y66.015 E7.97579
G1 X121.755 Y66.232 E8.01462
G1 X122.242 Y66.352 E8.0313
G1 X123.126 Y66.611 E8.06194
G1 X123.983 Y66.945 E8.09253
G1 X124.526 Y67.203 E8.11252
G1 X124.906 Y67.397 E8.12671
G1 X125.707 Y67.851 E8.15734
G1 X126.465 Y68.372 E8.18793
G1 X126.676 Y68.531 E8.19672
G1 X127.649 Y69.361 E8.23925
G1 X127.81 Y69.516 E8.24669
G1 X128.705 Y70.493 E8.29076
G1 X128.856 Y70.68 E8.29875
G1 X129.56 Y71.662 E8.33894
G1 X129.697 Y71.878 E8.34744
G1 X130.324 Y73.013 E8.39057
G1 X130.425 Y73.226 E8.39841
G1 X130.783 Y74.075 E8.42906
G1 X131.136 Y75.221 E8.46894
G1 X131.264 Y75.738 E8.48666
G1 X131.447 Y76.64 E8.51727
G1 X131.55 Y77.555 E8.54789
G1 X131.572 Y78.036 E8.56391
G1 X131.6 Y79.351 E8.60765
G1 X131.6 Y155.793 E11.15013
G1 X131.591 Y156.509 E11.17394
G1 X131.565 Y157.19 E11.19661
G1 X131.484 Y158.107 E11.22723
G1 X131.273 Y159.233 E11.26533
G1 X131.154 Y159.72 E11.282
G1 X130.897 Y160.604 E11.31262
G1 X130.586 Y161.411 E11.34139
G1 X130.506 Y161.596 E11.34809
G1 X129.931 Y162.733 E11.39047
G1 X129.816 Y162.93 E11.39806
G1 X129.137 Y163.952 E11.43887
G1 X128.98 Y164.161 E11.44756
G1 X128.14 Y165.149 E11.49069
G1 X127.983 Y165.312 E11.49822
G1 X127.007 Y166.205 E11.54222
G1 X126.82 Y166.356 E11.55021
G1 X125.838 Y167.06 E11.5904
G1 X125.622 Y167.197 E11.59891
G1 X124.471 Y167.831 E11.64262
G1 X124.255 Y167.933 E11.65056
G1 X123.406 Y168.29 E11.68119
G1 X122.254 Y168.643 E11.72127
G1 X121.72 Y168.774 E11.73955
G1 X120.818 Y168.954 E11.77015
G1 X119.614 Y169.071 E11.81038
G1 X118.892 Y169.095 E11.83441
G1 X118.432 Y169.1 E11.84971
G1 X116.557 Y169.099 E11.91207
G1 X115.67 Y169.082 E11.94158
G1 X115.31 Y169.066 E11.95356
G1 X114.393 Y168.985 E11.98418
G1 X113.245 Y168.768 E12.02304
G1 X112.758 Y168.648 E12.03972
G1 X111.874 Y168.389 E12.07036
G1 X111.087 Y168.085 E12.09842
G1 X110.902 Y168.005 E12.10513
G1 X109.759 Y167.427 E12.14773
G1 X109.564 Y167.313 E12.15524
G1 X108.535 Y166.628 E12.19635
G1 X108.324 Y166.469 E12.20514
G1 X107.351 Y165.639 E12.24768
G1 X107.19 Y165.484 E12.25511
G1 X106.295 Y164.507 E12.29918
G1 X106.144 Y164.32 E12.30717
G1 X105.435 Y163.331 E12.34765
G1 X105.297 Y163.113 E12.35623
G1 X104.667 Y161.967 E12.39972
G1 X104.566 Y161.753 E12.4076
G1 X104.21 Y160.904 E12.43822
G1 X103.859 Y159.762 E12.47795
G1 X103.732 Y159.246 E12.49563
G1 X103.551 Y158.344 E12.52622
G1 X103.449 Y157.429 E12.55685
G1 X103.428 Y156.962 E12.57239
G1 X103.4 Y155.649 E12.61608
G1 X103.4 Y79.174 E15.15964
G1 X103.418 Y78.17 E15.19304
G1 X103.434 Y77.81 E15.20503
G1 X103.515 Y76.893 E15.23565
G1 X103.734 Y75.735 E15.27484
G1 X103.855 Y75.246 E15.2916
G1 X104.115 Y74.363 E15.32221
G1 X104.45 Y73.505 E15.35285
G1 X104.704 Y72.973 E15.37246
G1 X104.899 Y72.591 E15.38672
G1 X105.353 Y71.79 E15.41735
G1 X105.885 Y71.017 E15.44856
G1 X106.04 Y70.812 E15.4571
G1 X106.86 Y69.851 E15.49912
G1 X107.017 Y69.688 E15.50665
G1 X107.993 Y68.795 E15.55065
G1 X108.18 Y68.644 E15.55864
G1 X109.162 Y67.94 E15.59883
G1 X109.378 Y67.803 E15.60734
G1 X110.529 Y67.169 E15.65104
G1 X110.745 Y67.067 E15.65899
G1 X111.594 Y66.71 E15.68962
G1 X112.738 Y66.359 E15.72942
G1 X113.254 Y66.232 E15.7471
G1 X114.156 Y66.051 E15.77769
G1 X115.071 Y65.949 E15.80832
G1 X115.538 Y65.928 E15.82386
G1 X116.851 Y65.9 E15.86754
G1 X118.443 Y65.901 E15.92049
G1 X119.332 Y65.919 E15.95007
G0 F6000 X119.35 Y65.519
G1 F1200 X119.709 Y65.535 E15.96202
G1 X120.643 Y65.617 E15.99321
G1 X121.851 Y65.843 E16.03408
G1 X122.338 Y65.963 E16.05076
G1 X123.238 Y66.226 E16.08195
G1 X124.113 Y66.565 E16.11316
G1 X124.708 Y66.847 E16.13506
G1 X125.088 Y67.041 E16.14925
G1 X125.904 Y67.503 E16.18044
G1 X126.706 Y68.053 E16.21278
G1 X126.917 Y68.212 E16.22157
G1 X127.926 Y69.073 E16.26569
G1 X128.087 Y69.228 E16.27312
G1 X129.016 Y70.241 E16.31884
G1 X129.167 Y70.428 E16.32683
G1 X129.898 Y71.447 E16.36854
G1 X130.035 Y71.663 E16.37705
G1 X130.685 Y72.842 E16.42183
G1 X130.786 Y73.055 E16.42967
G1 X131.152 Y73.919 E16.46088
G1 X131.525 Y75.124 E16.50283
G1 X131.653 Y75.641 E16.52055
G1 X131.839 Y76.561 E16.55176
G1 X131.946 Y77.492 E16.58293
G1 X131.972 Y78.027 E16.60075
G1 X132 Y79.351 E16.64479
G1 X132 Y155.793 E19.18727
G1 X131.991 Y156.514 E19.21125
G1 X131.981 Y156.85 E19.22243
G1 X131.965 Y157.208 E19.23435
G1 X131.883 Y158.142 E19.26553
G1 X131.662 Y159.328 E19.30566
G1 X131.543 Y159.815 E19.32233
G1 X131.281 Y160.716 E19.35354
G1 X130.953 Y161.57 E19.38397
G1 X130.873 Y161.755 E19.39067
G1 X130.277 Y162.935 E19.43464
G1 X130.162 Y163.132 E19.44223
G1 X129.457 Y164.193 E19.4846
G1 X129.3 Y164.402 E19.49329
G1 X128.428 Y165.426 E19.53802
G1 X128.271 Y165.589 E19.54555
G1 X127.259 Y166.516 E19.5912
G1 X127.072 Y166.667 E19.59919
G1 X126.053 Y167.398 E19.6409
G1 X125.837 Y167.535 E19.64941
G1 X124.642 Y168.193 E19.69478
G1 X124.426 Y168.295 E19.70273
G1 X123.562 Y168.659 E19.73391
G1 X122.35 Y169.031 E19.77608
G1 X121.816 Y169.162 E19.79437
G1 X120.896 Y169.347 E19.82558
G1 X119.63 Y169.47 E19.86788
G1 X118.897 Y169.495 E19.89228
G1 X118.432 Y169.5 E19.90774
G1 X116.552 Y169.499 E19.97027
G1 X115.986 Y169.491 E19.9891
G1 X115.653 Y169.481 E20.00018
G1 X115.293 Y169.465 E20.01217
G1 X114.358 Y169.384 E20.04338
G1 X113.149 Y169.157 E20.0843
G1 X112.662 Y169.037 E20.10098
G1 X111.762 Y168.774 E20.13216
G1 X110.928 Y168.452 E20.1619
G1 X110.743 Y168.372 E20.1686
G1 X109.557 Y167.772 E20.21281
G1 X109.362 Y167.658 E20.22032
G1 X108.294 Y166.947 E20.263
G1 X108.083 Y166.788 E20.27178
G1 X107.074 Y165.927 E20.3159
G1 X106.913 Y165.772 E20.32333
G1 X105.984 Y164.759 E20.36905
G1 X105.833 Y164.572 E20.37704
G1 X105.097 Y163.545 E20.41907
G1 X104.959 Y163.327 E20.42765
G1 X104.305 Y162.138 E20.47278
G1 X104.204 Y161.924 E20.48065
G1 X103.84 Y161.06 E20.51184
G1 X103.471 Y159.858 E20.55366
G1 X103.344 Y159.342 E20.57133
G1 X103.159 Y158.422 E20.60254
G1 X103.053 Y157.491 E20.63371
G1 X103.028 Y156.971 E20.65102
G1 X103 Y155.649 E20.695
G1 X103 Y79.174 E23.23857
G1 X103.009 Y78.476 E23.26179
G1 X103.035 Y77.793 E23.28452
G1 X103.116 Y76.858 E23.31574
G1 X103.346 Y75.639 E23.357
G1 X103.467 Y75.15 E23.37375
G1 X103.731 Y74.25 E23.40495
G1 X104.071 Y73.376 E23.43614
G1 X104.348 Y72.791 E23.45767
G1 X104.543 Y72.409 E23.47193
G1 X105.004 Y71.592 E23.50313
G1 X105.566 Y70.776 E23.53609
G1 X105.721 Y70.571 E23.54463
G1 X106.572 Y69.574 E23.58823
G1 X106.729 Y69.411 E23.59576
G1 X107.741 Y68.484 E23.6414
G1 X107.928 Y68.333 E23.6494
G1 X108.947 Y67.602 E23.69111
G1 X109.163 Y67.465 E23.69962
G1 X110.358 Y66.807 E23.74499
G1 X110.574 Y66.705 E23.75294
G1 X111.438 Y66.341 E23.78412
G1 X112.642 Y65.971 E23.82601
G1 X113.158 Y65.844 E23.84369
G1 X114.078 Y65.659 E23.8749
G1 X115.009 Y65.553 E23.90606
G1 X115.529 Y65.528 E23.92338
G1 X116.851 Y65.5 E23.96736
G1 X118.448 Y65.501 E24.02047
G1 X119.35 Y65.519 E24.05048
G1 F1500 E17.55048
;MESH:Upper Base.stl
G0 F6000 X118.982 Y75.835
G0 X118.982 Y76.819
G0 X119.44 Y78.993
G0 X119.361 Y79.54
G0 X118.967 Y80.264
G0 X118.548 Y80.625
G0 X117.188 Y81.173
;TYPE:WALL-INNER
G1 F1500 E24.05048
G1 F1200 X117.5 Y81.194 E24.06088
G1 X117.812 Y81.173 E24.07128
G1 X118.12 Y81.106 E24.08177
G1 X118.416 Y80.996 E24.09227
G1 X118.69 Y80.845 E24.10267
G1 X118.942 Y80.658 E24.11311
G1 X119.164 Y80.434 E24.1236
G1 X119.353 Y80.182 E24.13408
G1 X119.502 Y79.907 E24.14448
G1 X119.612 Y79.615 E24.15486
G1 X119.679 Y79.307 E24.16534
G1 X119.701 Y78.993 E24.17581
G1 X119.679 Y78.68 E24.18625
G1 X119.612 Y78.372 E24.19673
G1 X119.502 Y78.08 E24.20711
G1 X119.353 Y77.804 E24.21754
G1 X119.164 Y77.553 E24.22799
G1 X119.042 Y77.43 E24.23375
G1 X118.943 Y77.33 E24.23843
G1 X118.857 Y77.266 E24.242
G1 X118.689 Y77.14 E24.24898
G1 X118.615 Y77.1 E24.25178
G1 X118.689 Y77.1
G1 X118.943 Y77.1 E24.25499
G1 X118.98 Y77.1
G1 X119.163 Y77.111 E24.25944
G1 X119.302 Y77.136 E24.26364
G1 X119.337 Y77.143 E24.26483
G1 X119.502 Y77.195 E24.27058
G1 X119.651 Y77.261 E24.276
G1 X119.796 Y77.349 E24.28164
G1 X119.927 Y77.452 E24.28719
G1 X120.048 Y77.573 E24.29288
G1 X120.151 Y77.704 E24.29842
G1 X120.239 Y77.849 E24.30406
G1 X120.305 Y77.998 E24.30948
G1 X120.357 Y78.163 E24.31524
G1 X120.389 Y78.337 E24.32112
G1 X120.4 Y78.512 E24.32695
G1 X120.4 Y156.488 E26.92044
G1 X120.389 Y156.663 E26.92628
G1 X120.357 Y156.837 E26.93216
G1 X120.305 Y157.002 E26.93791
G1 X120.239 Y157.151 E26.94333
G1 X120.153 Y157.293 E26.94886
G1 X120.047 Y157.428 E26.95456
G1 X119.927 Y157.548 E26.96021
G1 X119.796 Y157.651 E26.96575
G1 X119.651 Y157.739 E26.97139
G1 X119.502 Y157.805 E26.97681
G1 X119.337 Y157.857 E26.98257
G1 X119.301 Y157.864 E26.98379
G1 X119.172 Y157.887 E26.98815
G1 X118.955 Y157.897 E26.99537
G1 X118.911 Y157.9 E26.99684
G1 X118.689 Y157.9 E27.00422
G1 X118.615 Y157.9 E27.00668
G1 X118.689 Y157.86 E27.00701
G1 X118.812 Y157.768 E27.00769
G1 X118.943 Y157.67 E27.01092
G1 X119.035 Y157.577 E27.01484
G1 X119.164 Y157.447 E27.02093
G1 X119.353 Y157.196 E27.03138
G1 X119.502 Y156.92 E27.04182
G1 X119.612 Y156.628 E27.05219
G1 X119.679 Y156.32 E27.06268
G1 X119.701 Y156.007 E27.07311
G1 X119.679 Y155.693 E27.08358
G1 X119.612 Y155.385 E27.09407
G1 X119.502 Y155.093 E27.10444
G1 X119.353 Y154.818 E27.11485
G1 X119.164 Y154.566 E27.12532
G1 X118.942 Y154.342 E27.13581
G1 X118.69 Y154.155 E27.14625
G1 X118.416 Y154.004 E27.15666
G1 X118.12 Y153.894 E27.16716
G1 X117.812 Y153.827 E27.17764
G1 X117.5 Y153.806 E27.18804
G1 X117.188 Y153.827 E27.19844
G1 X116.88 Y153.894 E27.20893
G1 X116.584 Y154.004 E27.21943
G1 X116.31 Y154.155 E27.22984
G1 X116.058 Y154.342 E27.24027
G1 X115.836 Y154.566 E27.25076
G1 X115.647 Y154.818 E27.26124
G1 X115.498 Y155.093 E27.27164
G1 X115.388 Y155.385 E27.28202
G1 X115.321 Y155.693 E27.2925
G1 X115.299 Y156.007 E27.30297
G1 X115.321 Y156.32 E27.31341
G1 X115.388 Y156.628 E27.32389
G1 X115.498 Y156.92 E27.33427
G1 X115.647 Y157.196 E27.3447
G1 X115.836 Y157.447 E27.35515
G1 X115.958 Y157.57 E27.36092
G1 X116.057 Y157.67 E27.3656
G1 X116.143 Y157.734 E27.36916
G1 X116.311 Y157.86 E27.37615
G1 X116.385 Y157.9 E27.37894
G1 X116.311 Y157.9
G1 X116.057 Y157.9 E27.38215
G1 X116.02 Y157.9
G1 X115.837 Y157.889 E27.3866
G1 X115.698 Y157.864 E27.3908
G1 X115.663 Y157.857 E27.39199
G1 X115.498 Y157.805 E27.39774
G1 X115.349 Y157.739 E27.40316
G1 X115.204 Y157.651 E27.4088
G1 X115.073 Y157.548 E27.41435
G1 X114.953 Y157.428 E27.41999
G1 X114.847 Y157.293 E27.4257
G1 X114.761 Y157.151 E27.43122
G1 X114.695 Y157.002 E27.43664
G1 X114.643 Y156.837 E27.4424
G1 X114.611 Y156.663 E27.44828
G1 X114.6 Y156.488 E27.45411
G1 X114.6 Y78.512 E30.0476
G1 X114.611 Y78.337 E30.05344
G1 X114.643 Y78.163 E30.05932
G1 X114.695 Y77.998 E30.06508
G1 X114.761 Y77.849 E30.0705
G1 X114.849 Y77.704 E30.07614
G1 X114.952 Y77.573 E30.08168
G1 X115.073 Y77.452 E30.08737
G1 X115.204 Y77.349 E30.09291
G1 X115.349 Y77.261 E30.09855
G1 X115.498 Y77.195 E30.10398
G1 X115.663 Y77.143 E30.10973
G1 X115.698 Y77.136 E30.11092
G1 X115.837 Y77.111 E30.11561
G1 X116.02 Y77.1 E30.12171
G1 X116.057 Y77.1 E30.12294
G1 X116.311 Y77.1 E30.13139
G1 X116.385 Y77.1 E30.13385
G1 X116.311 Y77.14 E30.13399
G1 X116.144 Y77.265 E30.13568
G1 X116.057 Y77.33 E30.13687
G1 X115.958 Y77.43 E30.14105
G1 X115.836 Y77.553 E30.14681
G1 X115.647 Y77.804 E30.15726
G1 X115.498 Y78.08 E30.16769
G1 X115.388 Y78.372 E30.17807
G1 X115.321 Y78.68 E30.18855
G1 X115.299 Y78.993 E30.19899
G1 X115.321 Y79.307 E30.20946
G1 X115.388 Y79.615 E30.21994
G1 X115.498 Y79.907 E30.23032
G1 X115.647 Y80.182 E30.24072
G1 X115.836 Y80.434 E30.2512
G1 X116.058 Y80.658 E30.26169
G1 X116.31 Y80.845 E30.27213
G1 X116.584 Y80.996 E30.28253
G1 X116.88 Y81.106 E30.29304
G1 X117.188 Y81.173 E30.30352
G0 F6000 X117.244 Y80.776
;TYPE:WALL-OUTER
G1 F1200 X117.5 Y80.793 E30.31205
G1 X117.756 Y80.776 E30.32059
G1 X118.007 Y80.721 E30.32913
G1 X118.249 Y80.631 E30.33772
G1 X118.473 Y80.508 E30.34622
G1 X118.679 Y80.355 E30.35475
G1 X118.861 Y80.172 E30.36334
