;FLAVOR:Marlin
;TIME:4207
;Filament used: 2.47128m
;Layer height: 0.2
;MINX:60.501
;MINY:86.675
;MINZ:0.2
;MAXX:174.499
;MAXY:148.325
;MAXZ:10
;Generated with Cura_SteamEngine 4.6.1
M140 S60
M105
M190 S60
M104 S200
M105
M109 S200
M82 ;absolute extrusion mode
; Ender 3 Custom Start G-code
G92 E0 ; Reset Extruder
G28 ; Home all axes
G1 Z2.0 F3000 ; Move Z Axis up little to prevent scratching of Heat Bed
G1 X0.1 Y20 Z0.3 F5000.0 ; Move to start position
G1 X0.1 Y200.0 Z0.3 F1500.0 E15 ; Draw the first line
G1 X0.4 Y200.0 Z0.3 F5000.0 ; Move to side a little
G1 X0.4 Y20 Z0.3 F1500.0 E30 ; Draw the second line
G92 E0 ; Reset Extruder
G1 Z2.0 F3000 ; Move Z Axis up little to prevent scratching of Heat Bed
G1 X5 Y20 Z0.3 F5000.0 ; Move over to prevent blob squish
G92 E0
G92 E0
G1 F1500 E-6.5
;LAYER_COUNT:50
;LAYER:0
M107
G0 F6000 X105.687 Y87.493 Z0.2
;TYPE:SKIRT
G1 F1500 E0
G1 F1200 X106.333 Y87.524 E0.02151
G1 X106.972 Y87.575 E0.04283
G1 X107.486 Y87.632 E0.06003
G1 X110.081 Y87.884 E0.14675
G1 X112.624 Y88.059 E0.23153
G1 X115.18 Y88.161 E0.31661
G1 X117.682 Y88.191 E0.39983
G1 X120.254 Y88.148 E0.48539
G1 X122.783 Y88.035 E0.56959
G1 X125.302 Y87.851 E0.65359
G1 X126.876 Y87.686 E0.70623
G1 X128.527 Y87.538 E0.76136
G1 X129.23 Y87.499 E0.78478
G1 X130.517 Y87.475 E0.8276
G1 X162.139 Y87.48 E1.87935
G1 X162.636 Y87.492 E1.89588
G1 X163.208 Y87.52 E1.91493
G1 X164.107 Y87.604 E1.94496
G1 X164.995 Y87.767 E1.97499
G1 X165.865 Y88.009 E2.00502
G1 X166.404 Y88.201 E2.02406
G1 X166.687 Y88.311 E2.03415
G1 X167.514 Y88.675 E2.06421
G1 X168.305 Y89.111 E2.09425
G1 X169.054 Y89.615 E2.12427
G1 X169.488 Y89.954 E2.14259
G1 X169.741 Y90.163 E2.15351
G1 X170.411 Y90.769 E2.18355
G1 X171.025 Y91.431 E2.21358
G1 X171.578 Y92.145 E2.24362
G1 X171.942 Y92.698 E2.26564
G1 X172.116 Y92.982 E2.27672
G1 X172.554 Y93.773 E2.30679
G1 X172.919 Y94.598 E2.3368
G1 X173.21 Y95.453 E2.36684
G1 X173.471 Y96.58 E2.40531
G1 X173.544 Y97.004 E2.41962
G1 X173.658 Y97.9 E2.44966
G1 X173.691 Y98.611 E2.47334
G1 X173.699 Y99.305 E2.49642
G1 X173.699 Y101.098 E2.55606
G1 X173.69 Y101.735 E2.57724
G1 X173.661 Y102.377 E2.59862
G1 X173.645 Y102.584 E2.60552
G1 X173.551 Y103.385 E2.63235
G1 X173.456 Y103.988 E2.65265
G1 X173.098 Y106.482 E2.73645
G1 X172.804 Y109.048 E2.82236
G1 X172.588 Y111.554 E2.90602
G1 X172.442 Y114.082 E2.99024
G1 X172.367 Y116.649 E3.07565
G1 X172.363 Y119.184 E3.15997
G1 X172.432 Y121.715 E3.24418
G1 X172.573 Y124.255 E3.32879
G1 X172.783 Y126.756 E3.41227
G1 X173.069 Y129.298 E3.49735
G1 X173.544 Y132.567 E3.60722
G1 X173.595 Y132.971 E3.62076
G1 X173.636 Y133.363 E3.63387
G1 X173.69 Y134.278 E3.66436
G1 X173.699 Y134.965 E3.68721
G1 X173.699 Y135.717 E3.71222
G1 X173.69 Y136.419 E3.73557
G1 X173.639 Y137.32 E3.76559
G1 X173.563 Y137.896 E3.78491
G1 X173.506 Y138.253 E3.79693
G1 X173.325 Y139.138 E3.82698
G1 X173.065 Y140.003 E3.85702
G1 X172.731 Y140.842 E3.88705
G1 X172.394 Y141.519 E3.91221
G1 X172.233 Y141.815 E3.92341
G1 X171.767 Y142.588 E3.95343
G1 X171.234 Y143.317 E3.98347
G1 X170.639 Y143.997 E4.01352
G1 X169.946 Y144.656 E4.04533
G1 X169.672 Y144.893 E4.05738
G1 X168.963 Y145.453 E4.08743
G1 X168.208 Y145.948 E4.11746
G1 X167.412 Y146.374 E4.14749
G1 X166.574 Y146.731 E4.17778
G1 X166.264 Y146.847 E4.18879
G1 X165.405 Y147.126 E4.21883
G1 X164.524 Y147.328 E4.24889
G1 X163.63 Y147.451 E4.27891
G1 X163.159 Y147.483 E4.29461
G1 X162.425 Y147.512 E4.31904
G1 X161.448 Y147.525 E4.35154
G1 X130.056 Y147.524 E5.39564
G1 X129.651 Y147.518 E5.40911
G1 X129.313 Y147.507 E5.42036
G1 X128.667 Y147.476 E5.44187
G1 X128.028 Y147.425 E5.46319
G1 X127.514 Y147.368 E5.48039
G1 X124.919 Y147.116 E5.56711
G1 X122.376 Y146.941 E5.65189
G1 X119.82 Y146.839 E5.73697
G1 X117.318 Y146.809 E5.82019
G1 X114.746 Y146.852 E5.90575
G1 X112.217 Y146.965 E5.98995
G1 X109.698 Y147.149 E6.07395
G1 X108.124 Y147.314 E6.12659
G1 X106.473 Y147.462 E6.18172
G1 X105.77 Y147.501 E6.20514
G1 X104.483 Y147.525 E6.24796
G1 X72.861 Y147.52 E7.29971
G1 X72.364 Y147.508 E7.31624
G1 X71.792 Y147.48 E7.33529
G1 X70.893 Y147.396 E7.36532
G1 X70.005 Y147.233 E7.39535
G1 X69.135 Y146.991 E7.42539
G1 X68.596 Y146.799 E7.44442
G1 X68.313 Y146.689 E7.45451
G1 X67.486 Y146.325 E7.48457
G1 X66.695 Y145.889 E7.51461
G1 X65.946 Y145.385 E7.54463
G1 X65.512 Y145.046 E7.56295
G1 X65.259 Y144.837 E7.57387
G1 X64.589 Y144.231 E7.60391
G1 X63.975 Y143.569 E7.63394
G1 X63.422 Y142.855 E7.66398
G1 X63.058 Y142.302 E7.686
G1 X62.884 Y142.018 E7.69708
G1 X62.446 Y141.227 E7.72715
G1 X62.081 Y140.402 E7.75716
G1 X61.79 Y139.547 E7.7872
G1 X61.524 Y138.392 E7.82662
G1 X61.451 Y137.961 E7.84116
G1 X61.34 Y137.065 E7.87119
G1 X61.309 Y136.383 E7.89389
G1 X61.301 Y135.701 E7.91658
G1 X61.301 Y134.912 E7.94282
G1 X61.31 Y134.269 E7.96421
G1 X61.343 Y133.584 E7.98702
G1 X61.361 Y133.363 E7.99439
G1 X61.451 Y132.608 E8.01968
G1 X61.534 Y132.083 E8.03736
G1 X61.902 Y129.518 E8.12355
G1 X62.196 Y126.952 E8.20945
G1 X62.412 Y124.446 E8.29311
G1 X62.558 Y121.918 E8.37733
G1 X62.633 Y119.351 E8.46275
G1 X62.637 Y116.816 E8.54706
G1 X62.568 Y114.284 E8.63131
G1 X62.427 Y111.744 E8.71592
G1 X62.217 Y109.244 E8.79936
G1 X61.931 Y106.702 E8.88444
G1 X61.456 Y103.433 E8.99431
G1 X61.405 Y103.028 E9.00789
G1 X61.363 Y102.626 E9.02133
G1 X61.309 Y101.69 E9.05251
G1 X61.301 Y100.995 E9.07563
G1 X61.301 Y99.201 E9.1353
G1 X61.31 Y98.562 E9.15655
G1 X61.363 Y97.661 E9.18657
G1 X61.441 Y97.071 E9.20637
G1 X61.498 Y96.72 E9.2182
G1 X61.682 Y95.836 E9.24823
G1 X61.944 Y94.971 E9.27829
G1 X62.281 Y94.134 E9.3083
G1 X62.606 Y93.481 E9.33256
G1 X62.767 Y93.185 E9.34377
G1 X63.233 Y92.412 E9.37379
G1 X63.766 Y91.683 E9.40382
G1 X64.361 Y91.003 E9.43388
G1 X65.054 Y90.344 E9.46568
G1 X65.328 Y90.107 E9.47773
G1 X66.037 Y89.547 E9.50778
G1 X66.792 Y89.052 E9.53781
G1 X67.588 Y88.626 E9.56784
G1 X68.426 Y88.269 E9.59813
G1 X68.736 Y88.153 E9.60914
G1 X69.595 Y87.874 E9.63918
G1 X70.476 Y87.672 E9.66924
G1 X71.37 Y87.549 E9.69926
G1 X71.841 Y87.517 E9.71496
G1 X72.575 Y87.488 E9.73939
G1 X73.552 Y87.475 E9.77189
G1 X104.944 Y87.476 E10.81599
G1 X105.687 Y87.493 E10.84071
G0 F6000 X105.706 Y87.093
G1 F1200 X106.352 Y87.124 E10.86222
G1 X107.017 Y87.177 E10.88441
G1 X107.509 Y87.232 E10.90088
G1 X110.146 Y87.487 E10.98899
G1 X112.631 Y87.658 E11.07184
G1 X115.201 Y87.761 E11.15739
G1 X117.679 Y87.791 E11.23981
G1 X120.266 Y87.748 E11.32587
G1 X122.736 Y87.638 E11.4081
G1 X125.261 Y87.453 E11.49231
G1 X126.841 Y87.287 E11.54515
G1 X128.492 Y87.139 E11.60028
G1 X129.222 Y87.099 E11.6246
G1 X130.517 Y87.075 E11.66768
G1 X162.139 Y87.08 E12.71943
G1 X162.655 Y87.093 E12.7366
G1 X163.227 Y87.121 E12.75564
G1 X164.144 Y87.206 E12.78627
G1 X165.05 Y87.37 E12.8169
G1 X165.938 Y87.612 E12.84751
G1 X166.549 Y87.828 E12.86906
G1 X166.832 Y87.938 E12.87916
G1 X167.675 Y88.309 E12.9098
G1 X168.483 Y88.751 E12.94043
G1 X169.249 Y89.261 E12.97104
G1 X169.743 Y89.646 E12.99187
G1 X169.996 Y89.855 E13.00278
G1 X170.68 Y90.471 E13.0334
G1 X171.307 Y91.145 E13.06401
G1 X171.874 Y91.871 E13.09465
G1 X172.283 Y92.489 E13.1193
G1 X172.457 Y92.773 E13.13038
G1 X172.904 Y93.579 E13.16103
G1 X173.279 Y94.419 E13.19163
G1 X173.579 Y95.29 E13.22227
G1 X173.865 Y96.512 E13.26401
G1 X173.938 Y96.936 E13.27832
G1 X174.055 Y97.85 E13.30897
G1 X174.091 Y98.606 E13.33414
G1 X174.099 Y99.305 E13.35739
G1 X174.099 Y101.104 E13.41723
G1 X174.09 Y101.741 E13.43842
G1 X174.059 Y102.408 E13.46062
G1 X174.043 Y102.615 E13.46753
G1 X173.946 Y103.448 E13.49542
G1 X173.851 Y104.051 E13.51573
G1 X173.492 Y106.552 E13.59976
G1 X173.205 Y109.056 E13.68359
G1 X172.985 Y111.61 E13.76885
G1 X172.841 Y114.116 E13.85234
G1 X172.767 Y116.626 E13.93586
G1 X172.763 Y119.174 E14.02061
G1 X172.832 Y121.681 E14.10402
G1 X172.974 Y124.237 E14.18916
G1 X173.184 Y126.745 E14.27287
G1 X173.463 Y129.225 E14.35588
G1 X173.94 Y132.509 E14.46625
G1 X173.992 Y132.929 E14.48033
G1 X174.033 Y133.321 E14.49344
G1 X174.09 Y134.272 E14.52512
G1 X174.099 Y134.964 E14.54814
G1 X174.099 Y135.722 E14.57335
G1 X174.09 Y136.424 E14.5967
G1 X174.038 Y137.343 E14.62732
G1 X173.958 Y137.959 E14.64798
G1 X173.901 Y138.316 E14.66
G1 X173.717 Y139.218 E14.69062
G1 X173.455 Y140.101 E14.72125
G1 X173.117 Y140.957 E14.75186
G1 X172.746 Y141.71 E14.77978
G1 X172.585 Y142.006 E14.79099
G1 X172.11 Y142.795 E14.82162
G1 X171.569 Y143.539 E14.85222
G1 X170.965 Y144.234 E14.88284
G1 X170.207 Y144.958 E14.91771
G1 X169.933 Y145.195 E14.92976
G1 X169.212 Y145.767 E14.96037
G1 X168.443 Y146.273 E14.99098
G1 X167.633 Y146.711 E15.02161
G1 X166.714 Y147.106 E15.05488
G1 X166.404 Y147.222 E15.06589
G1 X165.528 Y147.507 E15.09653
G1 X164.632 Y147.714 E15.12712
G1 X163.72 Y147.844 E15.15776
G1 X163.177 Y147.883 E15.17586
G1 X162.765 Y147.902 E15.18958
G1 X162.43 Y147.912 E15.20073
G1 X161.448 Y147.925 E15.23339
G1 X130.05 Y147.924 E16.27769
G1 X129.645 Y147.918 E16.29117
G1 X129.294 Y147.907 E16.30285
G1 X128.648 Y147.876 E16.32436
G1 X127.983 Y147.823 E16.34654
G1 X127.491 Y147.768 E16.36301
G1 X124.854 Y147.513 E16.45113
G1 X122.369 Y147.342 E16.53397
G1 X119.799 Y147.239 E16.61952
G1 X117.321 Y147.209 E16.70194
G1 X114.734 Y147.252 E16.788
G1 X112.264 Y147.362 E16.87023
G1 X109.739 Y147.547 E16.95444
G1 X108.159 Y147.713 E17.00728
G1 X106.508 Y147.861 E17.06241
G1 X105.778 Y147.901 E17.08673
G1 X104.483 Y147.925 E17.12981
G1 X72.861 Y147.92 E18.18156
G1 X72.345 Y147.907 E18.19873
G1 X71.773 Y147.879 E18.21778
G1 X70.856 Y147.794 E18.24841
G1 X69.95 Y147.63 E18.27903
G1 X69.062 Y147.388 E18.30964
G1 X68.451 Y147.172 E18.3312
G1 X68.168 Y147.062 E18.3413
G1 X67.325 Y146.691 E18.37193
G1 X66.517 Y146.249 E18.40256
G1 X65.751 Y145.739 E18.43317
G1 X65.257 Y145.354 E18.454
G1 X65.004 Y145.145 E18.46492
G1 X64.32 Y144.529 E18.49553
G1 X63.693 Y143.855 E18.52615
G1 X63.126 Y143.129 E18.55679
G1 X62.717 Y142.511 E18.58144
G1 X62.543 Y142.227 E18.59251
G1 X62.096 Y141.421 E18.62317
G1 X61.721 Y140.581 E18.65376
G1 X61.421 Y139.71 E18.6844
G1 X61.13 Y138.459 E18.72712
G1 X61.057 Y138.028 E18.74166
G1 X60.943 Y137.115 E18.77226
G1 X60.909 Y136.387 E18.7965
G1 X60.901 Y135.702 E18.81929
G1 X60.901 Y134.907 E18.84573
G1 X60.91 Y134.264 E18.86712
G1 X60.944 Y133.552 E18.89083
G1 X60.962 Y133.331 E18.8982
G1 X61.055 Y132.546 E18.92449
G1 X61.148 Y131.954 E18.94443
G1 X61.508 Y129.448 E19.02863
G1 X61.795 Y126.944 E19.11246
G1 X62.015 Y124.39 E19.19772
G1 X62.159 Y121.884 E19.28121
G1 X62.233 Y119.374 E19.36473
G1 X62.237 Y116.826 E19.44947
G1 X62.168 Y114.317 E19.53296
G1 X62.027 Y111.767 E19.6179
G1 X61.816 Y109.252 E19.70184
G1 X61.537 Y106.774 E19.78478
G1 X61.06 Y103.491 E19.89512
G1 X61.007 Y103.069 E19.90927
G1 X60.965 Y102.667 E19.92271
G1 X60.909 Y101.695 E19.95509
G1 X60.901 Y100.995 E19.97838
G1 X60.901 Y99.196 E20.03821
G1 X60.91 Y98.557 E20.05947
G1 X60.963 Y97.638 E20.09008
G1 X61.046 Y97.007 E20.11125
G1 X61.103 Y96.656 E20.12308
G1 X61.29 Y95.754 E20.15372
G1 X61.554 Y94.873 E20.18431
G1 X61.894 Y94.017 E20.21494
G1 X62.254 Y93.29 E20.24192
G1 X62.415 Y92.994 E20.25313
G1 X62.89 Y92.205 E20.28376
G1 X63.431 Y91.461 E20.31436
G1 X64.035 Y90.766 E20.34498
G1 X64.793 Y90.042 E20.37985
G1 X65.067 Y89.805 E20.3919
G1 X65.788 Y89.233 E20.42251
G1 X66.557 Y88.727 E20.45312
G1 X67.367 Y88.289 E20.48375
G1 X68.286 Y87.894 E20.51702
G1 X68.596 Y87.778 E20.52803
G1 X69.472 Y87.493 E20.55867
G1 X70.368 Y87.286 E20.58925
G1 X71.28 Y87.156 E20.61989
G1 X71.823 Y87.117 E20.638
G1 X72.235 Y87.098 E20.65172
G1 X72.57 Y87.088 E20.66287
G1 X73.552 Y87.075 E20.69553
G1 X104.95 Y87.076 E21.73983
G1 X105.706 Y87.093 E21.76498
G0 F6000 X105.725 Y86.694
G1 F1200 X106.371 Y86.725 E21.78649
G1 X107.061 Y86.78 E21.80952
G1 X107.517 Y86.831 E21.82478
G1 X110.178 Y87.089 E21.9137
G1 X112.675 Y87.26 E21.99694
G1 X115.185 Y87.361 E22.08049
G1 X117.712 Y87.391 E22.16455
G1 X120.205 Y87.35 E22.24748
G1 X122.725 Y87.237 E22.33138
G1 X125.221 Y87.055 E22.41461
G1 X126.805 Y86.889 E22.46759
G1 X128.456 Y86.741 E22.52272
G1 X129.213 Y86.699 E22.54794
G1 X130.517 Y86.675 E22.59131
G1 X162.139 Y86.68 E23.64307
G1 X162.675 Y86.693 E23.6609
G1 X163.247 Y86.721 E23.67995
G1 X164.181 Y86.807 E23.71114
G1 X165.104 Y86.972 E23.74233
G1 X166.01 Y87.215 E23.77353
G1 X166.694 Y87.455 E23.79764
G1 X166.977 Y87.565 E23.80774
G1 X167.836 Y87.942 E23.83894
G1 X168.66 Y88.391 E23.87015
G1 X169.442 Y88.908 E23.90133
G1 X169.998 Y89.337 E23.92468
G1 X170.251 Y89.546 E23.9356
G1 X170.948 Y90.174 E23.9668
G1 X171.589 Y90.859 E23.99801
G1 X172.169 Y91.595 E24.02917
G1 X172.625 Y92.28 E24.05654
G1 X172.799 Y92.564 E24.06762
G1 X173.254 Y93.384 E24.09881
G1 X173.638 Y94.24 E24.13002
G1 X173.948 Y95.125 E24.1612
G1 X174.26 Y96.445 E24.20632
G1 X174.333 Y96.869 E24.22063
G1 X174.452 Y97.799 E24.25181
G1 X174.491 Y98.601 E24.27852
G1 X174.499 Y99.304 E24.3019
G1 X174.499 Y101.109 E24.36194
G1 X174.49 Y101.746 E24.38312
G1 X174.458 Y102.439 E24.4062
G1 X174.442 Y102.646 E24.4131
G1 X174.341 Y103.51 E24.44204
G1 X174.254 Y104.06 E24.46056
G1 X173.892 Y106.583 E24.54533
G1 X173.599 Y109.139 E24.6309
G1 X173.387 Y111.596 E24.71292
G1 X173.24 Y114.151 E24.79804
G1 X173.167 Y116.639 E24.88083
G1 X173.163 Y119.164 E24.96481
G1 X173.232 Y121.683 E25.04863
G1 X173.371 Y124.18 E25.13181
G1 X173.582 Y126.703 E25.21601
G1 X173.862 Y129.188 E25.29919
G1 X174.336 Y132.452 E25.40889
G1 X174.39 Y132.888 E25.4235
G1 X174.431 Y133.28 E25.43661
G1 X174.49 Y134.266 E25.46946
G1 X174.499 Y134.964 E25.49268
G1 X174.499 Y135.727 E25.51806
G1 X174.49 Y136.429 E25.54141
G1 X174.438 Y137.365 E25.57259
G1 X174.353 Y138.022 E25.59462
G1 X174.296 Y138.379 E25.60665
G1 X174.109 Y139.298 E25.63784
G1 X173.844 Y140.198 E25.66904
G1 X173.504 Y141.072 E25.70023
G1 X173.097 Y141.901 E25.73095
G1 X172.936 Y142.197 E25.74216
G1 X172.453 Y143.001 E25.77335
G1 X171.904 Y143.761 E25.80454
G1 X171.291 Y144.471 E25.83574
G1 X170.469 Y145.261 E25.87365
G1 X170.195 Y145.498 E25.8857
G1 X169.46 Y146.08 E25.91689
G1 X168.678 Y146.598 E25.94808
G1 X167.855 Y147.048 E25.97928
G1 X166.854 Y147.48 E26.01554
G1 X166.544 Y147.596 E26.02655
G1 X165.652 Y147.887 E26.05776
G1 X164.739 Y148.101 E26.08895
G1 X163.811 Y148.237 E26.12014
G1 X163.196 Y148.282 E26.14065
G1 X162.784 Y148.301 E26.15437
G1 X162.436 Y148.312 E26.16595
G1 X161.448 Y148.325 E26.19882
G1 X130.044 Y148.324 E27.24332
G1 X129.639 Y148.318 E27.25679
G1 X129.275 Y148.306 E27.2689
G1 X128.629 Y148.275 E27.29041
G1 X127.939 Y148.22 E27.31343
G1 X127.483 Y148.169 E27.3287
G1 X124.822 Y147.911 E27.41762
G1 X122.325 Y147.74 E27.50086
G1 X119.815 Y147.639 E27.58441
G1 X117.288 Y147.609 E27.66847
G1 X114.795 Y147.65 E27.75139
G1 X112.275 Y147.763 E27.83529
G1 X109.779 Y147.945 E27.91853
G1 X108.195 Y148.111 E27.97151
G1 X106.544 Y148.259 E28.02664
G1 X105.787 Y148.301 E28.05185
G1 X104.483 Y148.325 E28.09523
G1 X72.861 Y148.32 E29.14698
G1 X72.325 Y148.307 E29.16482
G1 X71.753 Y148.279 E29.18387
G1 X70.819 Y148.193 E29.21506
G1 X69.896 Y148.028 E29.24625
G1 X68.99 Y147.785 E29.27745
G1 X68.306 Y147.545 E29.30156
G1 X68.023 Y147.435 E29.31165
G1 X67.164 Y147.058 E29.34286
G1 X66.34 Y146.609 E29.37407
G1 X65.558 Y146.092 E29.40525
G1 X65.002 Y145.663 E29.4286
G1 X64.749 Y145.454 E29.43952
G1 X64.052 Y144.826 E29.47072
G1 X63.411 Y144.141 E29.50193
G1 X62.831 Y143.405 E29.53309
G1 X62.375 Y142.72 E29.56046
G1 X62.201 Y142.436 E29.57154
G1 X61.746 Y141.616 E29.60273
G1 X61.362 Y140.76 E29.63393
G1 X61.052 Y139.875 E29.66512
G1 X60.735 Y138.526 E29.71121
G1 X60.662 Y138.095 E29.72575
G1 X60.545 Y137.164 E29.75696
G1 X60.509 Y136.392 E29.78267
G1 X60.501 Y135.702 E29.80562
G1 X60.501 Y134.901 E29.83226
G1 X60.51 Y134.258 E29.85365
G1 X60.545 Y133.519 E29.87825
G1 X60.563 Y133.298 E29.88563
G1 X60.66 Y132.484 E29.91289
G1 X60.753 Y131.892 E29.93283
G1 X61.108 Y129.417 E30.01599
G1 X61.401 Y126.859 E30.10162
G1 X61.613 Y124.404 E30.18358
G1 X61.761 Y121.836 E30.26913
G1 X61.833 Y119.361 E30.35149
G1 X61.837 Y116.836 E30.43547
G1 X61.768 Y114.317 E30.51928
G1 X61.629 Y111.819 E30.6025
G1 X61.418 Y109.297 E30.68667
G1 X61.138 Y106.811 E30.76988
