;FLAVOR:Marlin
;TIME:4650
;Filament used: 2.60813m
;Layer height: 0.2
;MINX:61.501
;MINY:86.675
;MINZ:0.2
;MAXX:173.499
;MAXY:148.325
;MAXZ:10
;Generated with Cura_SteamEngine 4.6.1
M140 S60
M105
M190 S60
M104 S200
M105
M109 S200
M82 ;absolute extrusion mode
; Ender 3 Custom Start G-code
G92 E0 ; Reset Extruder
G28 ; Home all axes
G1 Z2.0 F3000 ; Move Z Axis up little to prevent scratching of Heat Bed
G1 X0.1 Y20 Z0.3 F5000.0 ; Move to start position
G1 X0.1 Y200.0 Z0.3 F1500.0 E15 ; Draw the first line
G1 X0.4 Y200.0 Z0.3 F5000.0 ; Move to side a little
G1 X0.4 Y20 Z0.3 F1500.0 E30 ; Draw the second line
G92 E0 ; Reset Extruder
G1 Z2.0 F3000 ; Move Z Axis up little to prevent scratching of Heat Bed
G1 X5 Y20 Z0.3 F5000.0 ; Move over to prevent blob squish
G92 E0
G92 E0
G1 F1500 E-6.5
;LAYER_COUNT:50
;LAYER:0
M107
G0 F6000 X105.756 Y87.493 Z0.2
;TYPE:SKIRT
G1 F1500 E0
G1 F1200 X106.255 Y87.516 E0.01661
G1 X106.885 Y87.564 E0.03763
G1 X107.813 Y87.665 E0.06868
G1 X110.374 Y87.906 E0.15423
G1 X112.899 Y88.071 E0.23839
G1 X115.431 Y88.165 E0.32267
G1 X118 Y88.188 E0.40811
G1 X120.532 Y88.139 E0.49235
G1 X123.028 Y88.019 E0.57546
G1 X125.572 Y87.825 E0.66032
G1 X126.98 Y87.674 E0.70742
G1 X128.328 Y87.543 E0.75246
G1 X129.128 Y87.497 E0.77911
G1 X130.34 Y87.476 E0.81943
G1 X131.448 Y87.475 E0.85628
G1 X160.935 Y87.476 E1.83703
G1 X161.596 Y87.485 E1.85901
G1 X162.497 Y87.537 E1.88903
G1 X163.025 Y87.605 E1.90674
G1 X163.385 Y87.661 E1.91885
G1 X164.27 Y87.839 E1.94888
G1 X165.136 Y88.095 E1.97891
G1 X165.976 Y88.427 E2.00896
G1 X166.676 Y88.772 E2.03491
G1 X166.975 Y88.934 E2.04622
G1 X167.749 Y89.399 E2.07625
G1 X168.479 Y89.93 E2.10628
G1 X169.16 Y90.524 E2.13633
G1 X169.831 Y91.229 E2.16871
G1 X170.068 Y91.503 E2.18075
G1 X170.628 Y92.212 E2.2108
G1 X171.123 Y92.967 E2.24083
G1 X171.549 Y93.763 E2.27086
G1 X171.891 Y94.562 E2.29977
G1 X172.002 Y94.855 E2.31019
G1 X172.285 Y95.713 E2.34024
G1 X172.49 Y96.593 E2.37029
G1 X172.608 Y97.401 E2.39745
G1 X172.636 Y97.667 E2.40635
G1 X172.691 Y98.611 E2.4378
G1 X172.699 Y99.305 E2.46088
G1 X172.699 Y101.098 E2.52052
G1 X172.69 Y101.735 E2.5417
G1 X172.661 Y102.377 E2.56308
G1 X172.645 Y102.584 E2.56998
G1 X172.551 Y103.385 E2.59681
G1 X172.456 Y103.988 E2.61711
G1 X172.098 Y106.482 E2.70091
G1 X171.804 Y109.048 E2.78682
G1 X171.588 Y111.554 E2.87048
G1 X171.442 Y114.082 E2.9547
G1 X171.367 Y116.649 E3.04011
G1 X171.363 Y119.184 E3.12443
G1 X171.432 Y121.715 E3.20864
G1 X171.573 Y124.255 E3.29325
G1 X171.783 Y126.756 E3.37673
G1 X172.069 Y129.298 E3.46181
G1 X172.544 Y132.567 E3.57168
G1 X172.595 Y132.971 E3.58522
G1 X172.636 Y133.363 E3.59833
G1 X172.69 Y134.278 E3.62882
G1 X172.699 Y134.965 E3.65167
G1 X172.699 Y135.717 E3.67668
G1 X172.69 Y136.419 E3.70003
G1 X172.639 Y137.32 E3.73005
G1 X172.563 Y137.896 E3.74937
G1 X172.506 Y138.253 E3.76139
G1 X172.325 Y139.138 E3.79144
G1 X172.065 Y140.003 E3.82148
G1 X171.731 Y140.842 E3.85151
G1 X171.394 Y141.519 E3.87667
G1 X171.233 Y141.815 E3.88787
G1 X170.767 Y142.588 E3.91789
G1 X170.234 Y143.317 E3.94793
G1 X169.639 Y143.997 E3.97798
G1 X168.946 Y144.656 E4.00979
G1 X168.672 Y144.893 E4.02184
G1 X167.963 Y145.453 E4.05189
G1 X167.208 Y145.948 E4.08192
G1 X166.412 Y146.374 E4.11195
G1 X165.554 Y146.738 E4.14294
G1 X165.234 Y146.857 E4.1543
G1 X164.375 Y147.134 E4.18432
G1 X163.494 Y147.334 E4.21437
G1 X162.599 Y147.455 E4.24441
G1 X162.145 Y147.486 E4.25954
G1 X161.549 Y147.509 E4.27938
G1 X160.401 Y147.525 E4.31756
G1 X130.062 Y147.524 E5.32664
G1 X129.569 Y147.517 E5.34304
G1 X129.244 Y147.507 E5.35386
G1 X128.745 Y147.484 E5.37047
G1 X128.115 Y147.436 E5.39149
G1 X127.187 Y147.335 E5.42253
G1 X124.626 Y147.094 E5.50809
G1 X122.101 Y146.929 E5.59225
G1 X119.569 Y146.835 E5.67652
G1 X117 Y146.812 E5.76197
G1 X114.468 Y146.861 E5.8462
G1 X111.972 Y146.981 E5.92932
G1 X109.428 Y147.175 E6.01418
G1 X108.02 Y147.326 E6.06127
G1 X106.672 Y147.457 E6.10632
G1 X105.872 Y147.503 E6.13297
G1 X104.66 Y147.524 E6.17329
G1 X103.592 Y147.525 E6.20881
G1 X74.076 Y147.524 E7.19052
G1 X73.371 Y147.514 E7.21397
G1 X72.47 Y147.461 E7.24399
G1 X71.616 Y147.337 E7.27269
G1 X71.252 Y147.268 E7.28501
G1 X70.373 Y147.06 E7.31505
G1 X69.516 Y146.776 E7.34508
G1 X68.687 Y146.417 E7.37513
G1 X68.221 Y146.175 E7.39259
G1 X67.953 Y146.027 E7.40278
G1 X67.183 Y145.556 E7.4328
G1 X66.457 Y145.018 E7.46285
G1 X65.781 Y144.419 E7.49289
G1 X65.157 Y143.757 E7.52315
G1 X64.92 Y143.482 E7.53523
G1 X64.362 Y142.772 E7.56526
G1 X63.868 Y142.016 E7.5953
G1 X63.443 Y141.219 E7.62534
G1 X63.111 Y140.443 E7.65341
G1 X62.999 Y140.148 E7.66391
G1 X62.716 Y139.291 E7.69393
G1 X62.51 Y138.411 E7.72399
G1 X62.386 Y137.543 E7.75315
G1 X62.359 Y137.273 E7.76217
G1 X62.309 Y136.383 E7.79182
G1 X62.301 Y135.701 E7.81451
G1 X62.301 Y134.912 E7.84075
G1 X62.31 Y134.269 E7.86214
G1 X62.343 Y133.584 E7.88495
G1 X62.361 Y133.363 E7.89232
G1 X62.451 Y132.608 E7.91761
G1 X62.534 Y132.083 E7.93529
G1 X62.902 Y129.518 E8.02148
G1 X63.196 Y126.952 E8.10738
G1 X63.412 Y124.446 E8.19104
G1 X63.558 Y121.918 E8.27526
G1 X63.633 Y119.351 E8.36067
G1 X63.637 Y116.816 E8.44499
G1 X63.568 Y114.284 E8.52924
G1 X63.427 Y111.744 E8.61385
G1 X63.217 Y109.244 E8.69729
G1 X62.931 Y106.702 E8.78237
G1 X62.456 Y103.433 E8.89224
G1 X62.405 Y103.028 E8.90582
G1 X62.363 Y102.626 E8.91926
G1 X62.309 Y101.69 E8.95044
G1 X62.301 Y100.995 E8.97356
G1 X62.301 Y99.201 E9.03323
G1 X62.31 Y98.562 E9.05448
G1 X62.363 Y97.661 E9.0845
G1 X62.441 Y97.071 E9.1043
G1 X62.498 Y96.72 E9.11612
G1 X62.682 Y95.836 E9.14616
G1 X62.944 Y94.971 E9.17622
G1 X63.281 Y94.134 E9.20623
G1 X63.606 Y93.481 E9.23049
G1 X63.767 Y93.185 E9.2417
G1 X64.233 Y92.412 E9.27172
G1 X64.766 Y91.683 E9.30175
G1 X65.361 Y91.003 E9.3318
G1 X66.054 Y90.344 E9.36361
G1 X66.328 Y90.107 E9.37566
G1 X67.037 Y89.547 E9.40571
G1 X67.792 Y89.052 E9.43574
G1 X68.588 Y88.626 E9.46577
G1 X69.433 Y88.266 E9.49632
G1 X69.749 Y88.148 E9.50753
G1 X70.608 Y87.87 E9.53756
G1 X71.488 Y87.669 E9.56759
G1 X72.383 Y87.547 E9.59763
G1 X72.843 Y87.515 E9.61297
G1 X73.462 Y87.491 E9.63357
G1 X74.597 Y87.475 E9.67132
G1 X104.938 Y87.476 E10.68047
G1 X105.756 Y87.493 E10.70768
G0 F6000 X105.774 Y87.093
G1 F1200 X106.273 Y87.116 E10.7243
G1 X106.928 Y87.167 E10.74615
G1 X107.825 Y87.264 E10.77616
G1 X110.401 Y87.507 E10.86221
G1 X112.905 Y87.671 E10.94568
G1 X115.45 Y87.765 E11.03038
G1 X117.995 Y87.788 E11.11503
G1 X120.506 Y87.739 E11.19856
G1 X123.047 Y87.618 E11.28317
G1 X125.532 Y87.428 E11.36607
G1 X126.942 Y87.276 E11.41323
G1 X128.29 Y87.145 E11.45828
G1 X129.12 Y87.097 E11.48593
G1 X130.339 Y87.076 E11.52648
G1 X131.447 Y87.075 E11.56333
G1 X160.94 Y87.076 E12.54428
G1 X161.601 Y87.085 E12.56626
G1 X162.52 Y87.137 E12.59688
G1 X163.086 Y87.21 E12.61586
G1 X163.446 Y87.266 E12.62798
G1 X164.349 Y87.447 E12.65861
G1 X165.233 Y87.705 E12.68924
G1 X166.09 Y88.04 E12.71984
G1 X166.867 Y88.42 E12.74861
G1 X167.166 Y88.582 E12.75992
G1 X167.955 Y89.055 E12.79052
G1 X168.701 Y89.595 E12.82115
G1 X169.397 Y90.198 E12.85178
G1 X170.133 Y90.968 E12.8872
G1 X170.37 Y91.242 E12.89925
G1 X170.942 Y91.963 E12.92986
G1 X171.448 Y92.732 E12.96048
G1 X171.886 Y93.542 E12.99111
G1 X172.266 Y94.421 E13.02296
G1 X172.377 Y94.714 E13.03338
G1 X172.665 Y95.588 E13.06399
G1 X172.876 Y96.484 E13.0946
G1 X173.006 Y97.359 E13.12402
G1 X173.034 Y97.625 E13.13292
G1 X173.091 Y98.606 E13.1656
G1 X173.099 Y99.305 E13.18885
G1 X173.099 Y101.104 E13.24869
G1 X173.09 Y101.741 E13.26988
G1 X173.059 Y102.408 E13.29209
G1 X173.043 Y102.615 E13.29899
G1 X172.946 Y103.448 E13.32689
G1 X172.851 Y104.051 E13.34719
G1 X172.492 Y106.552 E13.43122
G1 X172.205 Y109.056 E13.51505
G1 X171.985 Y111.61 E13.60031
G1 X171.841 Y114.116 E13.6838
G1 X171.767 Y116.626 E13.76732
G1 X171.763 Y119.174 E13.85207
G1 X171.832 Y121.681 E13.93548
G1 X171.974 Y124.237 E14.02063
G1 X172.184 Y126.745 E14.10433
G1 X172.463 Y129.225 E14.18734
G1 X172.94 Y132.509 E14.29771
G1 X172.992 Y132.929 E14.31179
G1 X173.033 Y133.321 E14.3249
G1 X173.09 Y134.272 E14.35658
G1 X173.099 Y134.964 E14.3796
G1 X173.099 Y135.722 E14.40481
G1 X173.09 Y136.424 E14.42816
G1 X173.038 Y137.343 E14.45878
G1 X172.958 Y137.959 E14.47944
G1 X172.901 Y138.316 E14.49146
G1 X172.717 Y139.218 E14.52208
G1 X172.455 Y140.101 E14.55272
G1 X172.117 Y140.957 E14.58333
G1 X171.746 Y141.71 E14.61125
G1 X171.585 Y142.006 E14.62245
G1 X171.11 Y142.795 E14.65308
G1 X170.569 Y143.539 E14.68368
G1 X169.965 Y144.234 E14.71431
G1 X169.207 Y144.958 E14.74917
G1 X168.933 Y145.195 E14.76122
G1 X168.212 Y145.767 E14.79183
G1 X167.443 Y146.273 E14.82245
G1 X166.633 Y146.711 E14.85307
G1 X165.694 Y147.113 E14.88705
G1 X165.374 Y147.232 E14.8984
G1 X164.498 Y147.515 E14.92902
G1 X163.6 Y147.721 E14.95966
G1 X162.689 Y147.849 E14.99026
G1 X162.164 Y147.886 E15.00777
G1 X161.555 Y147.909 E15.02804
G1 X160.401 Y147.925 E15.06642
G1 X130.057 Y147.924 E16.07567
G1 X129.564 Y147.917 E16.09207
G1 X129.226 Y147.907 E16.10331
G1 X128.727 Y147.884 E16.11993
G1 X128.072 Y147.833 E16.14178
G1 X127.175 Y147.736 E16.17179
G1 X124.599 Y147.493 E16.25785
G1 X122.095 Y147.329 E16.34131
G1 X119.55 Y147.235 E16.42601
G1 X117.005 Y147.212 E16.51066
G1 X114.494 Y147.261 E16.5942
G1 X111.953 Y147.382 E16.67881
G1 X109.468 Y147.572 E16.7617
G1 X108.058 Y147.724 E16.80887
G1 X106.71 Y147.855 E16.85391
G1 X105.88 Y147.903 E16.88156
G1 X104.66 Y147.924 E16.92215
G1 X103.592 Y147.925 E16.95767
G1 X74.071 Y147.924 E17.93954
G1 X73.366 Y147.914 E17.96299
G1 X72.447 Y147.861 E17.99361
G1 X71.542 Y147.73 E18.02402
G1 X71.178 Y147.661 E18.03635
G1 X70.282 Y147.45 E18.06696
G1 X69.407 Y147.162 E18.0976
G1 X68.561 Y146.8 E18.12821
G1 X68.028 Y146.525 E18.14815
G1 X67.76 Y146.377 E18.15834
G1 X66.974 Y145.897 E18.18897
G1 X66.233 Y145.351 E18.21958
G1 X65.542 Y144.743 E18.2502
G1 X64.854 Y144.018 E18.28344
G1 X64.617 Y143.743 E18.29551
G1 X64.047 Y143.02 E18.32613
G1 X63.542 Y142.251 E18.35673
G1 X63.105 Y141.44 E18.38737
G1 X62.737 Y140.585 E18.41833
G1 X62.625 Y140.29 E18.42883
G1 X62.336 Y139.416 E18.45945
G1 X62.124 Y138.52 E18.49007
G1 X61.988 Y137.583 E18.52156
G1 X61.961 Y137.313 E18.53059
G1 X61.909 Y136.387 E18.56143
G1 X61.901 Y135.702 E18.58422
G1 X61.901 Y134.907 E18.61066
G1 X61.91 Y134.264 E18.63205
G1 X61.944 Y133.552 E18.65576
G1 X61.962 Y133.331 E18.66313
G1 X62.055 Y132.546 E18.68942
G1 X62.148 Y131.954 E18.70936
G1 X62.508 Y129.448 E18.79356
G1 X62.795 Y126.944 E18.87739
G1 X63.015 Y124.39 E18.96265
G1 X63.159 Y121.884 E19.04614
G1 X63.233 Y119.374 E19.12966
G1 X63.237 Y116.826 E19.2144
G1 X63.168 Y114.317 E19.29789
G1 X63.027 Y111.767 E19.38283
G1 X62.816 Y109.252 E19.46677
G1 X62.537 Y106.774 E19.54971
G1 X62.06 Y103.491 E19.66005
G1 X62.007 Y103.069 E19.6742
G1 X61.965 Y102.667 E19.68764
G1 X61.909 Y101.695 E19.72002
G1 X61.901 Y100.995 E19.74331
G1 X61.901 Y99.196 E19.80314
G1 X61.91 Y98.557 E19.8244
G1 X61.963 Y97.638 E19.85501
G1 X62.046 Y97.007 E19.87618
G1 X62.103 Y96.656 E19.88801
G1 X62.29 Y95.754 E19.91865
G1 X62.554 Y94.873 E19.94924
G1 X62.894 Y94.017 E19.97987
G1 X63.254 Y93.29 E20.00685
G1 X63.415 Y92.994 E20.01806
G1 X63.89 Y92.205 E20.04869
G1 X64.431 Y91.461 E20.07929
G1 X65.035 Y90.766 E20.10991
G1 X65.793 Y90.042 E20.14478
G1 X66.067 Y89.805 E20.15682
G1 X66.788 Y89.233 E20.18744
G1 X67.557 Y88.727 E20.21805
G1 X68.367 Y88.289 E20.24868
G1 X69.293 Y87.892 E20.28219
G1 X69.609 Y87.774 E20.29341
G1 X70.485 Y87.489 E20.32405
G1 X71.382 Y87.282 E20.35467
G1 X72.293 Y87.154 E20.38526
G1 X72.825 Y87.115 E20.40301
G1 X73.126 Y87.101 E20.41303
G1 X73.456 Y87.091 E20.42401
G1 X74.597 Y87.075 E20.46196
G1 X104.943 Y87.076 E21.47127
G1 X105.774 Y87.093 E21.49892
G0 F6000 X105.792 Y86.694
G1 F1200 X106.291 Y86.717 E21.51553
G1 X106.971 Y86.769 E21.53822
G1 X107.831 Y86.862 E21.56699
G1 X110.466 Y87.11 E21.65502
G1 X112.945 Y87.273 E21.73765
G1 X115.433 Y87.365 E21.82045
G1 X117.991 Y87.388 E21.90554
G1 X120.515 Y87.339 E21.9895
G1 X122.998 Y87.22 E22.07218
G1 X125.489 Y87.03 E22.15527
G1 X126.903 Y86.878 E22.20257
G1 X128.251 Y86.747 E22.24762
G1 X129.113 Y86.697 E22.27634
G1 X130.339 Y86.676 E22.31712
G1 X131.447 Y86.675 E22.35397
G1 X160.946 Y86.676 E23.33511
G1 X161.607 Y86.685 E23.3571
G1 X162.543 Y86.738 E23.38828
G1 X163.148 Y86.815 E23.40857
G1 X163.508 Y86.871 E23.42068
G1 X164.428 Y87.054 E23.45188
G1 X165.328 Y87.315 E23.48305
G1 X166.204 Y87.652 E23.51427
G1 X167.057 Y88.068 E23.54583
G1 X167.356 Y88.23 E23.55714
G1 X168.161 Y88.712 E23.58835
G1 X168.922 Y89.26 E23.61954
G1 X169.633 Y89.871 E23.65072
G1 X170.436 Y90.706 E23.68925
G1 X170.673 Y90.98 E23.7013
G1 X171.255 Y91.715 E23.73248
G1 X171.773 Y92.497 E23.76368
G1 X172.223 Y93.32 E23.79488
G1 X172.64 Y94.279 E23.82966
G1 X172.751 Y94.572 E23.84008
G1 X173.045 Y95.462 E23.87126
G1 X173.263 Y96.375 E23.90248
G1 X173.404 Y97.317 E23.93416
G1 X173.432 Y97.583 E23.94305
G1 X173.491 Y98.601 E23.97697
G1 X173.499 Y99.304 E24.00035
G1 X173.499 Y101.109 E24.06039
G1 X173.49 Y101.746 E24.08157
G1 X173.458 Y102.439 E24.10465
G1 X173.442 Y102.646 E24.11155
G1 X173.341 Y103.51 E24.14049
G1 X173.254 Y104.06 E24.15901
G1 X172.892 Y106.583 E24.24378
G1 X172.599 Y109.139 E24.32935
G1 X172.387 Y111.596 E24.41137
G1 X172.24 Y114.151 E24.49649
G1 X172.167 Y116.639 E24.57928
G1 X172.163 Y119.164 E24.66326
G1 X172.232 Y121.683 E24.74708
G1 X172.371 Y124.18 E24.83026
G1 X172.582 Y126.703 E24.91446
G1 X172.862 Y129.188 E24.99764
G1 X173.336 Y132.452 E25.10734
G1 X173.39 Y132.888 E25.12195
G1 X173.431 Y133.28 E25.13506
G1 X173.49 Y134.266 E25.16791
G1 X173.499 Y134.964 E25.19113
G1 X173.499 Y135.727 E25.21651
G1 X173.49 Y136.429 E25.23986
G1 X173.438 Y137.365 E25.27104
G1 X173.353 Y138.022 E25.29307
G1 X173.296 Y138.379 E25.3051
G1 X173.109 Y139.298 E25.33629
G1 X172.844 Y140.198 E25.36749
G1 X172.504 Y141.072 E25.39869
G1 X172.097 Y141.901 E25.4294
G1 X171.936 Y142.197 E25.44061
G1 X171.453 Y143.001 E25.4718
G1 X170.904 Y143.761 E25.50299
G1 X170.291 Y144.471 E25.53419
G1 X169.469 Y145.261 E25.57211
G1 X169.195 Y145.498 E25.58415
G1 X168.46 Y146.08 E25.61534
G1 X167.678 Y146.598 E25.64653
G1 X166.855 Y147.048 E25.67773
G1 X165.833 Y147.488 E25.71474
G1 X165.513 Y147.607 E25.7261
G1 X164.621 Y147.896 E25.75728
G1 X163.707 Y148.108 E25.78849
G1 X162.779 Y148.242 E25.81967
G1 X162.182 Y148.285 E25.83958
G1 X161.561 Y148.309 E25.86025
G1 X160.401 Y148.325 E25.89884
G1 X130.051 Y148.324 E26.90828
G1 X129.558 Y148.317 E26.92468
G1 X129.208 Y148.306 E26.93633
G1 X128.709 Y148.283 E26.95294
G1 X128.029 Y148.231 E26.97563
G1 X127.169 Y148.138 E27.0044
G1 X124.534 Y147.89 E27.09242
G1 X122.055 Y147.727 E27.17505
G1 X119.567 Y147.635 E27.25786
G1 X117.009 Y147.612 E27.34294
G1 X114.485 Y147.661 E27.42691
G1 X112.002 Y147.78 E27.50959
G1 X109.511 Y147.97 E27.59268
G1 X108.097 Y148.122 E27.63998
G1 X106.749 Y148.253 E27.68503
G1 X105.887 Y148.303 E27.71375
G1 X104.66 Y148.324 E27.75456
G1 X103.592 Y148.325 E27.79008
G1 X74.065 Y148.324 E28.77216
G1 X73.36 Y148.314 E28.79561
G1 X72.424 Y148.261 E28.82679
G1 X71.467 Y148.123 E28.85895
G1 X71.103 Y148.054 E28.87127
G1 X70.19 Y147.84 E28.90246
G1 X69.298 Y147.549 E28.93367
G1 X68.435 Y147.183 E28.96484
G1 X67.834 Y146.875 E28.98731
G1 X67.566 Y146.727 E28.99749
G1 X66.765 Y146.239 E29.02868
G1 X66.009 Y145.685 E29.05986
G1 X65.303 Y145.068 E29.09104
G1 X64.551 Y144.279 E29.1273
G1 X64.314 Y144.004 E29.13937
G1 X63.733 Y143.268 E29.17056
G1 X63.216 Y142.485 E29.20176
G1 X62.768 Y141.662 E29.23293
G1 X62.363 Y140.727 E29.26682
G1 X62.251 Y140.432 E29.27732
G1 X61.956 Y139.542 E29.3085
G1 X61.738 Y138.63 E29.33969
G1 X61.59 Y137.623 E29.37354
G1 X61.563 Y137.353 E29.38257
G1 X61.509 Y136.392 E29.41458
G1 X61.501 Y135.702 E29.43753
G1 X61.501 Y134.901 E29.46417
G1 X61.51 Y134.258 E29.48556
G1 X61.545 Y133.519 E29.51017
G1 X61.563 Y133.298 E29.51754
G1 X61.66 Y132.484 E29.54481
G1 X61.753 Y131.892 E29.56474
G1 X62.108 Y129.417 E29.6479
G1 X62.401 Y126.859 E29.73354
G1 X62.613 Y124.404 E29.81549
G1 X62.761 Y121.836 E29.90105
G1 X62.833 Y119.361 E29.9834
G1 X62.837 Y116.836 E30.06738
