;FLAVOR:Marlin
;TIME:4166
;Filament used: 2.13177m
;Layer height: 0.2
;MINX:82.654
;MINY:86.025
;MINZ:0.2
;MAXX:152.35
;MAXY:148.975
;MAXZ:23.8
;Generated with Cura_SteamEngine 4.6.1
M140 S60
M105
M190 S60
M104 S200
M105
M109 S200
M82 ;absolute extrusion mode
; Ender 3 Custom Start G-code
G92 E0 ; Reset Extruder
G28 ; Home all axes
G1 Z2.0 F3000 ; Move Z Axis up little to prevent scratching of Heat Bed
G1 X0.1 Y20 Z0.3 F5000.0 ; Move to start position
G1 X0.1 Y200.0 Z0.3 F1500.0 E15 ; Draw the first line
G1 X0.4 Y200.0 Z0.3 F5000.0 ; Move to side a little
G1 X0.4 Y20 Z0.3 F1500.0 E30 ; Draw the second line
G92 E0 ; Reset Extruder
G1 Z2.0 F3000 ; Move Z Axis up little to prevent scratching of Heat Bed
G1 X5 Y20 Z0.3 F5000.0 ; Move over to prevent blob squish
G92 E0
G92 E0
G1 F1500 E-6.5
;LAYER_COUNT:119
;LAYER:0
M107
G0 F6000 X123.303 Y86.852 Z0.2
;TYPE:SKIRT
G1 F1500 E0
G1 F1200 X124.244 Y86.934 E0.03142
G1 X124.526 Y86.972 E0.04088
G1 X125.739 Y87.211 E0.082
G1 X126.065 Y87.296 E0.09321
G1 X128.598 Y87.916 E0.17994
G1 X131.105 Y88.456 E0.26524
G1 X133.549 Y88.907 E0.3479
G1 X136.035 Y89.295 E0.43158
G1 X139.821 Y89.754 E0.55843
G1 X140.583 Y89.831 E0.5839
G1 X141.214 Y89.914 E0.60507
G1 X141.445 Y89.952 E0.61285
G1 X142.541 Y90.195 E0.65019
G1 X142.748 Y90.253 E0.65734
G1 X143.922 Y90.661 E0.69868
G1 X144.133 Y90.749 E0.70629
G1 X145.131 Y91.23 E0.74313
G1 X145.336 Y91.343 E0.75092
G1 X146.107 Y91.814 E0.78097
G1 X146.749 Y92.283 E0.80741
G1 X147.082 Y92.547 E0.82155
G1 X147.764 Y93.139 E0.85158
G1 X148.232 Y93.613 E0.87374
G1 X148.368 Y93.76 E0.8804
G1 X149.137 Y94.697 E0.92072
G1 X149.285 Y94.901 E0.9291
G1 X149.925 Y95.902 E0.96862
G1 X150.031 Y96.091 E0.97582
G1 X150.524 Y97.093 E1.01296
G1 X150.617 Y97.312 E1.02088
G1 X151.014 Y98.424 E1.06015
G1 X151.071 Y98.618 E1.06687
G1 X151.328 Y99.712 E1.10425
G1 X151.364 Y99.915 E1.11111
G1 X151.502 Y101.067 E1.1497
G1 X151.541 Y101.878 E1.1767
G1 X151.55 Y102.397 E1.19397
G1 X151.549 Y129.471 E2.09445
G1 X151.54 Y130.141 E2.11674
G1 X151.524 Y130.599 E2.13198
G1 X151.508 Y130.873 E2.14111
G1 X151.415 Y131.771 E2.17114
G1 X151.29 Y132.454 E2.19423
G1 X151.209 Y132.825 E2.20686
G1 X150.978 Y133.698 E2.2369
G1 X150.731 Y134.397 E2.26156
G1 X150.635 Y134.64 E2.27025
G1 X150.088 Y135.803 E2.31299
G1 X149.971 Y136.016 E2.32107
G1 X149.38 Y136.964 E2.35823
G1 X149.26 Y137.135 E2.36518
G1 X148.553 Y138.032 E2.40317
G1 X148.408 Y138.196 E2.41045
G1 X147.587 Y139.024 E2.44923
G1 X147.418 Y139.176 E2.45679
G1 X146.552 Y139.873 E2.49376
G1 X146.374 Y140.001 E2.50106
G1 X145.369 Y140.639 E2.54065
G1 X145.178 Y140.745 E2.54791
G1 X144.215 Y141.215 E2.58355
G1 X143.996 Y141.308 E2.59147
G1 X142.721 Y141.752 E2.63637
G1 X141.759 Y142.017 E2.66956
G1 X139.272 Y142.731 E2.75562
G1 X136.84 Y143.504 E2.8405
G1 X134.419 Y144.351 E2.9258
G1 X132.067 Y145.247 E3.00952
G1 X129.738 Y146.212 E3.09337
G1 X128.496 Y146.768 E3.13863
G1 X127.541 Y147.181 E3.17323
G1 X126.755 Y147.483 E3.20124
G1 X126.521 Y147.562 E3.20945
G1 X125.653 Y147.813 E3.2395
G1 X125.14 Y147.923 E3.25695
G1 X124.847 Y147.978 E3.26687
G1 X123.953 Y148.105 E3.2969
G1 X123.478 Y148.14 E3.31274
G1 X123.22 Y148.153 E3.32134
G1 X122.84 Y148.165 E3.33398
G1 X122.107 Y148.174 E3.35836
G1 X121.437 Y148.175 E3.38065
G1 X96.238 Y148.174 E4.21877
G1 X95.47 Y148.163 E4.24432
G1 X94.533 Y148.106 E4.27554
G1 X94.196 Y148.07 E4.28681
G1 X93.303 Y147.935 E4.31685
G1 X92.763 Y147.813 E4.33526
G1 X92.488 Y147.743 E4.3447
G1 X91.623 Y147.481 E4.37476
G1 X91.072 Y147.269 E4.3944
G1 X90.859 Y147.18 E4.40208
G1 X89.864 Y146.7 E4.43882
G1 X89.661 Y146.588 E4.44653
G1 X88.89 Y146.117 E4.47658
G1 X88.251 Y145.649 E4.50292
G1 X87.913 Y145.381 E4.51727
G1 X87.231 Y144.79 E4.54729
G1 X86.604 Y144.14 E4.57732
G1 X86.298 Y143.777 E4.59312
G1 X86.016 Y143.426 E4.60809
G1 X85.483 Y142.698 E4.6381
G1 X85.056 Y141.999 E4.66534
G1 X84.948 Y141.805 E4.67273
G1 X84.455 Y140.792 E4.7102
G1 X84.366 Y140.58 E4.71785
G1 X83.975 Y139.474 E4.75686
G1 X83.919 Y139.281 E4.76355
G1 X83.664 Y138.175 E4.8013
G1 X83.621 Y137.926 E4.8097
G1 X83.486 Y136.729 E4.84977
G1 X83.475 Y136.521 E4.85669
G1 X83.468 Y135.618 E4.88673
G1 X83.587 Y134.381 E4.92806
G1 X83.692 Y133.728 E4.95006
G1 X83.974 Y132.095 E5.00518
G1 X84.337 Y129.579 E5.08973
G1 X84.628 Y127.055 E5.17423
G1 X84.846 Y124.538 E5.25826
G1 X84.996 Y121.963 E5.34405
G1 X85.071 Y119.467 E5.42711
G1 X85.075 Y116.897 E5.51258
G1 X85.009 Y114.399 E5.5957
G1 X84.867 Y111.813 E5.68184
G1 X84.658 Y109.327 E5.76481
G1 X84.375 Y106.794 E5.84959
G1 X84.015 Y104.231 E5.93567
G1 X83.612 Y101.823 E6.01687
G1 X83.484 Y100.643 E6.05635
G1 X83.469 Y100.339 E6.06647
G1 X83.458 Y99.967 E6.07885
G1 X83.454 Y99.379 E6.09841
G1 X83.461 Y98.89 E6.11467
G1 X83.489 Y98.236 E6.13645
G1 X83.611 Y97.133 E6.17336
G1 X83.647 Y96.916 E6.18067
G1 X83.887 Y95.833 E6.21757
G1 X83.945 Y95.626 E6.22472
G1 X84.36 Y94.436 E6.26663
G1 X84.448 Y94.226 E6.27421
G1 X84.92 Y93.247 E6.31036
G1 X85.034 Y93.04 E6.31822
G1 X85.505 Y92.269 E6.34827
G1 X85.997 Y91.598 E6.37594
G1 X86.266 Y91.261 E6.39028
G1 X86.86 Y90.581 E6.42031
G1 X87.838 Y89.682 E6.4645
G1 X88.183 Y89.404 E6.47923
G1 X88.911 Y88.869 E6.50928
G1 X89.594 Y88.45 E6.53593
G1 X89.783 Y88.344 E6.54314
G1 X90.785 Y87.851 E6.58028
G1 X91.004 Y87.758 E6.58819
G1 X92.129 Y87.357 E6.62792
G1 X92.324 Y87.3 E6.63467
G1 X93.468 Y87.036 E6.67372
G1 X93.708 Y86.995 E6.68182
G1 X95.029 Y86.857 E6.726
G1 X95.722 Y86.834 E6.74906
G1 X96.547 Y86.825 E6.7765
G1 X122.191 Y86.826 E7.62942
G1 X123.303 Y86.852 E7.66642
G0 F6000 X123.319 Y86.452
G1 F1200 X124.298 Y86.538 E7.69911
G1 X124.58 Y86.576 E7.70857
G1 X125.84 Y86.824 E7.75128
G1 X126.194 Y86.916 E7.76345
G1 X128.671 Y87.522 E7.84826
G1 X131.164 Y88.059 E7.93308
G1 X133.646 Y88.518 E8.01703
G1 X136.084 Y88.898 E8.0991
G1 X139.86 Y89.356 E8.22561
G1 X140.623 Y89.433 E8.25112
G1 X141.279 Y89.52 E8.27313
G1 X141.51 Y89.558 E8.28091
G1 X142.649 Y89.81 E8.31971
G1 X142.856 Y89.868 E8.32686
G1 X144.076 Y90.292 E8.36982
G1 X144.287 Y90.38 E8.37743
G1 X145.324 Y90.88 E8.41572
G1 X145.529 Y90.993 E8.4235
G1 X146.315 Y91.472 E8.45412
G1 X146.997 Y91.97 E8.4822
G1 X147.33 Y92.234 E8.49634
G1 X148.026 Y92.836 E8.52694
G1 X148.526 Y93.341 E8.55058
G1 X148.662 Y93.488 E8.55724
G1 X149.461 Y94.462 E8.59914
G1 X149.609 Y94.666 E8.60752
G1 X150.274 Y95.706 E8.64858
G1 X150.38 Y95.895 E8.65579
G1 X150.892 Y96.937 E8.6944
G1 X150.985 Y97.156 E8.70232
G1 X151.398 Y98.311 E8.74312
G1 X151.455 Y98.505 E8.74984
G1 X151.722 Y99.642 E8.78869
G1 X151.758 Y99.845 E8.79554
G1 X151.901 Y101.042 E8.83564
G1 X151.931 Y101.587 E8.85379
G1 X151.948 Y102.157 E8.87276
G1 X151.95 Y102.393 E8.88061
G1 X151.949 Y129.476 E9.78139
G1 X151.94 Y130.146 E9.80368
G1 X151.923 Y130.622 E9.81952
G1 X151.907 Y130.896 E9.82865
G1 X151.813 Y131.812 E9.85928
G1 X151.681 Y132.539 E9.88385
G1 X151.6 Y132.91 E9.89648
G1 X151.365 Y133.8 E9.9271
G1 X151.103 Y134.544 E9.95333
G1 X151.007 Y134.787 E9.96202
G1 X150.439 Y135.995 E10.00642
G1 X150.322 Y136.208 E10.0145
G1 X149.708 Y137.194 E10.05314
G1 X149.588 Y137.365 E10.06009
G1 X148.852 Y138.297 E10.09958
G1 X148.707 Y138.461 E10.10687
G1 X147.854 Y139.321 E10.14715
G1 X147.685 Y139.473 E10.15471
G1 X146.786 Y140.198 E10.19313
G1 X146.608 Y140.326 E10.20042
G1 X145.563 Y140.988 E10.24156
G1 X145.372 Y141.094 E10.24883
G1 X144.371 Y141.583 E10.28588
G1 X144.152 Y141.676 E10.29379
G1 X143.29 Y141.998 E10.3244
G1 X142.828 Y142.137 E10.34045
G1 X141.947 Y142.38 E10.37084
G1 X139.366 Y143.121 E10.46016
G1 X136.957 Y143.887 E10.54423
G1 X134.576 Y144.719 E10.62812
G1 X132.226 Y145.615 E10.71177
G1 X129.889 Y146.583 E10.7959
G1 X128.654 Y147.135 E10.8409
G1 X127.699 Y147.548 E10.8755
G1 X126.883 Y147.862 E10.90458
G1 X126.649 Y147.941 E10.9128
G1 X125.764 Y148.197 E10.94344
G1 X125.214 Y148.316 E10.96215
G1 X124.921 Y148.371 E10.97207
G1 X124.009 Y148.501 E11.00271
G1 X123.498 Y148.54 E11.01976
G1 X123.24 Y148.553 E11.02835
G1 X122.845 Y148.565 E11.04149
G1 X122.108 Y148.574 E11.06601
G1 X121.438 Y148.575 E11.08829
G1 X96.232 Y148.574 E11.92665
G1 X95.464 Y148.563 E11.95219
G1 X94.49 Y148.504 E11.98465
G1 X94.153 Y148.468 E11.99592
G1 X93.243 Y148.331 E12.02653
G1 X92.664 Y148.2 E12.04627
G1 X92.389 Y148.13 E12.05571
G1 X91.508 Y147.865 E12.08631
G1 X90.917 Y147.639 E12.10735
G1 X90.704 Y147.55 E12.11503
G1 X89.67 Y147.05 E12.15323
G1 X89.467 Y146.938 E12.16094
G1 X88.681 Y146.459 E12.19156
G1 X88.002 Y145.963 E12.21952
G1 X87.664 Y145.695 E12.23387
G1 X86.968 Y145.092 E12.2645
G1 X86.327 Y144.431 E12.29513
G1 X85.987 Y144.028 E12.31266
G1 X85.705 Y143.677 E12.32764
G1 X85.16 Y142.935 E12.35826
G1 X84.706 Y142.194 E12.38716
G1 X84.598 Y142 E12.39455
G1 X84.086 Y140.947 E12.43349
G1 X83.997 Y140.735 E12.44114
G1 X83.591 Y139.586 E12.48167
G1 X83.535 Y139.393 E12.48835
G1 X83.27 Y138.243 E12.5276
G1 X83.227 Y137.994 E12.53601
G1 X83.087 Y136.75 E12.57765
G1 X83.076 Y136.542 E12.58457
G1 X83.067 Y135.621 E12.61521
G1 X83.192 Y134.318 E12.65874
G1 X83.298 Y133.659 E12.68094
G1 X83.579 Y132.035 E12.73576
G1 X83.942 Y129.512 E12.82054
G1 X84.23 Y127.01 E12.90431
G1 X84.447 Y124.514 E12.98764
G1 X84.596 Y121.963 E13.07263
G1 X84.671 Y119.454 E13.15612
G1 X84.675 Y116.907 E13.24083
G1 X84.608 Y114.397 E13.32434
G1 X84.469 Y111.866 E13.40865
G1 X84.257 Y109.332 E13.49323
G1 X83.981 Y106.862 E13.57589
G1 X83.623 Y104.313 E13.6615
G1 X83.217 Y101.889 E13.74325
G1 X83.085 Y100.662 E13.78429
G1 X83.07 Y100.358 E13.79442
G1 X83.058 Y99.972 E13.80726
G1 X83.054 Y99.373 E13.82719
G1 X83.061 Y98.884 E13.84345
G1 X83.089 Y98.214 E13.86575
G1 X83.216 Y97.067 E13.90414
G1 X83.252 Y96.85 E13.91145
G1 X83.502 Y95.725 E13.94978
G1 X83.56 Y95.518 E13.95693
G1 X83.991 Y94.281 E14.0005
G1 X84.079 Y94.071 E14.00808
G1 X84.57 Y93.054 E14.04564
G1 X84.684 Y92.847 E14.0535
G1 X85.163 Y92.061 E14.08411
G1 X85.685 Y91.348 E14.1135
G1 X85.954 Y91.011 E14.12784
G1 X86.559 Y90.317 E14.15847
G1 X87.222 Y89.679 E14.18907
G1 X87.587 Y89.37 E14.20497
G1 X87.932 Y89.092 E14.21971
G1 X88.673 Y88.546 E14.25032
G1 X89.398 Y88.101 E14.27862
G1 X89.587 Y87.995 E14.28583
G1 X90.629 Y87.483 E14.32444
G1 X90.848 Y87.39 E14.33235
G1 X92.017 Y86.973 E14.37364
G1 X92.212 Y86.916 E14.38039
G1 X93.401 Y86.641 E14.42098
G1 X93.641 Y86.6 E14.42908
G1 X95.014 Y86.457 E14.47499
G1 X95.718 Y86.434 E14.49842
G1 X96.547 Y86.425 E14.526
G1 X122.197 Y86.426 E15.37912
G1 X123.319 Y86.452 E15.41645
G0 F6000 X123.336 Y86.052
G1 F1200 X124.351 Y86.142 E15.45034
G1 X124.633 Y86.18 E15.4598
G1 X125.941 Y86.437 E15.50414
G1 X126.263 Y86.521 E15.51521
G1 X128.779 Y87.136 E15.60135
G1 X131.249 Y87.669 E15.6854
G1 X133.674 Y88.116 E15.76741
G1 X136.162 Y88.504 E15.85116
G1 X139.904 Y88.958 E15.97653
G1 X140.663 Y89.035 E16.00191
G1 X141.344 Y89.125 E16.02475
G1 X141.575 Y89.163 E16.03254
G1 X142.757 Y89.425 E16.07281
G1 X142.964 Y89.483 E16.07996
G1 X144.23 Y89.923 E16.12454
G1 X144.441 Y90.011 E16.13214
G1 X145.517 Y90.53 E16.17187
G1 X145.722 Y90.643 E16.17966
G1 X146.523 Y91.13 E16.21084
G1 X147.246 Y91.656 E16.24058
G1 X147.579 Y91.92 E16.25471
G1 X148.288 Y92.534 E16.28591
G1 X148.819 Y93.07 E16.311
G1 X148.955 Y93.217 E16.31766
G1 X149.785 Y94.227 E16.36114
G1 X149.933 Y94.431 E16.36952
G1 X150.623 Y95.51 E16.41212
G1 X150.729 Y95.699 E16.41933
G1 X151.26 Y96.78 E16.45939
G1 X151.353 Y96.999 E16.4673
G1 X151.782 Y98.198 E16.50966
G1 X151.839 Y98.392 E16.51638
G1 X152.116 Y99.572 E16.55669
G1 X152.152 Y99.775 E16.56355
G1 X152.3 Y101.017 E16.60515
G1 X152.331 Y101.573 E16.62367
G1 X152.35 Y102.39 E16.65085
G1 X152.349 Y129.482 E17.55194
G1 X152.34 Y130.152 E17.57422
G1 X152.322 Y130.645 E17.59063
G1 X152.306 Y130.919 E17.59976
G1 X152.212 Y131.852 E17.63095
G1 X152.072 Y132.624 E17.65705
G1 X151.991 Y132.995 E17.66968
G1 X151.752 Y133.902 E17.70087
G1 X151.475 Y134.691 E17.72869
G1 X151.379 Y134.934 E17.73738
G1 X150.789 Y136.188 E17.78347
G1 X150.672 Y136.401 E17.79155
G1 X150.035 Y137.424 E17.83163
G1 X149.915 Y137.595 E17.83858
G1 X149.152 Y138.562 E17.87955
G1 X149.007 Y138.726 E17.88683
G1 X148.122 Y139.619 E17.92865
G1 X147.953 Y139.771 E17.93621
G1 X147.019 Y140.523 E17.97609
G1 X146.841 Y140.651 E17.98338
G1 X145.757 Y141.338 E18.02607
G1 X145.566 Y141.444 E18.03333
G1 X144.528 Y141.951 E18.07176
G1 X144.309 Y142.044 E18.07967
G1 X143.431 Y142.373 E18.11085
G1 X142.934 Y142.523 E18.12812
G1 X141.973 Y142.788 E18.16128
G1 X139.492 Y143.5 E18.24713
G1 X137.104 Y144.259 E18.33047
G1 X134.715 Y145.094 E18.41464
G1 X132.343 Y145.999 E18.49908
G1 X130.056 Y146.946 E18.58141
G1 X128.813 Y147.502 E18.6267
G1 X127.858 Y147.915 E18.66131
G1 X127.011 Y148.241 E18.69149
G1 X126.777 Y148.32 E18.69971
G1 X125.876 Y148.582 E18.73091
G1 X125.287 Y148.709 E18.75095
G1 X124.994 Y148.764 E18.76087
G1 X124.066 Y148.898 E18.79206
G1 X123.519 Y148.939 E18.8103
G1 X123.261 Y148.952 E18.81889
G1 X122.85 Y148.965 E18.83257
G1 X122.108 Y148.974 E18.85725
G1 X121.438 Y148.975 E18.87953
G1 X96.226 Y148.974 E19.71809
G1 X95.458 Y148.963 E19.74363
G1 X94.448 Y148.902 E19.77729
G1 X94.111 Y148.866 E19.78856
G1 X93.183 Y148.726 E19.81978
G1 X92.566 Y148.588 E19.8408
G1 X92.291 Y148.518 E19.85024
G1 X91.392 Y148.248 E19.88146
G1 X90.763 Y148.008 E19.90385
G1 X90.55 Y147.919 E19.91153
G1 X89.477 Y147.4 E19.95118
G1 X89.274 Y147.288 E19.95889
G1 X88.473 Y146.801 E19.99007
G1 X87.754 Y146.276 E20.01968
G1 X87.416 Y146.008 E20.03402
G1 X86.706 Y145.395 E20.06522
G1 X86.052 Y144.723 E20.09641
G1 X85.675 Y144.279 E20.11578
G1 X85.393 Y143.928 E20.13076
G1 X84.837 Y143.172 E20.16197
G1 X84.357 Y142.388 E20.19255
G1 X84.249 Y142.194 E20.19993
G1 X83.718 Y141.102 E20.24032
G1 X83.629 Y140.89 E20.24797
G1 X83.207 Y139.697 E20.29005
G1 X83.151 Y139.504 E20.29674
G1 X82.875 Y138.311 E20.33747
G1 X82.832 Y138.062 E20.34587
G1 X82.687 Y136.771 E20.38908
G1 X82.676 Y136.563 E20.39601
G1 X82.667 Y135.625 E20.42721
G1 X82.797 Y134.256 E20.47294
G1 X82.904 Y133.591 E20.49535
G1 X83.182 Y131.982 E20.54965
G1 X83.542 Y129.481 E20.6337
G1 X83.833 Y126.963 E20.718
G1 X84.05 Y124.459 E20.8016
G1 X84.195 Y121.962 E20.88479
G1 X84.271 Y119.442 E20.96864
G1 X84.275 Y116.917 E21.05262
G1 X84.208 Y114.394 E21.13657
G1 X84.072 Y111.923 E21.21888
G1 X83.859 Y109.375 E21.30392
G1 X83.581 Y106.886 E21.38722
G1 X83.226 Y104.362 E21.472
G1 X82.823 Y101.955 E21.55317
G1 X82.685 Y100.682 E21.59575
G1 X82.67 Y100.378 E21.60588
G1 X82.658 Y99.977 E21.61922
G1 X82.654 Y99.368 E21.63948
G1 X82.661 Y98.879 E21.65574
G1 X82.69 Y98.192 E21.67861
G1 X82.821 Y97.002 E21.71843
G1 X82.857 Y96.785 E21.72575
G1 X83.117 Y95.617 E21.76555
G1 X83.175 Y95.41 E21.7727
G1 X83.622 Y94.127 E21.81789
G1 X83.71 Y93.917 E21.82546
G1 X84.22 Y92.862 E21.86443
G1 X84.334 Y92.655 E21.87229
G1 X84.821 Y91.853 E21.9035
G1 X85.372 Y91.099 E21.93456
G1 X85.641 Y90.762 E21.9489
G1 X86.257 Y90.054 E21.98012
G1 X86.931 Y89.402 E22.01131
G1 X87.336 Y89.059 E22.02896
G1 X87.681 Y88.781 E22.04369
G1 X88.436 Y88.224 E22.0749
G1 X89.202 Y87.752 E22.10483
G1 X89.391 Y87.646 E22.11203
G1 X90.472 Y87.115 E22.15209
G1 X90.691 Y87.022 E22.16
G1 X91.905 Y86.589 E22.20287
G1 X92.1 Y86.532 E22.20963
G1 X93.334 Y86.247 E22.25175
G1 X93.574 Y86.206 E22.25985
G1 X94.504 Y86.088 E22.29103
G1 X94.998 Y86.057 E22.30749
G1 X95.713 Y86.034 E22.33129
G1 X96.547 Y86.025 E22.35903
G1 X122.202 Y86.026 E23.21232
G1 X123.336 Y86.052 E23.25004
G1 F1500 E16.75004
G0 F6000 X129.35 Y109.185
G0 X129.35 Y109.65
G1 F1500 E23.25004
G1 F1200 X130.609 Y109.65 E23.29192
G1 X131.159 Y109.61 E23.31026
G1 X131.387 Y109.56 E23.31802
G1 X131.642 Y109.614 E23.32669
G1 X132.162 Y109.65 E23.34403
G1 X132.947 Y109.65 E23.37014
G1 X132.947 Y112.05 E23.44996
G1 X129.35 Y112.049 E23.5696
G1 X129.35 Y109.65 E23.64939
G0 F6000 X128.95 Y109.25
G1 F1200 X130.609 Y109.25 E23.70457
G1 X131.129 Y109.21 E23.72192
G1 X131.374 Y109.152 E23.73029
G1 X131.808 Y109.232 E23.74497
G1 X132.162 Y109.25 E23.75676
G1 X133.347 Y109.25 E23.79617
G1 X133.347 Y112.45 E23.9026
G1 X128.95 Y112.449 E24.04885
G1 X128.95 Y109.25 E24.15525
G0 F6000 X128.55 Y108.85
