;FLAVOR:Marlin
;TIME:4729
;Filament used: 2.6526m
;Layer height: 0.2
;MINX:60.501
;MINY:86.675
;MINZ:0.2
;MAXX:174.499
;MAXY:148.325
;MAXZ:10
;Generated with Cura_SteamEngine 4.6.1
M140 S60
M105
M190 S60
M104 S200
M105
M109 S200
M82 ;absolute extrusion mode
; Ender 3 Custom Start G-code
G92 E0 ; Reset Extruder
G28 ; Home all axes
G1 Z2.0 F3000 ; Move Z Axis up little to prevent scratching of Heat Bed
G1 X0.1 Y20 Z0.3 F5000.0 ; Move to start position
G1 X0.1 Y200.0 Z0.3 F1500.0 E15 ; Draw the first line
G1 X0.4 Y200.0 Z0.3 F5000.0 ; Move to side a little
G1 X0.4 Y20 Z0.3 F1500.0 E30 ; Draw the second line
G92 E0 ; Reset Extruder
G1 Z2.0 F3000 ; Move Z Axis up little to prevent scratching of Heat Bed
G1 X5 Y20 Z0.3 F5000.0 ; Move over to prevent blob squish
G92 E0
G92 E0
G1 F1500 E-6.5
;LAYER_COUNT:50
;LAYER:0
M107
G0 F6000 X105.687 Y87.493 Z0.2
;TYPE:SKIRT
G1 F1500 E0
G1 F1200 X106.333 Y87.524 E0.02151
G1 X106.972 Y87.575 E0.04283
G1 X107.486 Y87.632 E0.06003
G1 X110.081 Y87.884 E0.14675
G1 X112.624 Y88.059 E0.23153
G1 X115.18 Y88.161 E0.31661
G1 X117.682 Y88.191 E0.39983
G1 X120.254 Y88.148 E0.48539
G1 X122.783 Y88.035 E0.56959
G1 X125.302 Y87.851 E0.65359
G1 X126.876 Y87.686 E0.70623
G1 X128.527 Y87.538 E0.76136
G1 X129.23 Y87.499 E0.78478
G1 X130.517 Y87.475 E0.8276
G1 X162.139 Y87.48 E1.87935
G1 X162.636 Y87.492 E1.89588
G1 X163.208 Y87.52 E1.91493
G1 X164.107 Y87.604 E1.94496
G1 X164.995 Y87.767 E1.97499
G1 X165.865 Y88.009 E2.00502
G1 X166.404 Y88.201 E2.02406
G1 X166.687 Y88.311 E2.03415
G1 X167.514 Y88.675 E2.06421
G1 X168.305 Y89.111 E2.09425
G1 X169.054 Y89.615 E2.12427
G1 X169.488 Y89.954 E2.14259
G1 X169.741 Y90.163 E2.15351
G1 X170.411 Y90.769 E2.18355
G1 X171.025 Y91.431 E2.21358
G1 X171.578 Y92.145 E2.24362
G1 X171.942 Y92.698 E2.26564
G1 X172.116 Y92.982 E2.27672
G1 X172.554 Y93.773 E2.30679
G1 X172.919 Y94.598 E2.3368
G1 X173.21 Y95.453 E2.36684
G1 X173.471 Y96.58 E2.40531
G1 X173.544 Y97.004 E2.41962
G1 X173.658 Y97.9 E2.44966
G1 X173.691 Y98.611 E2.47334
G1 X173.699 Y99.305 E2.49642
G1 X173.699 Y101.098 E2.55606
G1 X173.69 Y101.735 E2.57724
G1 X173.661 Y102.377 E2.59862
G1 X173.645 Y102.584 E2.60552
G1 X173.551 Y103.385 E2.63235
G1 X173.456 Y103.988 E2.65265
G1 X173.098 Y106.482 E2.73645
G1 X172.804 Y109.048 E2.82236
G1 X172.588 Y111.554 E2.90602
G1 X172.442 Y114.082 E2.99024
G1 X172.367 Y116.649 E3.07565
G1 X172.363 Y119.184 E3.15997
G1 X172.432 Y121.715 E3.24418
G1 X172.573 Y124.255 E3.32879
G1 X172.783 Y126.756 E3.41227
G1 X173.069 Y129.298 E3.49735
G1 X173.544 Y132.567 E3.60722
G1 X173.595 Y132.971 E3.62076
G1 X173.636 Y133.363 E3.63387
G1 X173.69 Y134.278 E3.66436
G1 X173.699 Y134.965 E3.68721
G1 X173.699 Y135.717 E3.71222
G1 X173.69 Y136.419 E3.73557
G1 X173.639 Y137.32 E3.76559
G1 X173.563 Y137.896 E3.78491
G1 X173.506 Y138.253 E3.79693
G1 X173.325 Y139.138 E3.82698
G1 X173.065 Y140.003 E3.85702
G1 X172.731 Y140.842 E3.88705
G1 X172.394 Y141.519 E3.91221
G1 X172.233 Y141.815 E3.92341
G1 X171.767 Y142.588 E3.95343
G1 X171.234 Y143.317 E3.98347
G1 X170.639 Y143.997 E4.01352
G1 X169.946 Y144.656 E4.04533
G1 X169.672 Y144.893 E4.05738
G1 X168.963 Y145.453 E4.08743
G1 X168.208 Y145.948 E4.11746
G1 X167.412 Y146.374 E4.14749
G1 X166.613 Y146.716 E4.17639
G1 X166.32 Y146.827 E4.18681
G1 X165.462 Y147.11 E4.21686
G1 X164.582 Y147.315 E4.24692
G1 X163.766 Y147.434 E4.27434
G1 X163.498 Y147.462 E4.28331
G1 X162.564 Y147.516 E4.31442
G1 X161.871 Y147.524 E4.33747
G1 X130.058 Y147.524 E5.39558
G1 X129.649 Y147.518 E5.40918
G1 X129.306 Y147.507 E5.4206
G1 X128.665 Y147.476 E5.44194
G1 X128.033 Y147.426 E5.46303
G1 X127.468 Y147.363 E5.48194
G1 X124.919 Y147.116 E5.56711
G1 X122.376 Y146.941 E5.65189
G1 X119.82 Y146.839 E5.73697
G1 X117.318 Y146.809 E5.8202
G1 X114.746 Y146.852 E5.90575
G1 X112.217 Y146.965 E5.98995
G1 X109.698 Y147.149 E6.07396
G1 X108.124 Y147.314 E6.1266
G1 X106.473 Y147.462 E6.18173
G1 X105.77 Y147.501 E6.20515
G1 X104.483 Y147.525 E6.24796
G1 X72.861 Y147.52 E7.29971
G1 X72.364 Y147.508 E7.31625
G1 X71.792 Y147.48 E7.33529
G1 X70.893 Y147.396 E7.36533
G1 X70.005 Y147.233 E7.39535
G1 X69.135 Y146.991 E7.42539
G1 X68.596 Y146.799 E7.44442
G1 X68.313 Y146.689 E7.45452
G1 X67.486 Y146.325 E7.48457
G1 X66.695 Y145.889 E7.51461
G1 X65.946 Y145.385 E7.54464
G1 X65.512 Y145.046 E7.56296
G1 X65.259 Y144.837 E7.57387
G1 X64.589 Y144.231 E7.60392
G1 X63.975 Y143.569 E7.63395
G1 X63.422 Y142.855 E7.66399
G1 X63.058 Y142.302 E7.68601
G1 X62.884 Y142.018 E7.69708
G1 X62.446 Y141.227 E7.72716
G1 X62.081 Y140.402 E7.75716
G1 X61.79 Y139.547 E7.7872
G1 X61.524 Y138.392 E7.82662
G1 X61.451 Y137.961 E7.84116
G1 X61.34 Y137.065 E7.87119
G1 X61.309 Y136.383 E7.8939
G1 X61.301 Y135.701 E7.91658
G1 X61.301 Y134.912 E7.94282
G1 X61.31 Y134.269 E7.96421
G1 X61.343 Y133.584 E7.98702
G1 X61.361 Y133.363 E7.9944
G1 X61.451 Y132.608 E8.01969
G1 X61.534 Y132.083 E8.03736
G1 X61.902 Y129.518 E8.12355
G1 X62.196 Y126.952 E8.20945
G1 X62.412 Y124.446 E8.29311
G1 X62.558 Y121.918 E8.37733
G1 X62.633 Y119.351 E8.46275
G1 X62.637 Y116.816 E8.54706
G1 X62.568 Y114.284 E8.63131
G1 X62.427 Y111.744 E8.71592
G1 X62.217 Y109.244 E8.79936
G1 X61.931 Y106.702 E8.88444
G1 X61.456 Y103.433 E8.99431
G1 X61.405 Y103.028 E9.00789
G1 X61.363 Y102.626 E9.02133
G1 X61.309 Y101.69 E9.05252
G1 X61.301 Y100.995 E9.07563
G1 X61.301 Y99.201 E9.1353
G1 X61.31 Y98.562 E9.15656
G1 X61.363 Y97.661 E9.18658
G1 X61.441 Y97.071 E9.20637
G1 X61.498 Y96.72 E9.2182
G1 X61.682 Y95.836 E9.24823
G1 X61.944 Y94.971 E9.27829
G1 X62.281 Y94.134 E9.3083
G1 X62.606 Y93.481 E9.33256
G1 X62.767 Y93.185 E9.34377
G1 X63.233 Y92.412 E9.37379
G1 X63.766 Y91.683 E9.40383
G1 X64.361 Y91.003 E9.43388
G1 X65.054 Y90.344 E9.46569
G1 X65.328 Y90.107 E9.47774
G1 X66.037 Y89.547 E9.50779
G1 X66.792 Y89.052 E9.53781
G1 X67.588 Y88.626 E9.56784
G1 X68.426 Y88.269 E9.59814
G1 X68.736 Y88.153 E9.60915
G1 X69.595 Y87.874 E9.63919
G1 X70.476 Y87.672 E9.66925
G1 X71.37 Y87.549 E9.69926
G1 X71.841 Y87.517 E9.71496
G1 X72.575 Y87.488 E9.7394
G1 X73.552 Y87.475 E9.77189
G1 X104.944 Y87.476 E10.816
G1 X105.687 Y87.493 E10.84071
G0 F6000 X105.706 Y87.093
G1 F1200 X106.352 Y87.124 E10.86223
G1 X107.017 Y87.177 E10.88441
G1 X107.509 Y87.232 E10.90088
G1 X110.146 Y87.487 E10.989
G1 X112.631 Y87.658 E11.07184
G1 X115.201 Y87.761 E11.15739
G1 X117.679 Y87.791 E11.23981
G1 X120.266 Y87.748 E11.32587
G1 X122.736 Y87.638 E11.4081
G1 X125.261 Y87.453 E11.49231
G1 X126.841 Y87.287 E11.54515
G1 X128.492 Y87.139 E11.60028
G1 X129.222 Y87.099 E11.6246
G1 X130.517 Y87.075 E11.66768
G1 X162.139 Y87.08 E12.71943
G1 X162.655 Y87.093 E12.7366
G1 X163.227 Y87.121 E12.75565
G1 X164.144 Y87.206 E12.78628
G1 X165.05 Y87.37 E12.8169
G1 X165.938 Y87.612 E12.84751
G1 X166.549 Y87.828 E12.86907
G1 X166.832 Y87.938 E12.87917
G1 X167.675 Y88.309 E12.9098
G1 X168.483 Y88.751 E12.94043
G1 X169.249 Y89.261 E12.97104
G1 X169.743 Y89.646 E12.99187
G1 X169.996 Y89.855 E13.00279
G1 X170.68 Y90.471 E13.0334
G1 X171.307 Y91.145 E13.06402
G1 X171.874 Y91.871 E13.09466
G1 X172.283 Y92.489 E13.11931
G1 X172.457 Y92.773 E13.13038
G1 X172.904 Y93.579 E13.16104
G1 X173.279 Y94.419 E13.19163
G1 X173.579 Y95.29 E13.22227
G1 X173.865 Y96.512 E13.26402
G1 X173.938 Y96.936 E13.27833
G1 X174.055 Y97.85 E13.30897
G1 X174.091 Y98.606 E13.33415
G1 X174.099 Y99.305 E13.3574
G1 X174.099 Y101.104 E13.41723
G1 X174.09 Y101.741 E13.43842
G1 X174.059 Y102.408 E13.46063
G1 X174.043 Y102.615 E13.46753
G1 X173.946 Y103.448 E13.49543
G1 X173.851 Y104.051 E13.51573
G1 X173.492 Y106.552 E13.59977
G1 X173.205 Y109.056 E13.6836
G1 X172.985 Y111.61 E13.76886
G1 X172.841 Y114.116 E13.85234
G1 X172.767 Y116.626 E13.93586
G1 X172.763 Y119.174 E14.02061
G1 X172.832 Y121.681 E14.10402
G1 X172.974 Y124.237 E14.18917
G1 X173.184 Y126.745 E14.27288
G1 X173.463 Y129.225 E14.35588
G1 X173.94 Y132.509 E14.46625
G1 X173.992 Y132.929 E14.48033
G1 X174.033 Y133.321 E14.49344
G1 X174.09 Y134.272 E14.52513
G1 X174.099 Y134.964 E14.54815
G1 X174.099 Y135.722 E14.57336
G1 X174.09 Y136.424 E14.59671
G1 X174.038 Y137.343 E14.62732
G1 X173.958 Y137.959 E14.64798
G1 X173.901 Y138.316 E14.66001
G1 X173.717 Y139.218 E14.69062
G1 X173.455 Y140.101 E14.72126
G1 X173.117 Y140.957 E14.75187
G1 X172.746 Y141.71 E14.77979
G1 X172.585 Y142.006 E14.791
G1 X172.11 Y142.795 E14.82163
G1 X171.569 Y143.539 E14.85222
G1 X170.965 Y144.234 E14.88285
G1 X170.207 Y144.958 E14.91771
G1 X169.933 Y145.195 E14.92976
G1 X169.212 Y145.767 E14.96037
G1 X168.443 Y146.273 E14.99099
G1 X167.633 Y146.711 E15.02162
G1 X166.754 Y147.091 E15.05347
G1 X166.461 Y147.202 E15.06389
G1 X165.587 Y147.49 E15.09449
G1 X164.691 Y147.701 E15.12511
G1 X163.807 Y147.832 E15.15483
G1 X163.539 Y147.86 E15.1638
G1 X162.569 Y147.916 E15.19611
G1 X161.871 Y147.924 E15.21933
G1 X130.053 Y147.924 E16.2776
G1 X129.644 Y147.918 E16.29121
G1 X129.287 Y147.907 E16.30308
G1 X128.646 Y147.876 E16.32443
G1 X127.989 Y147.823 E16.34635
G1 X127.526 Y147.772 E16.36184
G1 X124.854 Y147.513 E16.45113
G1 X122.369 Y147.342 E16.53398
G1 X119.799 Y147.239 E16.61953
G1 X117.321 Y147.209 E16.70195
G1 X114.734 Y147.252 E16.78801
G1 X112.264 Y147.362 E16.87024
G1 X109.739 Y147.547 E16.95445
G1 X108.159 Y147.713 E17.00729
G1 X106.508 Y147.861 E17.06242
G1 X105.778 Y147.901 E17.08674
G1 X104.483 Y147.925 E17.12982
G1 X72.861 Y147.92 E18.18157
G1 X72.345 Y147.907 E18.19874
G1 X71.773 Y147.879 E18.21778
G1 X70.856 Y147.794 E18.24841
G1 X69.95 Y147.63 E18.27904
G1 X69.062 Y147.388 E18.30965
G1 X68.451 Y147.172 E18.3312
G1 X68.168 Y147.062 E18.3413
G1 X67.325 Y146.691 E18.37194
G1 X66.517 Y146.249 E18.40257
G1 X65.751 Y145.739 E18.43318
G1 X65.257 Y145.354 E18.45401
G1 X65.004 Y145.145 E18.46492
G1 X64.32 Y144.529 E18.49554
G1 X63.693 Y143.855 E18.52616
G1 X63.126 Y143.129 E18.55679
G1 X62.717 Y142.511 E18.58144
G1 X62.543 Y142.227 E18.59252
G1 X62.096 Y141.421 E18.62317
G1 X61.721 Y140.581 E18.65377
G1 X61.421 Y139.71 E18.68441
G1 X61.13 Y138.459 E18.72713
G1 X61.057 Y138.028 E18.74167
G1 X60.943 Y137.115 E18.77227
G1 X60.909 Y136.387 E18.79651
G1 X60.901 Y135.702 E18.8193
G1 X60.901 Y134.907 E18.84574
G1 X60.91 Y134.264 E18.86713
G1 X60.944 Y133.552 E18.89083
G1 X60.962 Y133.331 E18.89821
G1 X61.055 Y132.546 E18.9245
G1 X61.148 Y131.954 E18.94443
G1 X61.508 Y129.448 E19.02864
G1 X61.795 Y126.944 E19.11247
G1 X62.015 Y124.39 E19.19773
G1 X62.159 Y121.884 E19.28121
G1 X62.233 Y119.374 E19.36473
G1 X62.237 Y116.826 E19.44948
G1 X62.168 Y114.317 E19.53296
G1 X62.027 Y111.767 E19.6179
G1 X61.816 Y109.252 E19.70185
G1 X61.537 Y106.774 E19.78479
G1 X61.06 Y103.491 E19.89513
G1 X61.007 Y103.069 E19.90927
G1 X60.965 Y102.667 E19.92272
G1 X60.909 Y101.695 E19.9551
G1 X60.901 Y100.995 E19.97838
G1 X60.901 Y99.196 E20.03822
G1 X60.91 Y98.557 E20.05947
G1 X60.963 Y97.638 E20.09009
G1 X61.046 Y97.007 E20.11126
G1 X61.103 Y96.656 E20.12308
G1 X61.29 Y95.754 E20.15372
G1 X61.554 Y94.873 E20.18431
G1 X61.894 Y94.017 E20.21495
G1 X62.254 Y93.29 E20.24193
G1 X62.415 Y92.994 E20.25314
G1 X62.89 Y92.205 E20.28377
G1 X63.431 Y91.461 E20.31436
G1 X64.035 Y90.766 E20.34499
G1 X64.793 Y90.042 E20.37985
G1 X65.067 Y89.805 E20.3919
G1 X65.788 Y89.233 E20.42251
G1 X66.557 Y88.727 E20.45313
G1 X67.367 Y88.289 E20.48376
G1 X68.286 Y87.894 E20.51703
G1 X68.596 Y87.778 E20.52804
G1 X69.472 Y87.493 E20.55867
G1 X70.368 Y87.286 E20.58926
G1 X71.28 Y87.156 E20.6199
G1 X71.823 Y87.117 E20.63801
G1 X72.235 Y87.098 E20.65172
G1 X72.57 Y87.088 E20.66287
G1 X73.552 Y87.075 E20.69554
G1 X104.95 Y87.076 E21.73984
G1 X105.706 Y87.093 E21.76499
G0 F6000 X105.725 Y86.694
G1 F1200 X106.371 Y86.725 E21.7865
G1 X107.061 Y86.78 E21.80952
G1 X107.517 Y86.831 E21.82478
G1 X110.178 Y87.089 E21.9137
G1 X112.675 Y87.26 E21.99695
G1 X115.185 Y87.361 E22.0805
G1 X117.712 Y87.391 E22.16455
G1 X120.205 Y87.35 E22.24748
G1 X122.725 Y87.237 E22.33138
G1 X125.221 Y87.055 E22.41462
G1 X126.805 Y86.889 E22.46759
G1 X128.456 Y86.741 E22.52272
G1 X129.213 Y86.699 E22.54794
G1 X130.517 Y86.675 E22.59132
G1 X162.139 Y86.68 E23.64307
G1 X162.675 Y86.693 E23.6609
G1 X163.247 Y86.721 E23.67995
G1 X164.181 Y86.807 E23.71115
G1 X165.104 Y86.972 E23.74233
G1 X166.01 Y87.215 E23.77353
G1 X166.694 Y87.455 E23.79764
G1 X166.977 Y87.565 E23.80774
G1 X167.836 Y87.942 E23.83894
G1 X168.66 Y88.391 E23.87015
G1 X169.442 Y88.908 E23.90133
G1 X169.998 Y89.337 E23.92469
G1 X170.251 Y89.546 E23.93561
G1 X170.948 Y90.174 E23.96681
G1 X171.589 Y90.859 E23.99801
G1 X172.169 Y91.595 E24.02918
G1 X172.625 Y92.28 E24.05655
G1 X172.799 Y92.564 E24.06763
G1 X173.254 Y93.384 E24.09882
G1 X173.638 Y94.24 E24.13002
G1 X173.948 Y95.125 E24.16121
G1 X174.26 Y96.445 E24.20632
G1 X174.333 Y96.869 E24.22063
G1 X174.452 Y97.799 E24.25182
G1 X174.491 Y98.601 E24.27852
G1 X174.499 Y99.304 E24.30191
G1 X174.499 Y101.109 E24.36194
G1 X174.49 Y101.746 E24.38313
G1 X174.458 Y102.439 E24.4062
G1 X174.442 Y102.646 E24.41311
G1 X174.341 Y103.51 E24.44204
G1 X174.254 Y104.06 E24.46056
G1 X173.892 Y106.583 E24.54534
G1 X173.599 Y109.139 E24.63091
G1 X173.387 Y111.596 E24.71293
G1 X173.24 Y114.151 E24.79805
G1 X173.167 Y116.639 E24.88084
G1 X173.163 Y119.164 E24.96482
G1 X173.232 Y121.683 E25.04863
G1 X173.371 Y124.18 E25.13181
G1 X173.582 Y126.703 E25.21602
G1 X173.862 Y129.188 E25.2992
G1 X174.336 Y132.452 E25.40889
G1 X174.39 Y132.888 E25.42351
G1 X174.431 Y133.28 E25.43662
G1 X174.49 Y134.266 E25.46947
G1 X174.499 Y134.964 E25.49269
G1 X174.499 Y135.727 E25.51806
G1 X174.49 Y136.429 E25.54141
G1 X174.438 Y137.365 E25.57259
G1 X174.353 Y138.022 E25.59463
G1 X174.296 Y138.379 E25.60665
G1 X174.109 Y139.298 E25.63785
G1 X173.844 Y140.198 E25.66905
G1 X173.504 Y141.072 E25.70024
G1 X173.097 Y141.901 E25.73096
G1 X172.936 Y142.197 E25.74216
G1 X172.453 Y143.001 E25.77336
G1 X171.904 Y143.761 E25.80454
G1 X171.291 Y144.471 E25.83574
G1 X170.469 Y145.261 E25.87366
G1 X170.195 Y145.498 E25.88571
G1 X169.46 Y146.08 E25.91689
G1 X168.678 Y146.598 E25.94809
G1 X167.855 Y147.048 E25.97929
G1 X166.896 Y147.465 E26.01407
G1 X166.603 Y147.576 E26.02449
G1 X165.713 Y147.87 E26.05567
G1 X164.8 Y148.088 E26.08689
G1 X163.849 Y148.229 E26.11886
G1 X163.581 Y148.257 E26.12782
G1 X162.574 Y148.316 E26.16137
G1 X161.871 Y148.324 E26.18476
G1 X130.047 Y148.324 E27.24323
G1 X129.638 Y148.318 E27.25683
G1 X129.268 Y148.306 E27.26915
G1 X128.627 Y148.275 E27.29049
G1 X127.945 Y148.221 E27.31325
G1 X127.447 Y148.166 E27.32991
G1 X124.822 Y147.911 E27.41763
G1 X122.325 Y147.74 E27.50087
G1 X119.815 Y147.639 E27.58442
G1 X117.288 Y147.609 E27.66848
G1 X114.795 Y147.65 E27.75141
G1 X112.275 Y147.763 E27.83531
G1 X109.779 Y147.945 E27.91854
G1 X108.195 Y148.111 E27.97152
G1 X106.544 Y148.259 E28.02665
G1 X105.787 Y148.301 E28.05187
G1 X104.483 Y148.325 E28.09524
G1 X72.861 Y148.32 E29.147
G1 X72.325 Y148.307 E29.16483
G1 X71.753 Y148.279 E29.18388
G1 X70.819 Y148.193 E29.21507
G1 X69.896 Y148.028 E29.24626
G1 X68.99 Y147.785 E29.27746
G1 X68.306 Y147.545 E29.30157
G1 X68.023 Y147.435 E29.31167
G1 X67.164 Y147.058 E29.34287
G1 X66.34 Y146.609 E29.37408
G1 X65.558 Y146.092 E29.40526
G1 X65.002 Y145.663 E29.42862
G1 X64.749 Y145.454 E29.43953
G1 X64.052 Y144.826 E29.47073
G1 X63.411 Y144.141 E29.50194
G1 X62.831 Y143.405 E29.5331
G1 X62.375 Y142.72 E29.56047
G1 X62.201 Y142.436 E29.57155
G1 X61.746 Y141.616 E29.60274
G1 X61.362 Y140.76 E29.63395
G1 X61.052 Y139.875 E29.66514
G1 X60.735 Y138.526 E29.71123
G1 X60.662 Y138.095 E29.72576
G1 X60.545 Y137.164 E29.75697
G1 X60.509 Y136.392 E29.78268
G1 X60.501 Y135.702 E29.80563
G1 X60.501 Y134.901 E29.83227
G1 X60.51 Y134.258 E29.85366
G1 X60.545 Y133.519 E29.87827
G1 X60.563 Y133.298 E29.88564
G1 X60.66 Y132.484 E29.91291
G1 X60.753 Y131.892 E29.93284
G1 X61.108 Y129.417 E30.016
G1 X61.401 Y126.859 E30.10163
G1 X61.613 Y124.404 E30.18359
G1 X61.761 Y121.836 E30.26915
G1 X61.833 Y119.361 E30.3515
G1 X61.837 Y116.836 E30.43548
G1 X61.768 Y114.317 E30.51929
G1 X61.629 Y111.819 E30.60251
G1 X61.418 Y109.297 E30.68668
G1 X61.138 Y106.811 E30.76989
G1 X60.664 Y103.548 E30.87956
G1 X60.61 Y103.111 E30.8942
