;FLAVOR:Marlin
;TIME:4520
;Filament used: 2.84964m
;Layer height: 0.2
;MINX:52.994
;MINY:96.2
;MINZ:0.2
;MAXX:181.988
;MAXY:138.8
;MAXZ:23.8
;Generated with Cura_SteamEngine 4.6.1
M140 S60
M105
M190 S60
M104 S200
M105
M109 S200
M82 ;absolute extrusion mode
; Ender 3 Custom Start G-code
G92 E0 ; Reset Extruder
G28 ; Home all axes
G1 Z2.0 F3000 ; Move Z Axis up little to prevent scratching of Heat Bed
G1 X0.1 Y20 Z0.3 F5000.0 ; Move to start position
G1 X0.1 Y200.0 Z0.3 F1500.0 E15 ; Draw the first line
G1 X0.4 Y200.0 Z0.3 F5000.0 ; Move to side a little
G1 X0.4 Y20 Z0.3 F1500.0 E30 ; Draw the second line
G92 E0 ; Reset Extruder
G1 Z2.0 F3000 ; Move Z Axis up little to prevent scratching of Heat Bed
G1 X5 Y20 Z0.3 F5000.0 ; Move over to prevent blob squish
G92 E0
G92 E0
G1 F1500 E-6.5
;LAYER_COUNT:119
;LAYER:0
M107
G0 F6000 X109.046 Y135.228 Z0.2
;TYPE:SKIRT
G1 F1500 E0
G1 F1200 X107.063 Y135.745 E0.06816
G1 X105.358 Y136.211 E0.12695
G1 X103.979 Y136.604 E0.17464
G1 X102.435 Y137.059 E0.22818
G1 X101.397 Y137.373 E0.26425
G1 X100.7 Y137.576 E0.28839
G1 X99.823 Y137.79 E0.31842
G1 X98.93 Y137.925 E0.34846
G1 X98.045 Y137.981 E0.37795
G1 X96.967 Y138 E0.41381
G1 X66.31 Y137.995 E1.43347
G1 X65.8 Y137.982 E1.45043
G1 X65.183 Y137.951 E1.47098
G1 X64.284 Y137.866 E1.50102
G1 X63.56 Y137.738 E1.52547
G1 X63.303 Y137.683 E1.53421
G1 X62.43 Y137.455 E1.56422
G1 X61.921 Y137.284 E1.58208
G1 X61.646 Y137.183 E1.59182
G1 X60.813 Y136.834 E1.62186
G1 X60.335 Y136.593 E1.63967
G1 X60.121 Y136.478 E1.64775
G1 X59.345 Y136.016 E1.67779
G1 X58.948 Y135.741 E1.69385
G1 X58.702 Y135.562 E1.70397
G1 X57.996 Y134.998 E1.73402
G1 X57.547 Y134.582 E1.75438
G1 X57.353 Y134.391 E1.76343
G1 X56.738 Y133.73 E1.79346
G1 X56.437 Y133.359 E1.80935
G1 X56.257 Y133.126 E1.81915
G1 X55.737 Y132.387 E1.8492
G1 X55.45 Y131.911 E1.86769
G1 X55.342 Y131.72 E1.87499
G1 X54.766 Y130.525 E1.91911
G1 X54.628 Y130.184 E1.93134
G1 X54.327 Y129.333 E1.96137
G1 X54.122 Y128.553 E1.98819
G1 X54.07 Y128.317 E1.99623
G1 X53.915 Y127.427 E2.02627
G1 X53.835 Y126.401 E2.0605
G1 X53.794 Y124.772 E2.1147
G1 X53.799 Y109.403 E2.62588
G1 X53.811 Y109.033 E2.63819
G1 X53.843 Y108.392 E2.65953
G1 X53.928 Y107.493 E2.68957
G1 X54.039 Y106.846 E2.7114
G1 X54.09 Y106.598 E2.71982
G1 X54.311 Y105.723 E2.74984
G1 X54.506 Y105.138 E2.77035
G1 X54.611 Y104.852 E2.78048
G1 X54.959 Y104.019 E2.81051
G1 X55.23 Y103.485 E2.83043
G1 X55.357 Y103.252 E2.83925
G1 X56.06 Y102.14 E2.88301
G1 X56.182 Y101.972 E2.88991
G1 X57.007 Y100.976 E2.93293
G1 X57.246 Y100.722 E2.94453
G1 X57.893 Y100.093 E2.97454
G1 X58.43 Y99.647 E2.99776
G1 X58.647 Y99.479 E3.00689
G1 X59.385 Y98.958 E3.03693
G1 X59.863 Y98.669 E3.05551
G1 X60.096 Y98.537 E3.06442
G1 X60.901 Y98.127 E3.09447
G1 X61.375 Y97.926 E3.11159
G1 X61.671 Y97.809 E3.12218
G1 X62.524 Y97.515 E3.15219
G1 X63.204 Y97.339 E3.17555
G1 X63.496 Y97.274 E3.1855
G1 X64.385 Y97.117 E3.21552
G1 X65.148 Y97.046 E3.24101
G1 X65.527 Y97.025 E3.25364
G1 X65.952 Y97.01 E3.26778
G1 X66.753 Y97 E3.29442
G1 X100.89 Y97.001 E4.42982
G1 X103.141 Y97.016 E4.50469
G1 X105.42 Y97.057 E4.58051
G1 X107.375 Y97.11 E4.64555
G1 X109.538 Y97.193 E4.71755
G1 X111.766 Y97.301 E4.79174
G1 X113.95 Y97.428 E4.8645
G1 X116.043 Y97.568 E4.93427
G1 X118.15 Y97.728 E5.00455
G1 X120.323 Y97.911 E5.07708
G1 X122.091 Y98.073 E5.13613
G1 X124.546 Y98.315 E5.21818
G1 X126.681 Y98.544 E5.2896
G1 X128.808 Y98.785 E5.3608
G1 X130.979 Y99.045 E5.43352
G1 X135.108 Y99.573 E5.57197
G1 X139.323 Y100.154 E5.71349
G1 X143.534 Y100.771 E5.85504
G1 X147.518 Y101.383 E5.9891
G1 X151.621 Y102.039 E6.1273
G1 X155.861 Y102.743 E6.27026
G1 X160.19 Y103.486 E6.41634
G1 X164.418 Y104.232 E6.55914
G1 X167.446 Y104.78 E6.66149
G1 X168.456 Y104.954 E6.69558
G1 X168.869 Y105.034 E6.70957
G1 X169.371 Y105.142 E6.72665
G1 X170.298 Y105.387 E6.75854
G1 X170.849 Y105.561 E6.77776
G1 X171.809 Y105.919 E6.81183
G1 X172.218 Y106.095 E6.82664
G1 X173.097 Y106.524 E6.85917
G1 X173.512 Y106.752 E6.87492
G1 X174.298 Y107.231 E6.90554
G1 X174.702 Y107.503 E6.92174
G1 X175.478 Y108.081 E6.95392
G1 X175.819 Y108.361 E6.96859
G1 X176.537 Y109.01 E7.00079
G1 X176.874 Y109.345 E7.01659
G1 X177.538 Y110.072 E7.04934
G1 X177.871 Y110.474 E7.0667
G1 X178.435 Y111.223 E7.09788
G1 X178.647 Y111.533 E7.11038
G1 X179.14 Y112.329 E7.14152
G1 X179.405 Y112.805 E7.15964
G1 X179.853 Y113.713 E7.19331
G1 X180.028 Y114.117 E7.20796
G1 X180.365 Y115.009 E7.23967
G1 X180.515 Y115.469 E7.25576
G1 X180.766 Y116.376 E7.28706
G1 X180.868 Y116.826 E7.30241
G1 X181.038 Y117.791 E7.335
G1 X181.096 Y118.246 E7.35026
G1 X181.173 Y119.211 E7.38246
G1 X181.189 Y119.713 E7.39916
G1 X181.174 Y120.669 E7.43096
G1 X181.146 Y121.121 E7.44602
G1 X181.044 Y122.063 E7.47754
G1 X180.97 Y122.537 E7.49349
G1 X180.772 Y123.499 E7.52616
G1 X180.664 Y123.92 E7.54062
G1 X180.389 Y124.818 E7.57185
G1 X180.211 Y125.316 E7.58944
G1 X179.832 Y126.233 E7.62245
G1 X179.658 Y126.602 E7.63601
G1 X179.224 Y127.424 E7.66693
G1 X178.964 Y127.866 E7.68399
G1 X178.436 Y128.672 E7.71603
G1 X178.164 Y129.048 E7.73147
G1 X177.535 Y129.834 E7.76495
G1 X177.232 Y130.176 E7.78015
G1 X176.588 Y130.839 E7.81089
G1 X176.247 Y131.16 E7.82647
G1 X175.518 Y131.784 E7.85838
G1 X175.131 Y132.085 E7.87469
G1 X174.337 Y132.645 E7.90701
G1 X173.948 Y132.892 E7.92233
G1 X173.095 Y133.377 E7.95497
G1 X172.687 Y133.584 E7.97019
G1 X171.829 Y133.971 E8.00149
G1 X171.362 Y134.156 E8.0182
G1 X170.447 Y134.469 E8.05036
G1 X170.023 Y134.592 E8.06505
G1 X169.098 Y134.814 E8.09669
G1 X168.638 Y134.902 E8.11226
G1 X167.681 Y135.039 E8.14442
G1 X167.184 Y135.086 E8.16102
G1 X166.224 Y135.131 E8.19299
G1 X165.793 Y135.131 E8.20732
G1 X164.815 Y135.084 E8.23989
G1 X164.296 Y135.034 E8.25723
G1 X163.357 Y134.899 E8.28878
G1 X162.918 Y134.815 E8.30365
G1 X162.579 Y134.744 E8.31517
G1 X161.214 Y134.434 E8.36172
G1 X158.593 Y133.88 E8.45082
G1 X156.11 Y133.43 E8.53475
G1 X154.368 Y133.155 E8.59341
G1 X153.107 Y132.975 E8.63578
G1 X151.456 Y132.756 E8.69117
G1 X149.798 Y132.555 E8.74672
G1 X148.113 Y132.371 E8.8031
G1 X146.576 Y132.224 E8.85445
G1 X144.755 Y132.074 E8.91522
G1 X143.282 Y131.97 E8.96434
G1 X141.574 Y131.874 E9.02123
G1 X139.812 Y131.799 E9.07989
G1 X137.993 Y131.75 E9.14041
G1 X136.093 Y131.73 E9.20361
G1 X134.858 Y131.736 E9.24469
G1 X133.551 Y131.757 E9.28817
G1 X131.731 Y131.816 E9.34873
G1 X130.366 Y131.88 E9.39418
G1 X129.732 Y131.917 E9.4153
G1 X128.402 Y132.007 E9.45964
G1 X127.242 Y132.1 E9.49835
G1 X125.625 Y132.251 E9.55236
G1 X124.779 Y132.34 E9.58065
G1 X123.65 Y132.47 E9.61845
G1 X122.991 Y132.551 E9.64054
G1 X120.886 Y132.842 E9.71122
G1 X119.481 Y133.058 E9.75849
G1 X118.291 Y133.256 E9.79862
G1 X117.367 Y133.419 E9.82983
G1 X115.596 Y133.754 E9.88977
G1 X113.844 Y134.113 E9.94926
G1 X112.592 Y134.386 E9.99188
G1 X111.411 Y134.655 E10.03216
G1 X110.324 Y134.912 E10.06931
G1 X109.046 Y135.228 E10.1131
G0 F6000 X113.855 Y134.519
G1 F1200 X112.743 Y134.762 E10.15096
G1 X111.494 Y135.046 E10.19356
G1 X110.392 Y135.307 E10.23123
G1 X109.174 Y135.608 E10.27296
G1 X107.116 Y136.144 E10.34369
G1 X105.476 Y136.593 E10.40024
G1 X104.076 Y136.992 E10.44866
G1 X102.63 Y137.418 E10.4988
G1 X101.509 Y137.757 E10.53775
G1 X100.812 Y137.96 E10.5619
G1 X99.918 Y138.179 E10.59251
G1 X99.008 Y138.319 E10.62313
G1 X98.053 Y138.381 E10.65496
G1 X96.967 Y138.4 E10.69109
G1 X66.31 Y138.395 E11.71075
G1 X65.78 Y138.382 E11.72838
G1 X65.163 Y138.351 E11.74893
G1 X64.246 Y138.265 E11.77956
G1 X63.477 Y138.129 E11.80553
G1 X63.22 Y138.074 E11.81428
G1 X62.329 Y137.843 E11.84489
G1 X61.784 Y137.659 E11.86402
G1 X61.509 Y137.558 E11.87377
G1 X60.659 Y137.204 E11.90439
G1 X60.145 Y136.945 E11.92353
G1 X59.931 Y136.83 E11.93161
G1 X59.14 Y136.36 E11.96222
G1 X58.712 Y136.064 E11.97952
G1 X58.466 Y135.885 E11.98964
G1 X57.746 Y135.312 E12.02025
G1 X57.266 Y134.868 E12.042
G1 X57.072 Y134.677 E12.05105
G1 X56.445 Y134.003 E12.08167
G1 X56.121 Y133.603 E12.09879
G1 X55.941 Y133.37 E12.10858
G1 X55.41 Y132.618 E12.1392
G1 X55.102 Y132.107 E12.15905
G1 X54.994 Y131.916 E12.16634
G1 X54.395 Y130.675 E12.21218
G1 X54.257 Y130.334 E12.22441
G1 X53.949 Y129.467 E12.25501
G1 X53.731 Y128.639 E12.28349
G1 X53.679 Y128.403 E12.29153
G1 X53.52 Y127.496 E12.32216
G1 X53.435 Y126.412 E12.35832
G1 X53.394 Y124.772 E12.41288
G1 X53.399 Y109.398 E12.92423
G1 X53.411 Y109.013 E12.93704
G1 X53.443 Y108.372 E12.95838
G1 X53.529 Y107.456 E12.98898
G1 X53.647 Y106.766 E13.01227
G1 X53.698 Y106.518 E13.02069
G1 X53.923 Y105.625 E13.05132
G1 X54.13 Y105 E13.07321
G1 X54.235 Y104.714 E13.08335
G1 X54.59 Y103.864 E13.11399
G1 X54.879 Y103.294 E13.13524
G1 X55.006 Y103.061 E13.14407
G1 X55.736 Y101.905 E13.18954
G1 X55.858 Y101.737 E13.19645
G1 X56.715 Y100.702 E13.24114
G1 X56.954 Y100.448 E13.25274
G1 X57.614 Y99.806 E13.28336
G1 X58.185 Y99.33 E13.30809
G1 X58.402 Y99.162 E13.31722
G1 X59.154 Y98.631 E13.34784
G1 X59.666 Y98.321 E13.36774
G1 X59.899 Y98.189 E13.37665
G1 X60.719 Y97.771 E13.40726
G1 X61.227 Y97.554 E13.42563
G1 X61.523 Y97.437 E13.43622
G1 X62.394 Y97.136 E13.46687
G1 X63.117 Y96.948 E13.49172
G1 X63.409 Y96.883 E13.50167
G1 X64.315 Y96.722 E13.53227
G1 X65.126 Y96.646 E13.55937
G1 X65.505 Y96.625 E13.57199
G1 X65.947 Y96.61 E13.5867
G1 X66.753 Y96.6 E13.61351
G1 X100.893 Y96.601 E14.74901
G1 X103.148 Y96.616 E14.82401
G1 X105.431 Y96.657 E14.89996
G1 X107.391 Y96.711 E14.96517
G1 X109.558 Y96.793 E15.0373
G1 X111.789 Y96.902 E15.11159
G1 X113.976 Y97.029 E15.18445
G1 X116.073 Y97.169 E15.25436
G1 X118.184 Y97.329 E15.32477
G1 X120.359 Y97.513 E15.39737
G1 X122.13 Y97.675 E15.45652
G1 X124.588 Y97.917 E15.53867
G1 X126.726 Y98.146 E15.61018
G1 X128.855 Y98.387 E15.68145
G1 X131.029 Y98.648 E15.75427
G1 X135.162 Y99.177 E15.89286
G1 X139.381 Y99.758 E16.03451
G1 X143.595 Y100.376 E16.17617
G1 X147.581 Y100.988 E16.31029
G1 X151.687 Y101.645 E16.4486
G1 X155.929 Y102.349 E16.59162
G1 X160.308 Y103.101 E16.7394
G1 X164.487 Y103.839 E16.88054
G1 X167.578 Y104.397 E16.98501
G1 X168.524 Y104.56 E17.01694
G1 X168.953 Y104.643 E17.03147
G1 X169.455 Y104.751 E17.04855
G1 X170.418 Y105.006 E17.08168
G1 X170.969 Y105.18 E17.1009
G1 X171.967 Y105.551 E17.13631
G1 X172.376 Y105.727 E17.15112
G1 X173.29 Y106.174 E17.18496
G1 X173.705 Y106.402 E17.20071
G1 X174.521 Y106.899 E17.23249
G1 X174.925 Y107.171 E17.24869
G1 X175.732 Y107.772 E17.28216
G1 X176.073 Y108.052 E17.29683
G1 X176.819 Y108.726 E17.33027
G1 X177.156 Y109.061 E17.34607
G1 X177.846 Y109.817 E17.38012
G1 X178.179 Y110.219 E17.39748
G1 X178.766 Y110.997 E17.42989
G1 X178.978 Y111.307 E17.44239
G1 X179.489 Y112.135 E17.47475
G1 X179.754 Y112.611 E17.49287
G1 X180.22 Y113.554 E17.52785
G1 X180.395 Y113.958 E17.5425
G1 X180.746 Y114.885 E17.57546
G1 X180.896 Y115.345 E17.59156
G1 X181.156 Y116.288 E17.62409
G1 X181.258 Y116.738 E17.63944
G1 X181.435 Y117.741 E17.67331
G1 X181.493 Y118.196 E17.68857
G1 X181.573 Y119.198 E17.722
G1 X181.589 Y119.7 E17.73871
G1 X181.574 Y120.693 E17.77174
G1 X181.546 Y121.145 E17.7868
G1 X181.439 Y122.125 E17.81959
G1 X181.365 Y122.599 E17.83555
G1 X181.16 Y123.598 E17.86947
G1 X181.052 Y124.019 E17.88392
G1 X180.766 Y124.953 E17.91641
G1 X180.588 Y125.451 E17.934
G1 X180.194 Y126.404 E17.9683
G1 X180.02 Y126.773 E17.98187
G1 X179.569 Y127.626 E18.01396
G1 X179.309 Y128.068 E18.03102
G1 X178.76 Y128.907 E18.06436
G1 X178.488 Y129.283 E18.0798
G1 X177.834 Y130.099 E18.11458
G1 X177.531 Y130.441 E18.12978
G1 X176.863 Y131.13 E18.1617
G1 X176.522 Y131.451 E18.17727
G1 X175.764 Y132.1 E18.21046
G1 X175.377 Y132.401 E18.22677
G1 X174.551 Y132.982 E18.26036
G1 X174.162 Y133.229 E18.27568
G1 X173.276 Y133.734 E18.3096
G1 X172.868 Y133.941 E18.32482
G1 X171.976 Y134.343 E18.35736
G1 X171.509 Y134.528 E18.37407
G1 X170.558 Y134.853 E18.40749
G1 X170.134 Y134.976 E18.42218
G1 X169.173 Y135.207 E18.45505
G1 X168.713 Y135.295 E18.47063
G1 X167.719 Y135.437 E18.50402
G1 X167.222 Y135.484 E18.52063
G1 X166.224 Y135.531 E18.55386
G1 X165.793 Y135.531 E18.56819
G1 X164.777 Y135.482 E18.60203
G1 X164.258 Y135.432 E18.61937
G1 X163.282 Y135.292 E18.65216
G1 X162.843 Y135.208 E18.66703
G1 X162.49 Y135.134 E18.67902
G1 X161.107 Y134.82 E18.72619
G1 X158.544 Y134.279 E18.81332
G1 X156.014 Y133.82 E18.89884
G1 X154.325 Y133.553 E18.95571
G1 X153.012 Y133.366 E18.99982
G1 X151.448 Y133.158 E19.0523
G1 X149.787 Y132.956 E19.10795
G1 X148.11 Y132.774 E19.16406
G1 X146.43 Y132.613 E19.22019
G1 X144.775 Y132.476 E19.27543
G1 X143.23 Y132.368 E19.32694
G1 X141.537 Y132.272 E19.38334
G1 X139.849 Y132.2 E19.43953
G1 X137.978 Y132.15 E19.50178
G1 X136.091 Y132.13 E19.56455
G1 X134.865 Y132.136 E19.60533
G1 X133.571 Y132.157 E19.64837
G1 X132.275 Y132.195 E19.69149
G1 X131.696 Y132.218 E19.71077
G1 X130.406 Y132.278 E19.75372
G1 X129.785 Y132.315 E19.77441
G1 X128.38 Y132.409 E19.82124
G1 X127.378 Y132.489 E19.85468
G1 X125.619 Y132.654 E19.91344
G1 X124.867 Y132.733 E19.93859
G1 X123.018 Y132.951 E20.00051
G1 X120.945 Y133.237 E20.07011
G1 X119.606 Y133.443 E20.11517
G1 X118.335 Y133.655 E20.15803
G1 X117.433 Y133.814 E20.18849
G1 X115.673 Y134.147 E20.24807
G1 X113.855 Y134.519 E20.30979
G1 F1500 E13.80979
G0 F6000 X65.25 Y128.361
G0 X64.558 Y128.045
G0 X63.984 Y127.554
G0 X63.57 Y126.91
G0 X63.356 Y126.194
G0 X63.354 Y108.825
G0 X63.562 Y108.105
G0 X63.971 Y107.461
G0 X64.543 Y106.965
G0 X65.1 Y106.706
G0 X103.155 Y96.216
G1 F1500 E20.30979
G1 F1200 X105.442 Y96.257 E20.38587
G1 X107.406 Y96.311 E20.45122
G1 X109.577 Y96.394 E20.52348
G1 X111.812 Y96.502 E20.5979
G1 X114.003 Y96.63 E20.6709
G1 X116.103 Y96.77 E20.7409
G1 X118.217 Y96.931 E20.81141
G1 X120.396 Y97.115 E20.88415
G1 X122.169 Y97.277 E20.94336
G1 X124.631 Y97.519 E21.02564
G1 X126.771 Y97.749 E21.09723
G1 X128.903 Y97.99 E21.16859
G1 X131.08 Y98.252 E21.24152
G1 X135.217 Y98.781 E21.38024
G1 X139.439 Y99.362 E21.52199
G1 X143.655 Y99.98 E21.66371
G1 X147.644 Y100.593 E21.79794
G1 X151.752 Y101.25 E21.93631
G1 X155.997 Y101.955 E22.07943
G1 X160.378 Y102.707 E22.22728
G1 X164.557 Y103.445 E22.36842
G1 X167.671 Y104.007 E22.47367
G1 X168.592 Y104.166 E22.50475
G1 X169.038 Y104.252 E22.51986
G1 X169.54 Y104.36 E22.53694
G1 X170.538 Y104.625 E22.57128
G1 X171.089 Y104.799 E22.5905
G1 X172.125 Y105.184 E22.62726
G1 X172.534 Y105.36 E22.64207
G1 X173.483 Y105.823 E22.67719
G1 X173.898 Y106.051 E22.69294
G1 X174.744 Y106.567 E22.7259
G1 X175.148 Y106.839 E22.7421
G1 X175.986 Y107.463 E22.77685
G1 X176.327 Y107.743 E22.79152
G1 X177.101 Y108.443 E22.82623
G1 X177.438 Y108.778 E22.84204
G1 X178.154 Y109.562 E22.87735
G1 X178.487 Y109.964 E22.89471
G1 X179.096 Y110.772 E22.92837
G1 X179.308 Y111.082 E22.94086
G1 X179.839 Y111.94 E22.97442
G1 X180.104 Y112.416 E22.99254
G1 X180.587 Y113.395 E23.02885
G1 X180.762 Y113.799 E23.04349
G1 X181.126 Y114.761 E23.0777
G1 X181.276 Y115.221 E23.09379
G1 X181.546 Y116.199 E23.12754
G1 X181.648 Y116.649 E23.14288
G1 X181.832 Y117.69 E23.17804
G1 X181.89 Y118.145 E23.1933
G1 X181.972 Y119.186 E23.22803
G1 X181.988 Y119.688 E23.24474
G1 X181.973 Y120.718 E23.279
G1 X181.945 Y121.17 E23.29406
G1 X181.834 Y122.187 E23.32809
G1 X181.76 Y122.661 E23.34404
G1 X181.547 Y123.697 E23.37922
G1 X181.439 Y124.118 E23.39368
G1 X181.142 Y125.087 E23.42739
G1 X180.964 Y125.585 E23.44498
G1 X180.555 Y126.575 E23.4806
G1 X180.381 Y126.944 E23.49417
G1 X179.913 Y127.829 E23.52747
G1 X179.653 Y128.271 E23.54453
G1 X179.084 Y129.141 E23.5791
G1 X178.812 Y129.517 E23.59454
G1 X178.133 Y130.365 E23.63067
G1 X177.83 Y130.707 E23.64587
G1 X177.137 Y131.422 E23.67898
G1 X176.796 Y131.743 E23.69456
G1 X176.009 Y132.416 E23.729
G1 X175.622 Y132.717 E23.74531
G1 X174.765 Y133.32 E23.78016
G1 X174.376 Y133.567 E23.79549
G1 X173.457 Y134.091 E23.83067
G1 X173.049 Y134.298 E23.84589
G1 X172.123 Y134.715 E23.87967
G1 X171.656 Y134.9 E23.89637
G1 X170.67 Y135.237 E23.93103
G1 X170.246 Y135.36 E23.94571
G1 X169.248 Y135.6 E23.97985
G1 X168.788 Y135.688 E23.99543
G1 X167.757 Y135.835 E24.03007
G1 X167.26 Y135.882 E24.04667
G1 X166.224 Y135.931 E24.08117
G1 X165.793 Y135.931 E24.0955
