;FLAVOR:Marlin
;TIME:4180
;Filament used: 2.1332m
;Layer height: 0.2
;MINX:82.654
;MINY:86.025
;MINZ:0.2
;MAXX:152.35
;MAXY:148.975
;MAXZ:23.8
;Generated with Cura_SteamEngine 4.6.1
M140 S60
M105
M190 S60
M104 S200
M105
M109 S200
M82 ;absolute extrusion mode
; Ender 3 Custom Start G-code
G92 E0 ; Reset Extruder
G28 ; Home all axes
G1 Z2.0 F3000 ; Move Z Axis up little to prevent scratching of Heat Bed
G1 X0.1 Y20 Z0.3 F5000.0 ; Move to start position
G1 X0.1 Y200.0 Z0.3 F1500.0 E15 ; Draw the first line
G1 X0.4 Y200.0 Z0.3 F5000.0 ; Move to side a little
G1 X0.4 Y20 Z0.3 F1500.0 E30 ; Draw the second line
G92 E0 ; Reset Extruder
G1 Z2.0 F3000 ; Move Z Axis up little to prevent scratching of Heat Bed
G1 X5 Y20 Z0.3 F5000.0 ; Move over to prevent blob squish
G92 E0
G92 E0
G1 F1500 E-6.5
;LAYER_COUNT:119
;LAYER:0
M107
G0 F6000 X122.851 Y86.835 Z0.2
;TYPE:SKIRT
G1 F1500 E0
G1 F1200 X123.309 Y86.851 E0.01524
G1 X123.583 Y86.867 E0.02437
G1 X124.689 Y86.993 E0.06139
G1 X124.89 Y87.027 E0.06818
G1 X125.941 Y87.262 E0.10399
G1 X126.148 Y87.32 E0.11114
G1 X127.415 Y87.767 E0.15583
G1 X128.462 Y88.218 E0.19375
G1 X129.599 Y88.728 E0.23519
G1 X131.961 Y89.708 E0.32025
G1 X134.34 Y90.619 E0.40498
G1 X136.734 Y91.457 E0.48934
G1 X139.158 Y92.231 E0.57397
G1 X141.593 Y92.933 E0.65826
G1 X142.941 Y93.311 E0.70482
G1 X143.907 Y93.656 E0.73894
G1 X144.119 Y93.744 E0.74657
G1 X145.09 Y94.209 E0.78238
G1 X145.29 Y94.318 E0.78996
G1 X146.312 Y94.956 E0.83003
G1 X146.498 Y95.088 E0.83762
G1 X147.375 Y95.785 E0.87488
G1 X147.529 Y95.922 E0.88173
G1 X148.355 Y96.747 E0.92056
G1 X148.506 Y96.916 E0.9281
G1 X149.13 Y97.686 E0.96106
G1 X149.253 Y97.854 E0.96799
G1 X149.941 Y98.93 E1.01047
G1 X150.062 Y99.148 E1.01876
G1 X150.578 Y100.221 E1.05836
G1 X150.668 Y100.44 E1.06623
G1 X150.974 Y101.29 E1.09628
G1 X151.178 Y102.046 E1.12232
G1 X151.268 Y102.44 E1.13577
G1 X151.43 Y103.328 E1.16579
G1 X151.507 Y104.13 E1.19259
G1 X151.528 Y104.498 E1.20485
G1 X151.543 Y104.896 E1.21809
G1 X151.55 Y105.358 E1.23346
G1 X151.549 Y132.444 E2.13434
G1 X151.531 Y133.427 E2.16704
G1 X151.52 Y133.677 E2.17537
G1 X151.41 Y134.789 E2.21253
G1 X151.371 Y135.041 E2.22102
G1 X151.112 Y136.237 E2.26172
G1 X151.057 Y136.433 E2.26849
G1 X150.674 Y137.546 E2.30764
G1 X150.583 Y137.768 E2.31562
G1 X150.078 Y138.823 E2.35452
G1 X149.965 Y139.028 E2.3623
G1 X149.494 Y139.799 E2.39235
G1 X149.037 Y140.426 E2.41816
G1 X148.774 Y140.759 E2.43227
G1 X148.183 Y141.442 E2.46231
G1 X147.671 Y141.948 E2.48626
G1 X147.523 Y142.084 E2.49294
G1 X146.611 Y142.829 E2.53211
G1 X146.407 Y142.977 E2.54049
G1 X145.406 Y143.617 E2.58001
G1 X145.217 Y143.723 E2.58721
G1 X144.215 Y144.216 E2.62436
G1 X143.996 Y144.309 E2.63227
G1 X142.871 Y144.71 E2.67199
G1 X142.676 Y144.767 E2.67875
G1 X141.55 Y145.028 E2.7172
G1 X141.301 Y145.071 E2.7256
G1 X140.548 Y145.172 E2.75087
G1 X140.282 Y145.198 E2.75976
G1 X137.62 Y145.49 E2.84883
G1 X135.115 Y145.838 E2.93294
G1 X132.635 Y146.255 E3.01659
G1 X130.118 Y146.75 E3.10191
G1 X127.637 Y147.313 E3.18652
G1 X125.607 Y147.822 E3.25613
G1 X124.489 Y148.036 E3.29399
G1 X124.274 Y148.065 E3.30121
G1 X123.109 Y148.155 E3.34007
G1 X121.985 Y148.175 E3.37746
G1 X96.22 Y148.174 E4.23441
G1 X95.55 Y148.165 E4.25669
G1 X95.095 Y148.149 E4.27184
G1 X94.82 Y148.133 E4.281
G1 X93.711 Y148.007 E4.31812
G1 X93.51 Y147.973 E4.3249
G1 X92.459 Y147.738 E4.36072
G1 X92.252 Y147.68 E4.36787
G1 X91.072 Y147.269 E4.40943
G1 X90.859 Y147.18 E4.41711
G1 X89.864 Y146.7 E4.45385
G1 X89.661 Y146.588 E4.46156
G1 X88.89 Y146.117 E4.49161
G1 X88.251 Y145.649 E4.51796
G1 X87.913 Y145.381 E4.5323
G1 X87.231 Y144.79 E4.56232
G1 X86.604 Y144.14 E4.59236
G1 X86.298 Y143.777 E4.60815
G1 X86.016 Y143.426 E4.62312
G1 X85.483 Y142.698 E4.65313
G1 X85.056 Y141.999 E4.68038
G1 X84.948 Y141.805 E4.68776
G1 X84.455 Y140.792 E4.72523
G1 X84.366 Y140.58 E4.73288
G1 X83.975 Y139.474 E4.7719
G1 X83.919 Y139.281 E4.77858
G1 X83.664 Y138.175 E4.81633
G1 X83.621 Y137.926 E4.82474
G1 X83.484 Y136.678 E4.86649
G1 X83.469 Y136.365 E4.87692
G1 X83.458 Y136.007 E4.88883
G1 X83.454 Y135.413 E4.90859
G1 X83.461 Y134.936 E4.92445
G1 X83.489 Y134.288 E4.94603
G1 X83.611 Y133.178 E4.98317
G1 X84.041 Y130.592 E5.07036
G1 X84.395 Y128.038 E5.15612
G1 X84.668 Y125.548 E5.23943
G1 X84.876 Y122.988 E5.32486
G1 X85.01 Y120.462 E5.40899
G1 X85.072 Y117.921 E5.49353
G1 X85.063 Y115.393 E5.57761
G1 X84.981 Y112.851 E5.6622
G1 X84.826 Y110.289 E5.74757
G1 X84.604 Y107.776 E5.83148
G1 X84.307 Y105.256 E5.91588
G1 X83.946 Y102.79 E5.99877
G1 X83.816 Y102.051 E6.02373
G1 X83.597 Y100.686 E6.06971
G1 X83.493 Y99.789 E6.09974
G1 X83.476 Y98.662 E6.13723
G1 X83.489 Y98.337 E6.14805
G1 X83.565 Y97.437 E6.17809
G1 X83.708 Y96.603 E6.20623
G1 X83.766 Y96.333 E6.21542
G1 X84.117 Y95.09 E6.25838
G1 X84.193 Y94.874 E6.26599
G1 X84.647 Y93.788 E6.30514
G1 X84.746 Y93.585 E6.31265
G1 X85.349 Y92.516 E6.35347
G1 X85.501 Y92.281 E6.36278
G1 X86.025 Y91.545 E6.39283
G1 X86.361 Y91.138 E6.41039
G1 X86.531 Y90.942 E6.41902
G1 X87.152 Y90.286 E6.44906
G1 X87.845 Y89.676 E6.47977
G1 X88.192 Y89.397 E6.49458
G1 X88.92 Y88.863 E6.52461
G1 X89.594 Y88.45 E6.5509
G1 X89.783 Y88.344 E6.5581
G1 X90.785 Y87.851 E6.59525
G1 X91.004 Y87.758 E6.60316
G1 X92.129 Y87.357 E6.64288
G1 X92.324 Y87.3 E6.64964
G1 X93.483 Y87.033 E6.6892
G1 X93.731 Y86.991 E6.69756
G1 X95.03 Y86.856 E6.741
G1 X95.605 Y86.837 E6.76014
G1 X96.588 Y86.825 E6.79283
G1 X122.18 Y86.826 E7.64403
G1 X122.851 Y86.835 E7.66635
G0 F6000 X122.856 Y86.435
G1 F1200 X123.332 Y86.452 E7.68219
G1 X123.606 Y86.468 E7.69132
G1 X124.756 Y86.598 E7.72981
G1 X124.957 Y86.632 E7.73659
G1 X126.049 Y86.877 E7.77381
G1 X126.256 Y86.935 E7.78096
G1 X127.131 Y87.222 E7.81159
G1 X127.573 Y87.4 E7.82744
G1 X128.626 Y87.853 E7.86557
G1 X129.78 Y88.371 E7.90764
G1 X132.108 Y89.337 E7.99147
G1 X134.478 Y90.244 E8.07587
G1 X136.84 Y91.071 E8.15911
G1 X139.285 Y91.852 E8.24448
G1 X141.659 Y92.536 E8.32665
G1 X143.057 Y92.928 E8.37494
G1 X144.061 Y93.287 E8.4104
G1 X144.273 Y93.375 E8.41804
G1 X145.282 Y93.858 E8.45524
G1 X145.482 Y93.967 E8.46282
G1 X146.544 Y94.63 E8.50446
G1 X146.73 Y94.762 E8.51205
G1 X147.64 Y95.486 E8.55072
G1 X147.794 Y95.623 E8.55758
G1 X148.653 Y96.48 E8.59794
G1 X148.804 Y96.649 E8.60547
G1 X149.453 Y97.45 E8.63976
G1 X149.576 Y97.618 E8.64669
G1 X150.291 Y98.736 E8.69083
G1 X150.412 Y98.954 E8.69912
G1 X150.948 Y100.069 E8.74027
G1 X151.038 Y100.288 E8.74814
G1 X151.351 Y101.154 E8.77877
G1 X151.568 Y101.956 E8.8064
G1 X151.658 Y102.35 E8.81985
G1 X151.824 Y103.256 E8.85048
G1 X151.907 Y104.107 E8.87892
G1 X151.928 Y104.475 E8.89118
G1 X151.943 Y104.889 E8.90496
G1 X151.95 Y105.358 E8.92056
G1 X151.949 Y132.449 E9.82161
G1 X151.931 Y133.445 E9.85474
G1 X151.92 Y133.695 E9.86306
G1 X151.805 Y134.85 E9.90167
G1 X151.766 Y135.102 E9.91015
G1 X151.497 Y136.345 E9.95245
G1 X151.442 Y136.541 E9.95922
G1 X151.044 Y137.697 E9.99988
G1 X150.953 Y137.919 E10.00786
G1 X150.428 Y139.016 E10.04831
G1 X150.315 Y139.221 E10.0561
G1 X149.836 Y140.007 E10.08671
G1 X149.35 Y140.674 E10.11416
G1 X149.087 Y141.007 E10.12828
G1 X148.486 Y141.704 E10.15889
G1 X147.941 Y142.242 E10.18436
G1 X147.793 Y142.378 E10.19104
G1 X146.846 Y143.153 E10.23174
G1 X146.642 Y143.301 E10.24013
G1 X145.602 Y143.966 E10.28118
G1 X145.413 Y144.072 E10.28839
G1 X144.371 Y144.584 E10.32701
G1 X144.152 Y144.677 E10.33492
G1 X142.983 Y145.094 E10.3762
G1 X142.788 Y145.151 E10.38296
G1 X141.618 Y145.422 E10.4229
G1 X141.369 Y145.465 E10.43131
G1 X140.587 Y145.571 E10.45755
G1 X140.278 Y145.601 E10.46788
G1 X137.651 Y145.89 E10.55578
G1 X135.199 Y146.23 E10.63811
G1 X132.672 Y146.654 E10.72334
G1 X130.212 Y147.139 E10.80673
G1 X127.746 Y147.698 E10.89083
G1 X125.705 Y148.21 E10.96082
G1 X124.543 Y148.433 E11.00017
G1 X124.328 Y148.462 E11.00739
G1 X123.117 Y148.555 E11.04779
G1 X121.985 Y148.575 E11.08544
G1 X96.215 Y148.574 E11.94256
G1 X95.545 Y148.565 E11.96484
G1 X95.071 Y148.548 E11.98062
G1 X94.796 Y148.532 E11.98978
G1 X93.644 Y148.402 E12.02834
G1 X93.443 Y148.368 E12.03512
G1 X92.351 Y148.123 E12.07234
G1 X92.144 Y148.065 E12.07949
G1 X90.917 Y147.639 E12.12269
G1 X90.704 Y147.55 E12.13037
G1 X89.67 Y147.05 E12.16857
G1 X89.467 Y146.938 E12.17628
G1 X88.681 Y146.459 E12.2069
G1 X88.002 Y145.963 E12.23486
G1 X87.664 Y145.695 E12.24921
G1 X86.968 Y145.092 E12.27984
G1 X86.327 Y144.431 E12.31046
G1 X85.987 Y144.028 E12.328
G1 X85.705 Y143.677 E12.34298
G1 X85.16 Y142.935 E12.3736
G1 X84.706 Y142.194 E12.4025
G1 X84.598 Y142 E12.40989
G1 X84.086 Y140.947 E12.44883
G1 X83.997 Y140.735 E12.45648
G1 X83.591 Y139.586 E12.49701
G1 X83.535 Y139.393 E12.50369
G1 X83.27 Y138.243 E12.54294
G1 X83.227 Y137.994 E12.55135
G1 X83.084 Y136.697 E12.59475
G1 X83.069 Y136.384 E12.60517
G1 X83.058 Y136.012 E12.61755
G1 X83.054 Y135.407 E12.63767
G1 X83.061 Y134.93 E12.65354
G1 X83.089 Y134.266 E12.67564
G1 X83.217 Y133.113 E12.71423
G1 X83.644 Y130.544 E12.80084
G1 X83.994 Y128.015 E12.88576
G1 X84.274 Y125.47 E12.97092
G1 X84.477 Y122.972 E13.05428
G1 X84.609 Y120.465 E13.13778
G1 X84.672 Y117.913 E13.22268
G1 X84.663 Y115.408 E13.306
G1 X84.58 Y112.852 E13.39106
G1 X84.43 Y110.348 E13.47449
G1 X84.205 Y107.821 E13.55887
G1 X83.908 Y105.293 E13.64353
G1 X83.547 Y102.823 E13.72655
G1 X83.421 Y102.114 E13.75051
G1 X83.202 Y100.749 E13.79649
G1 X83.096 Y99.835 E13.82709
G1 X83.076 Y98.646 E13.86664
G1 X83.089 Y98.321 E13.87746
G1 X83.166 Y97.404 E13.90807
G1 X83.317 Y96.519 E13.93793
G1 X83.375 Y96.249 E13.94711
G1 X83.74 Y94.957 E13.99177
G1 X83.816 Y94.741 E13.99938
G1 X84.288 Y93.613 E14.04005
G1 X84.387 Y93.41 E14.04756
G1 X85.014 Y92.299 E14.08999
G1 X85.166 Y92.064 E14.0993
G1 X85.699 Y91.314 E14.12991
G1 X86.058 Y90.876 E14.14874
G1 X86.228 Y90.68 E14.15737
G1 X86.861 Y90.011 E14.188
G1 X87.594 Y89.364 E14.22052
G1 X87.941 Y89.085 E14.23533
G1 X88.683 Y88.54 E14.26595
G1 X89.398 Y88.101 E14.29386
G1 X89.587 Y87.995 E14.30107
G1 X90.629 Y87.483 E14.33968
G1 X90.848 Y87.39 E14.34759
G1 X92.017 Y86.973 E14.38887
G1 X92.212 Y86.916 E14.39563
G1 X93.416 Y86.639 E14.43672
G1 X93.664 Y86.597 E14.44509
G1 X95.015 Y86.456 E14.49027
G1 X95.6 Y86.437 E14.50974
G1 X96.588 Y86.425 E14.5426
G1 X122.185 Y86.426 E15.39396
G1 X122.856 Y86.435 E15.41628
G0 F6000 X122.862 Y86.035
G1 F1200 X123.355 Y86.053 E15.43269
G1 X123.629 Y86.069 E15.44181
G1 X124.823 Y86.204 E15.48178
G1 X125.024 Y86.238 E15.48856
G1 X126.157 Y86.492 E15.52718
G1 X126.364 Y86.55 E15.53433
G1 X127.255 Y86.841 E15.5655
G1 X127.73 Y87.032 E15.58253
G1 X128.79 Y87.488 E15.62091
G1 X129.931 Y88 E15.66251
G1 X132.256 Y88.965 E15.74623
G1 X134.606 Y89.864 E15.82992
G1 X136.999 Y90.703 E15.91426
G1 X139.379 Y91.462 E15.99735
G1 X141.776 Y92.153 E16.08032
G1 X143.172 Y92.545 E16.12855
G1 X144.214 Y92.917 E16.16535
G1 X144.426 Y93.005 E16.17298
G1 X145.473 Y93.506 E16.21158
G1 X145.673 Y93.615 E16.21916
G1 X146.775 Y94.303 E16.26237
G1 X146.961 Y94.435 E16.26996
G1 X147.906 Y95.187 E16.31012
G1 X148.06 Y95.324 E16.31698
G1 X148.952 Y96.214 E16.35889
G1 X149.103 Y96.383 E16.36643
G1 X149.775 Y97.214 E16.40197
G1 X149.898 Y97.382 E16.4089
G1 X150.641 Y98.542 E16.45472
G1 X150.762 Y98.76 E16.46301
G1 X151.318 Y99.917 E16.5057
G1 X151.408 Y100.136 E16.51358
G1 X151.728 Y101.018 E16.54478
G1 X151.958 Y101.867 E16.57404
G1 X152.048 Y102.261 E16.58748
G1 X152.217 Y103.184 E16.61869
G1 X152.306 Y104.084 E16.64877
G1 X152.327 Y104.452 E16.66103
G1 X152.343 Y104.882 E16.67534
G1 X152.35 Y105.358 E16.69118
G1 X152.349 Y132.454 E17.59239
G1 X152.34 Y133.126 E17.61475
G1 X152.319 Y133.713 E17.63428
G1 X152.201 Y134.911 E17.67432
G1 X152.162 Y135.163 E17.6828
G1 X151.882 Y136.453 E17.72671
G1 X151.827 Y136.649 E17.73348
G1 X151.414 Y137.849 E17.77569
G1 X151.323 Y138.071 E17.78367
G1 X150.778 Y139.209 E17.82563
G1 X150.665 Y139.414 E17.83342
G1 X150.178 Y140.215 E17.8646
G1 X149.664 Y140.922 E17.89367
G1 X149.401 Y141.255 E17.90778
G1 X148.789 Y141.965 E17.93896
G1 X148.212 Y142.537 E17.96598
G1 X148.064 Y142.673 E17.97267
G1 X147.081 Y143.477 E18.01491
G1 X146.877 Y143.625 E18.02329
G1 X145.798 Y144.315 E18.06589
G1 X145.609 Y144.421 E18.0731
G1 X144.528 Y144.952 E18.11315
G1 X144.309 Y145.045 E18.12107
G1 X143.095 Y145.478 E18.16394
G1 X142.9 Y145.535 E18.17069
G1 X141.686 Y145.817 E18.21215
G1 X141.437 Y145.86 E18.22055
G1 X140.625 Y145.969 E18.2478
G1 X140.29 Y146.001 E18.25899
G1 X137.748 Y146.281 E18.34405
G1 X135.22 Y146.632 E18.42894
G1 X132.745 Y147.047 E18.51241
G1 X130.306 Y147.528 E18.59509
G1 X127.836 Y148.088 E18.67933
G1 X125.802 Y148.598 E18.74907
G1 X124.596 Y148.829 E18.78992
G1 X124.381 Y148.858 E18.79713
G1 X123.125 Y148.955 E18.83903
G1 X121.985 Y148.975 E18.87695
G1 X96.209 Y148.974 E19.73427
G1 X95.539 Y148.965 E19.75655
G1 X95.048 Y148.947 E19.77289
G1 X94.773 Y148.931 E19.78206
G1 X93.577 Y148.796 E19.82209
G1 X93.376 Y148.762 E19.82887
G1 X92.243 Y148.508 E19.86749
G1 X92.036 Y148.45 E19.87464
G1 X90.763 Y148.008 E19.91946
G1 X90.55 Y147.919 E19.92713
G1 X89.477 Y147.4 E19.96678
G1 X89.274 Y147.288 E19.97449
G1 X88.473 Y146.801 E20.00567
G1 X87.754 Y146.276 E20.03528
G1 X87.416 Y146.008 E20.04963
G1 X86.706 Y145.395 E20.08082
G1 X86.052 Y144.723 E20.11201
G1 X85.675 Y144.279 E20.13139
G1 X85.393 Y143.928 E20.14636
G1 X84.837 Y143.172 E20.17757
G1 X84.357 Y142.388 E20.20815
G1 X84.249 Y142.194 E20.21553
G1 X83.718 Y141.102 E20.25592
G1 X83.629 Y140.89 E20.26357
G1 X83.207 Y139.697 E20.30566
G1 X83.151 Y139.504 E20.31234
G1 X82.875 Y138.311 E20.35307
G1 X82.832 Y138.062 E20.36147
G1 X82.685 Y136.717 E20.40647
G1 X82.67 Y136.404 E20.4169
G1 X82.658 Y136.017 E20.42977
G1 X82.654 Y135.402 E20.45023
G1 X82.661 Y134.925 E20.4661
G1 X82.69 Y134.243 E20.4888
G1 X82.822 Y133.047 E20.52882
G1 X83.252 Y130.459 E20.61608
G1 X83.599 Y127.953 E20.70022
G1 X83.873 Y125.464 E20.78351
G1 X84.077 Y122.952 E20.86733
G1 X84.21 Y120.434 E20.9512
G1 X84.272 Y117.905 E21.03534
G1 X84.263 Y115.387 E21.11909
G1 X84.182 Y112.888 E21.20225
G1 X84.031 Y110.374 E21.28601
G1 X83.808 Y107.867 E21.36973
G1 X83.514 Y105.361 E21.45365
G1 X83.152 Y102.891 E21.53668
G1 X83.026 Y102.178 E21.56076
G1 X82.807 Y100.813 E21.60674
G1 X82.698 Y99.881 E21.63795
G1 X82.677 Y98.63 E21.67957
G1 X82.69 Y98.305 E21.69038
G1 X82.767 Y97.371 E21.72155
G1 X82.926 Y96.435 E21.75313
G1 X82.984 Y96.165 E21.76232
G1 X83.363 Y94.824 E21.80867
G1 X83.439 Y94.608 E21.81628
G1 X83.928 Y93.437 E21.85849
G1 X84.027 Y93.234 E21.866
G1 X84.678 Y92.082 E21.91001
G1 X84.83 Y91.847 E21.91932
G1 X85.372 Y91.082 E21.9505
G1 X85.756 Y90.614 E21.97064
G1 X85.926 Y90.418 E21.97927
G1 X86.57 Y89.736 E22.01046
G1 X87.343 Y89.052 E22.04479
G1 X87.69 Y88.773 E22.0596
G1 X88.446 Y88.217 E22.09082
G1 X89.202 Y87.752 E22.12034
G1 X89.391 Y87.646 E22.12754
G1 X90.472 Y87.115 E22.1676
G1 X90.691 Y87.022 E22.17552
G1 X91.905 Y86.589 E22.21838
G1 X92.1 Y86.532 E22.22514
G1 X93.349 Y86.244 E22.26777
G1 X93.597 Y86.202 E22.27614
G1 X94.528 Y86.085 E22.30735
G1 X94.999 Y86.057 E22.32304
G1 X95.595 Y86.037 E22.34288
G1 X96.588 Y86.025 E22.37591
G1 X122.191 Y86.026 E23.22747
G1 X122.862 Y86.035 E23.24978
G1 F1500 E16.74978
G0 F6000 X125.396 Y98.717
G0 X125.381 Y100.193
G0 X129.35 Y122.485
G0 X129.35 Y122.95
G1 F1500 E23.24978
G1 F1200 X132.947 Y122.951 E23.36942
G1 X132.947 Y125.35 E23.44921
G1 X132.787 Y125.35 E23.45453
G1 X132.237 Y125.39 E23.47288
G1 X131.699 Y125.509 E23.4912
G1 X131.386 Y125.429 E23.50195
G1 X130.613 Y125.35 E23.52779
G1 X129.35 Y125.35 E23.5698
G1 X129.35 Y122.95 E23.64962
G0 F6000 X128.95 Y122.55
G1 F1200 X133.347 Y122.551 E23.79587
G1 X133.347 Y125.75 E23.90227
G1 X132.787 Y125.75 E23.92089
G1 X132.267 Y125.79 E23.93824
G1 X131.76 Y125.909 E23.95556
G1 X131.706 Y125.931 E23.9575
G1 X131.194 Y125.8 E23.97508
G1 X130.613 Y125.75 E23.99447
G1 X128.95 Y125.75 E24.04978
G1 X128.95 Y122.55 E24.15622
G0 F6000 X128.55 Y122.15
G1 F1200 X133.747 Y122.151 E24.32907
G1 X133.747 Y126.15 E24.46208
G1 X132.787 Y126.15 E24.49401
G1 X132.299 Y126.19 E24.51029
G1 X131.824 Y126.309 E24.52658
G1 X131.697 Y126.364 E24.53118
