;FLAVOR:Marlin
;TIME:4145
;Filament used: 2.42686m
;Layer height: 0.2
;MINX:61.501
;MINY:86.675
;MINZ:0.2
;MAXX:173.499
;MAXY:148.325
;MAXZ:10
;Generated with Cura_SteamEngine 4.6.1
M140 S60
M105
M190 S60
M104 S200
M105
M109 S200
M82 ;absolute extrusion mode
; Ender 3 Custom Start G-code
G92 E0 ; Reset Extruder
G28 ; Home all axes
G1 Z2.0 F3000 ; Move Z Axis up little to prevent scratching of Heat Bed
G1 X0.1 Y20 Z0.3 F5000.0 ; Move to start position
G1 X0.1 Y200.0 Z0.3 F1500.0 E15 ; Draw the first line
G1 X0.4 Y200.0 Z0.3 F5000.0 ; Move to side a little
G1 X0.4 Y20 Z0.3 F1500.0 E30 ; Draw the second line
G92 E0 ; Reset Extruder
G1 Z2.0 F3000 ; Move Z Axis up little to prevent scratching of Heat Bed
G1 X5 Y20 Z0.3 F5000.0 ; Move over to prevent blob squish
G92 E0
G92 E0
G1 F1500 E-6.5
;LAYER_COUNT:50
;LAYER:0
M107
G0 F6000 X105.756 Y87.493 Z0.2
;TYPE:SKIRT
G1 F1500 E0
G1 F1200 X106.255 Y87.516 E0.01661
G1 X106.885 Y87.564 E0.03763
G1 X107.813 Y87.665 E0.06868
G1 X110.374 Y87.906 E0.15423
G1 X112.899 Y88.071 E0.23839
G1 X115.431 Y88.165 E0.32267
G1 X118 Y88.188 E0.40811
G1 X120.532 Y88.139 E0.49235
G1 X123.028 Y88.019 E0.57546
G1 X125.572 Y87.825 E0.66032
G1 X126.98 Y87.674 E0.70742
G1 X128.328 Y87.543 E0.75246
G1 X129.128 Y87.497 E0.77911
G1 X130.34 Y87.476 E0.81943
G1 X131.448 Y87.475 E0.85628
G1 X160.935 Y87.476 E1.83703
G1 X161.596 Y87.485 E1.85901
G1 X162.497 Y87.537 E1.88903
G1 X163.025 Y87.605 E1.90674
G1 X163.385 Y87.661 E1.91885
G1 X164.27 Y87.839 E1.94888
G1 X165.136 Y88.095 E1.97891
G1 X165.976 Y88.427 E2.00896
G1 X166.676 Y88.772 E2.03491
G1 X166.975 Y88.934 E2.04622
G1 X167.749 Y89.399 E2.07625
G1 X168.479 Y89.93 E2.10628
G1 X169.16 Y90.524 E2.13633
G1 X169.831 Y91.229 E2.16871
G1 X170.068 Y91.503 E2.18075
G1 X170.628 Y92.212 E2.2108
G1 X171.123 Y92.967 E2.24083
G1 X171.549 Y93.763 E2.27086
G1 X171.891 Y94.562 E2.29977
G1 X172.002 Y94.855 E2.31019
G1 X172.285 Y95.713 E2.34024
G1 X172.49 Y96.593 E2.37029
G1 X172.608 Y97.401 E2.39745
G1 X172.636 Y97.667 E2.40635
G1 X172.691 Y98.611 E2.4378
G1 X172.699 Y99.305 E2.46088
G1 X172.699 Y101.098 E2.52052
G1 X172.69 Y101.735 E2.5417
G1 X172.661 Y102.377 E2.56308
G1 X172.645 Y102.584 E2.56998
G1 X172.551 Y103.385 E2.59681
G1 X172.456 Y103.988 E2.61711
G1 X172.098 Y106.482 E2.70091
G1 X171.804 Y109.048 E2.78682
G1 X171.588 Y111.554 E2.87048
G1 X171.442 Y114.082 E2.9547
G1 X171.367 Y116.649 E3.04011
G1 X171.363 Y119.184 E3.12443
G1 X171.432 Y121.715 E3.20864
G1 X171.573 Y124.255 E3.29325
G1 X171.783 Y126.756 E3.37673
G1 X172.069 Y129.298 E3.46181
G1 X172.544 Y132.567 E3.57168
G1 X172.595 Y132.971 E3.58522
G1 X172.636 Y133.363 E3.59833
G1 X172.69 Y134.278 E3.62882
G1 X172.699 Y134.965 E3.65167
G1 X172.699 Y135.717 E3.67668
G1 X172.69 Y136.419 E3.70003
G1 X172.639 Y137.32 E3.73005
G1 X172.563 Y137.896 E3.74937
G1 X172.506 Y138.253 E3.76139
G1 X172.325 Y139.138 E3.79144
G1 X172.065 Y140.003 E3.82148
G1 X171.731 Y140.842 E3.85151
G1 X171.394 Y141.519 E3.87667
G1 X171.233 Y141.815 E3.88787
G1 X170.767 Y142.588 E3.91789
G1 X170.234 Y143.317 E3.94793
G1 X169.639 Y143.997 E3.97798
G1 X168.946 Y144.656 E4.00979
G1 X168.672 Y144.893 E4.02184
G1 X167.963 Y145.453 E4.05189
G1 X167.208 Y145.948 E4.08192
G1 X166.412 Y146.374 E4.11195
G1 X165.557 Y146.737 E4.14284
G1 X165.24 Y146.855 E4.15409
G1 X164.381 Y147.132 E4.18411
G1 X163.5 Y147.333 E4.21416
G1 X162.191 Y147.483 E4.25799
G1 X161.911 Y147.497 E4.26731
G1 X161.556 Y147.509 E4.27912
G1 X160.409 Y147.525 E4.31728
G1 X130.062 Y147.524 E5.32662
G1 X129.569 Y147.517 E5.34302
G1 X129.244 Y147.507 E5.35384
G1 X128.745 Y147.484 E5.37045
G1 X128.115 Y147.436 E5.39147
G1 X127.187 Y147.335 E5.42251
G1 X124.626 Y147.094 E5.50807
G1 X122.101 Y146.929 E5.59223
G1 X119.569 Y146.835 E5.6765
G1 X117 Y146.812 E5.76195
G1 X114.468 Y146.861 E5.84618
G1 X111.972 Y146.981 E5.9293
G1 X109.428 Y147.175 E6.01415
G1 X108.02 Y147.326 E6.06125
G1 X106.672 Y147.457 E6.1063
G1 X105.872 Y147.503 E6.13295
G1 X104.66 Y147.524 E6.17327
G1 X103.547 Y147.525 E6.21029
G1 X74.062 Y147.524 E7.19096
G1 X73.405 Y147.515 E7.21282
G1 X72.804 Y147.489 E7.23282
G1 X72.598 Y147.474 E7.23969
G1 X71.701 Y147.369 E7.26973
G1 X70.817 Y147.184 E7.29977
G1 X69.888 Y146.9 E7.33208
G1 X69.557 Y146.781 E7.34378
G1 X68.722 Y146.438 E7.3738
G1 X67.92 Y146.022 E7.40385
G1 X67.158 Y145.538 E7.43388
G1 X66.512 Y145.046 E7.46089
G1 X66.259 Y144.837 E7.4718
G1 X65.589 Y144.231 E7.50185
G1 X64.975 Y143.569 E7.53188
G1 X64.422 Y142.855 E7.56192
G1 X64.058 Y142.302 E7.58394
G1 X63.884 Y142.018 E7.59501
G1 X63.446 Y141.227 E7.62509
G1 X63.081 Y140.402 E7.65509
G1 X62.79 Y139.547 E7.68513
G1 X62.524 Y138.392 E7.72455
G1 X62.451 Y137.961 E7.73909
G1 X62.34 Y137.065 E7.76912
G1 X62.309 Y136.383 E7.79183
G1 X62.301 Y135.701 E7.81451
G1 X62.301 Y134.912 E7.84075
G1 X62.31 Y134.269 E7.86214
G1 X62.343 Y133.584 E7.88495
G1 X62.361 Y133.363 E7.89233
G1 X62.451 Y132.608 E7.91762
G1 X62.534 Y132.083 E7.9353
G1 X62.902 Y129.518 E8.02148
G1 X63.196 Y126.952 E8.10738
G1 X63.412 Y124.446 E8.19104
G1 X63.558 Y121.918 E8.27527
G1 X63.633 Y119.351 E8.36068
G1 X63.637 Y116.816 E8.445
G1 X63.568 Y114.284 E8.52924
G1 X63.427 Y111.744 E8.61385
G1 X63.217 Y109.244 E8.6973
G1 X62.931 Y106.702 E8.78238
G1 X62.456 Y103.433 E8.89225
G1 X62.405 Y103.028 E8.90582
G1 X62.363 Y102.626 E8.91927
G1 X62.309 Y101.69 E8.95045
G1 X62.301 Y100.995 E8.97357
G1 X62.301 Y99.201 E9.03323
G1 X62.31 Y98.562 E9.05449
G1 X62.363 Y97.661 E9.08451
G1 X62.441 Y97.071 E9.1043
G1 X62.498 Y96.72 E9.11613
G1 X62.682 Y95.836 E9.14616
G1 X62.944 Y94.971 E9.17622
G1 X63.281 Y94.134 E9.20623
G1 X63.606 Y93.481 E9.23049
G1 X63.767 Y93.185 E9.2417
G1 X64.233 Y92.412 E9.27172
G1 X64.766 Y91.683 E9.30176
G1 X65.361 Y91.003 E9.33181
G1 X66.054 Y90.344 E9.36362
G1 X66.328 Y90.107 E9.37567
G1 X67.037 Y89.547 E9.40572
G1 X67.792 Y89.052 E9.43574
G1 X68.588 Y88.626 E9.46577
G1 X69.433 Y88.266 E9.49632
G1 X69.749 Y88.148 E9.50754
G1 X70.608 Y87.87 E9.53757
G1 X71.488 Y87.669 E9.56759
G1 X72.383 Y87.547 E9.59764
G1 X72.843 Y87.515 E9.61297
G1 X73.462 Y87.491 E9.63358
G1 X74.597 Y87.475 E9.67133
G1 X104.938 Y87.476 E10.68048
G1 X105.756 Y87.493 E10.70769
G0 F6000 X105.774 Y87.093
G1 F1200 X106.273 Y87.116 E10.7243
G1 X106.928 Y87.167 E10.74615
G1 X107.825 Y87.264 E10.77616
G1 X110.401 Y87.507 E10.86222
G1 X112.905 Y87.671 E10.94568
G1 X115.45 Y87.765 E11.03039
G1 X117.995 Y87.788 E11.11504
G1 X120.506 Y87.739 E11.19857
G1 X123.047 Y87.618 E11.28318
G1 X125.532 Y87.428 E11.36607
G1 X126.942 Y87.276 E11.41324
G1 X128.29 Y87.145 E11.45829
G1 X129.12 Y87.097 E11.48594
G1 X130.339 Y87.076 E11.52649
G1 X131.447 Y87.075 E11.56334
G1 X160.94 Y87.076 E12.54428
G1 X161.601 Y87.085 E12.56627
G1 X162.52 Y87.137 E12.59688
G1 X163.086 Y87.21 E12.61587
G1 X163.446 Y87.266 E12.62798
G1 X164.349 Y87.447 E12.65861
G1 X165.233 Y87.705 E12.68924
G1 X166.09 Y88.04 E12.71985
G1 X166.867 Y88.42 E12.74862
G1 X167.166 Y88.582 E12.75993
G1 X167.955 Y89.055 E12.79052
G1 X168.701 Y89.595 E12.82115
G1 X169.397 Y90.198 E12.85178
G1 X170.133 Y90.968 E12.88721
G1 X170.37 Y91.242 E12.89926
G1 X170.942 Y91.963 E12.92987
G1 X171.448 Y92.732 E12.96049
G1 X171.886 Y93.542 E12.99111
G1 X172.266 Y94.421 E13.02296
G1 X172.377 Y94.714 E13.03339
G1 X172.665 Y95.588 E13.06399
G1 X172.876 Y96.484 E13.09461
G1 X173.006 Y97.359 E13.12403
G1 X173.034 Y97.625 E13.13293
G1 X173.091 Y98.606 E13.16561
G1 X173.099 Y99.305 E13.18886
G1 X173.099 Y101.104 E13.2487
G1 X173.09 Y101.741 E13.26988
G1 X173.059 Y102.408 E13.29209
G1 X173.043 Y102.615 E13.299
G1 X172.946 Y103.448 E13.32689
G1 X172.851 Y104.051 E13.34719
G1 X172.492 Y106.552 E13.43123
G1 X172.205 Y109.056 E13.51506
G1 X171.985 Y111.61 E13.60032
G1 X171.841 Y114.116 E13.68381
G1 X171.767 Y116.626 E13.76733
G1 X171.763 Y119.174 E13.85207
G1 X171.832 Y121.681 E13.93549
G1 X171.974 Y124.237 E14.02063
G1 X172.184 Y126.745 E14.10434
G1 X172.463 Y129.225 E14.18735
G1 X172.94 Y132.509 E14.29772
G1 X172.992 Y132.929 E14.31179
G1 X173.033 Y133.321 E14.3249
G1 X173.09 Y134.272 E14.35659
G1 X173.099 Y134.964 E14.37961
G1 X173.099 Y135.722 E14.40482
G1 X173.09 Y136.424 E14.42817
G1 X173.038 Y137.343 E14.45879
G1 X172.958 Y137.959 E14.47945
G1 X172.901 Y138.316 E14.49147
G1 X172.717 Y139.218 E14.52209
G1 X172.455 Y140.101 E14.55272
G1 X172.117 Y140.957 E14.58333
G1 X171.746 Y141.71 E14.61125
G1 X171.585 Y142.006 E14.62246
G1 X171.11 Y142.795 E14.65309
G1 X170.569 Y143.539 E14.68369
G1 X169.965 Y144.234 E14.71431
G1 X169.207 Y144.958 E14.74918
G1 X168.933 Y145.195 E14.76122
G1 X168.212 Y145.767 E14.79184
G1 X167.443 Y146.273 E14.82245
G1 X166.633 Y146.711 E14.85308
G1 X165.697 Y147.112 E14.88695
G1 X165.38 Y147.23 E14.8982
G1 X164.504 Y147.513 E14.92882
G1 X163.607 Y147.72 E14.95944
G1 X162.695 Y147.847 E14.99006
G1 X162.211 Y147.883 E15.0062
G1 X161.931 Y147.897 E15.01553
G1 X161.562 Y147.909 E15.02781
G1 X160.409 Y147.925 E15.06616
G1 X130.057 Y147.924 E16.07567
G1 X129.564 Y147.917 E16.09207
G1 X129.226 Y147.907 E16.10332
G1 X128.727 Y147.884 E16.11993
G1 X128.072 Y147.833 E16.14178
G1 X127.175 Y147.736 E16.17179
G1 X124.599 Y147.493 E16.25785
G1 X122.095 Y147.329 E16.34131
G1 X119.55 Y147.235 E16.42602
G1 X117.005 Y147.212 E16.51067
G1 X114.494 Y147.261 E16.5942
G1 X111.953 Y147.382 E16.67881
G1 X109.468 Y147.572 E16.7617
G1 X108.058 Y147.724 E16.80887
G1 X106.71 Y147.855 E16.85392
G1 X105.88 Y147.903 E16.88157
G1 X104.661 Y147.924 E16.92212
G1 X103.548 Y147.925 E16.95914
G1 X74.057 Y147.924 E17.94001
G1 X73.4 Y147.915 E17.96187
G1 X72.775 Y147.888 E17.98267
G1 X72.569 Y147.873 E17.98954
G1 X71.655 Y147.766 E18.02015
G1 X70.753 Y147.581 E18.05077
G1 X69.753 Y147.276 E18.08555
G1 X69.422 Y147.157 E18.09725
G1 X68.57 Y146.808 E18.12787
G1 X67.751 Y146.387 E18.1585
G1 X66.972 Y145.896 E18.18912
G1 X66.257 Y145.354 E18.21897
G1 X66.004 Y145.145 E18.22988
G1 X65.32 Y144.529 E18.2605
G1 X64.693 Y143.855 E18.29111
G1 X64.126 Y143.129 E18.32175
G1 X63.717 Y142.511 E18.3464
G1 X63.543 Y142.227 E18.35748
G1 X63.096 Y141.421 E18.38813
G1 X62.721 Y140.581 E18.41873
G1 X62.421 Y139.71 E18.44937
G1 X62.13 Y138.459 E18.49209
G1 X62.057 Y138.028 E18.50663
G1 X61.943 Y137.115 E18.53723
G1 X61.909 Y136.387 E18.56147
G1 X61.901 Y135.702 E18.58425
G1 X61.901 Y134.907 E18.6107
G1 X61.91 Y134.264 E18.63208
G1 X61.944 Y133.552 E18.65579
G1 X61.962 Y133.331 E18.66317
G1 X62.055 Y132.546 E18.68946
G1 X62.148 Y131.954 E18.70939
G1 X62.508 Y129.448 E18.7936
G1 X62.795 Y126.944 E18.87742
G1 X63.015 Y124.39 E18.96269
G1 X63.159 Y121.884 E19.04617
G1 X63.233 Y119.374 E19.12969
G1 X63.237 Y116.826 E19.21444
G1 X63.168 Y114.317 E19.29792
G1 X63.027 Y111.767 E19.38286
G1 X62.816 Y109.252 E19.46681
G1 X62.537 Y106.774 E19.54975
G1 X62.06 Y103.491 E19.66009
G1 X62.007 Y103.069 E19.67423
G1 X61.965 Y102.667 E19.68767
G1 X61.909 Y101.695 E19.72006
G1 X61.901 Y100.995 E19.74334
G1 X61.901 Y99.196 E19.80318
G1 X61.91 Y98.557 E19.82443
G1 X61.963 Y97.638 E19.85505
G1 X62.046 Y97.007 E19.87622
G1 X62.103 Y96.656 E19.88804
G1 X62.29 Y95.754 E19.91868
G1 X62.554 Y94.873 E19.94927
G1 X62.894 Y94.017 E19.97991
G1 X63.254 Y93.29 E20.00689
G1 X63.415 Y92.994 E20.01809
G1 X63.89 Y92.205 E20.04873
G1 X64.431 Y91.461 E20.07932
G1 X65.035 Y90.766 E20.10995
G1 X65.793 Y90.042 E20.14481
G1 X66.067 Y89.805 E20.15686
G1 X66.788 Y89.233 E20.18747
G1 X67.557 Y88.727 E20.21809
G1 X68.367 Y88.289 E20.24872
G1 X69.293 Y87.892 E20.28223
G1 X69.609 Y87.774 E20.29344
G1 X70.485 Y87.489 E20.32408
G1 X71.382 Y87.282 E20.3547
G1 X72.293 Y87.154 E20.3853
G1 X72.825 Y87.115 E20.40304
G1 X73.126 Y87.101 E20.41306
G1 X73.456 Y87.091 E20.42404
G1 X74.597 Y87.075 E20.462
G1 X104.943 Y87.076 E21.47131
G1 X105.774 Y87.093 E21.49895
G0 F6000 X105.792 Y86.694
G1 F1200 X106.291 Y86.717 E21.51557
G1 X106.971 Y86.769 E21.53825
G1 X107.831 Y86.862 E21.56702
G1 X110.466 Y87.11 E21.65505
G1 X112.945 Y87.273 E21.73768
G1 X115.433 Y87.365 E21.82049
G1 X117.991 Y87.388 E21.90557
G1 X120.515 Y87.339 E21.98954
G1 X122.998 Y87.22 E22.07222
G1 X125.489 Y87.03 E22.15531
G1 X126.903 Y86.878 E22.20261
G1 X128.251 Y86.747 E22.24765
G1 X129.113 Y86.697 E22.27637
G1 X130.339 Y86.676 E22.31715
G1 X131.447 Y86.675 E22.35401
G1 X160.946 Y86.676 E23.33515
G1 X161.607 Y86.685 E23.35713
G1 X162.543 Y86.738 E23.38832
G1 X163.148 Y86.815 E23.4086
G1 X163.508 Y86.871 E23.42072
G1 X164.428 Y87.054 E23.45192
G1 X165.328 Y87.315 E23.48308
G1 X166.204 Y87.652 E23.5143
G1 X167.057 Y88.068 E23.54587
G1 X167.356 Y88.23 E23.55718
G1 X168.161 Y88.712 E23.58838
G1 X168.922 Y89.26 E23.61958
G1 X169.633 Y89.871 E23.65076
G1 X170.436 Y90.706 E23.68929
G1 X170.673 Y90.98 E23.70134
G1 X171.255 Y91.715 E23.73252
G1 X171.773 Y92.497 E23.76372
G1 X172.223 Y93.32 E23.79491
G1 X172.64 Y94.279 E23.82969
G1 X172.751 Y94.572 E23.84012
G1 X173.045 Y95.462 E23.87129
G1 X173.263 Y96.375 E23.90251
G1 X173.404 Y97.317 E23.93419
G1 X173.432 Y97.583 E23.94309
G1 X173.491 Y98.601 E23.977
G1 X173.499 Y99.304 E24.00039
G1 X173.499 Y101.109 E24.06042
G1 X173.49 Y101.746 E24.08161
G1 X173.458 Y102.439 E24.10468
G1 X173.442 Y102.646 E24.11159
G1 X173.341 Y103.51 E24.14052
G1 X173.254 Y104.06 E24.15904
G1 X172.892 Y106.583 E24.24382
G1 X172.599 Y109.139 E24.32939
G1 X172.387 Y111.596 E24.41141
G1 X172.24 Y114.151 E24.49653
G1 X172.167 Y116.639 E24.57932
G1 X172.163 Y119.164 E24.6633
G1 X172.232 Y121.683 E24.74711
G1 X172.371 Y124.18 E24.83029
G1 X172.582 Y126.703 E24.9145
G1 X172.862 Y129.188 E24.99767
G1 X173.336 Y132.452 E25.10737
G1 X173.39 Y132.888 E25.12199
G1 X173.431 Y133.28 E25.1351
G1 X173.49 Y134.266 E25.16795
G1 X173.499 Y134.964 E25.19117
G1 X173.499 Y135.727 E25.21654
G1 X173.49 Y136.429 E25.23989
G1 X173.438 Y137.365 E25.27107
G1 X173.353 Y138.022 E25.29311
G1 X173.296 Y138.379 E25.30513
G1 X173.109 Y139.298 E25.33632
G1 X172.844 Y140.198 E25.36753
G1 X172.504 Y141.072 E25.39872
G1 X172.097 Y141.901 E25.42944
G1 X171.936 Y142.197 E25.44064
G1 X171.453 Y143.001 E25.47184
G1 X170.904 Y143.761 E25.50302
G1 X170.291 Y144.471 E25.53422
G1 X169.469 Y145.261 E25.57214
G1 X169.195 Y145.498 E25.58419
G1 X168.46 Y146.08 E25.61537
G1 X167.678 Y146.598 E25.64657
G1 X166.855 Y147.048 E25.67777
G1 X165.836 Y147.487 E25.71467
G1 X165.519 Y147.605 E25.72592
G1 X164.627 Y147.894 E25.75711
G1 X163.714 Y148.107 E25.78829
G1 X162.786 Y148.241 E25.81948
G1 X162.231 Y148.282 E25.83798
G1 X161.951 Y148.296 E25.84731
G1 X161.568 Y148.309 E25.86006
G1 X160.409 Y148.325 E25.89861
G1 X130.051 Y148.324 E26.90832
G1 X129.558 Y148.317 E26.92472
G1 X129.208 Y148.306 E26.93636
G1 X128.709 Y148.283 E26.95298
G1 X128.029 Y148.231 E26.97566
G1 X127.169 Y148.138 E27.00443
G1 X124.534 Y147.89 E27.09246
G1 X122.055 Y147.727 E27.17509
G1 X119.567 Y147.635 E27.2579
G1 X117.009 Y147.612 E27.34298
G1 X114.485 Y147.661 E27.42695
G1 X112.002 Y147.78 E27.50962
G1 X109.511 Y147.97 E27.59272
G1 X108.097 Y148.122 E27.64002
G1 X106.749 Y148.253 E27.68506
G1 X105.887 Y148.303 E27.71378
G1 X104.661 Y148.324 E27.75456
G1 X103.548 Y148.325 E27.79158
G1 X74.051 Y148.324 E28.77266
G1 X73.394 Y148.315 E28.79451
G1 X72.746 Y148.287 E28.81608
G1 X72.54 Y148.272 E28.82295
G1 X71.609 Y148.164 E28.85413
G1 X70.689 Y147.977 E28.88535
G1 X69.618 Y147.652 E28.92258
G1 X69.287 Y147.533 E28.93428
G1 X68.418 Y147.179 E28.96549
G1 X67.583 Y146.751 E28.99669
G1 X66.788 Y146.255 E29.02786
G1 X66.002 Y145.663 E29.06059
G1 X65.749 Y145.454 E29.0715
G1 X65.052 Y144.826 E29.10271
G1 X64.411 Y144.141 E29.13391
G1 X63.831 Y143.405 E29.16508
G1 X63.375 Y142.72 E29.19245
G1 X63.201 Y142.436 E29.20352
G1 X62.746 Y141.616 E29.23471
G1 X62.362 Y140.76 E29.26592
G1 X62.052 Y139.875 E29.29711
G1 X61.735 Y138.526 E29.3432
G1 X61.662 Y138.095 E29.35774
G1 X61.545 Y137.164 E29.38894
G1 X61.509 Y136.392 E29.41465
G1 X61.501 Y135.702 E29.4376
G1 X61.501 Y134.901 E29.46424
G1 X61.51 Y134.258 E29.48563
G1 X61.545 Y133.519 E29.51024
G1 X61.563 Y133.298 E29.51761
G1 X61.66 Y132.484 E29.54488
G1 X61.753 Y131.892 E29.56481
G1 X62.108 Y129.417 E29.64797
G1 X62.401 Y126.859 E29.73361
G1 X62.613 Y124.404 E29.81556
G1 X62.761 Y121.836 E29.90112
