;FLAVOR:Marlin
;TIME:4069
;Filament used: 2.54685m
;Layer height: 0.2
;MINX:52.994
;MINY:96.2
;MINZ:0.2
;MAXX:181.992
;MAXY:138.799
;MAXZ:23.8
;Generated with Cura_SteamEngine 4.6.1
M140 S60
M105
M190 S60
M104 S200
M105
M109 S200
M82 ;absolute extrusion mode
; Ender 3 Custom Start G-code
G92 E0 ; Reset Extruder
G28 ; Home all axes
G1 Z2.0 F3000 ; Move Z Axis up little to prevent scratching of Heat Bed
G1 X0.1 Y20 Z0.3 F5000.0 ; Move to start position
G1 X0.1 Y200.0 Z0.3 F1500.0 E15 ; Draw the first line
G1 X0.4 Y200.0 Z0.3 F5000.0 ; Move to side a little
G1 X0.4 Y20 Z0.3 F1500.0 E30 ; Draw the second line
G92 E0 ; Reset Extruder
G1 Z2.0 F3000 ; Move Z Axis up little to prevent scratching of Heat Bed
G1 X5 Y20 Z0.3 F5000.0 ; Move over to prevent blob squish
G92 E0
G92 E0
G1 F1500 E-6.5
;LAYER_COUNT:119
;LAYER:0
M107
G0 F6000 X97.917 Y97.01 Z0.2
;TYPE:SKIRT
G1 F1500 E0
G1 F1200 X98.819 Y97.062 E0.03005
G1 X99.712 Y97.194 E0.06007
G1 X100.555 Y97.394 E0.08889
G1 X101.759 Y97.736 E0.13052
G1 X103.776 Y98.336 E0.20051
G1 X105.617 Y98.86 E0.26418
G1 X107.085 Y99.261 E0.31479
G1 X108.056 Y99.516 E0.34818
G1 X109.456 Y99.872 E0.39623
G1 X110.684 Y100.172 E0.43827
G1 X111.76 Y100.426 E0.47504
G1 X113.514 Y100.817 E0.53481
G1 X115.333 Y101.192 E0.59659
G1 X116.989 Y101.51 E0.65267
G1 X118.761 Y101.822 E0.71251
G1 X119.502 Y101.944 E0.73749
G1 X120.98 Y102.17 E0.78722
G1 X122.779 Y102.419 E0.84763
G1 X123.718 Y102.536 E0.8791
G1 X124.872 Y102.668 E0.91773
G1 X127.235 Y102.898 E0.9967
G1 X128.261 Y102.981 E1.03093
G1 X129.656 Y103.076 E1.07744
G1 X130.561 Y103.128 E1.10759
G1 X131.618 Y103.177 E1.14278
G1 X133.49 Y103.239 E1.20508
G1 X135.581 Y103.267 E1.27463
G1 X138.52 Y103.24 E1.37239
G1 X139.982 Y103.196 E1.42104
G1 X141.966 Y103.108 E1.48709
G1 X143.608 Y103.011 E1.5418
G1 X145.17 Y102.898 E1.59389
G1 X147.092 Y102.73 E1.65806
G1 X148.699 Y102.568 E1.71178
G1 X150.076 Y102.415 E1.75786
G1 X151.967 Y102.181 E1.82123
G1 X153.607 Y101.957 E1.87629
G1 X154.862 Y101.772 E1.91848
G1 X157.433 Y101.344 E2.00517
G1 X159.932 Y100.855 E2.08986
G1 X161.629 Y100.482 E2.14765
G1 X162.865 Y100.198 E2.18983
G1 X163.793 Y100.029 E2.2212
G1 X164.196 Y99.975 E2.23473
G1 X165.167 Y99.892 E2.26714
G1 X165.698 Y99.872 E2.28481
G1 X166.638 Y99.88 E2.31608
G1 X167.041 Y99.902 E2.3295
G1 X168.01 Y100.002 E2.3619
G1 X168.539 Y100.082 E2.3797
G1 X169.504 Y100.276 E2.41244
G1 X169.941 Y100.386 E2.42742
G1 X170.838 Y100.656 E2.45858
G1 X171.267 Y100.807 E2.47371
G1 X172.15 Y101.165 E2.5054
G1 X172.586 Y101.366 E2.52137
G1 X173.447 Y101.814 E2.55365
G1 X173.849 Y102.048 E2.56912
G1 X174.676 Y102.584 E2.6019
G1 X175.054 Y102.856 E2.61739
G1 X175.795 Y103.443 E2.64883
G1 X176.159 Y103.76 E2.66488
G1 X176.864 Y104.436 E2.69737
G1 X177.19 Y104.78 E2.71313
G1 X177.796 Y105.481 E2.74395
G1 X178.083 Y105.845 E2.75937
G1 X178.659 Y106.653 E2.79237
G1 X178.904 Y107.035 E2.80747
G1 X179.385 Y107.87 E2.83952
G1 X179.621 Y108.328 E2.85665
G1 X180.005 Y109.164 E2.88725
G1 X180.156 Y109.536 E2.9006
G1 X180.487 Y110.483 E2.93397
G1 X180.64 Y111.001 E2.95194
G1 X180.866 Y111.922 E2.98348
G1 X180.948 Y112.339 E2.99761
G1 X181.089 Y113.288 E3.02952
G1 X181.139 Y113.786 E3.04617
G1 X181.19 Y114.757 E3.07851
G1 X181.192 Y115.185 E3.09274
G1 X181.152 Y116.135 E3.12437
G1 X181.107 Y116.642 E3.1413
G1 X180.974 Y117.611 E3.17383
G1 X180.888 Y118.072 E3.18943
G1 X180.679 Y118.967 E3.22
G1 X180.559 Y119.393 E3.23472
G1 X180.233 Y120.361 E3.26869
G1 X180.054 Y120.816 E3.28495
G1 X179.672 Y121.671 E3.3161
G1 X179.469 Y122.074 E3.33111
G1 X178.996 Y122.912 E3.36311
G1 X178.712 Y123.364 E3.38087
G1 X178.152 Y124.166 E3.4134
G1 X177.916 Y124.472 E3.42625
G1 X177.313 Y125.184 E3.45729
G1 X176.962 Y125.562 E3.47444
G1 X176.281 Y126.23 E3.50617
G1 X175.927 Y126.546 E3.52195
G1 X175.154 Y127.171 E3.55502
G1 X174.797 Y127.432 E3.56972
G1 X173.992 Y127.964 E3.60182
G1 X173.56 Y128.221 E3.61854
G1 X172.714 Y128.672 E3.65042
G1 X172.309 Y128.864 E3.66533
G1 X171.445 Y129.226 E3.69649
G1 X171.016 Y129.383 E3.71168
G1 X170.098 Y129.67 E3.74367
G1 X169.526 Y129.82 E3.76334
G1 X168.671 Y130.006 E3.79244
G1 X167.696 Y130.174 E3.82535
G1 X164.035 Y130.836 E3.94909
G1 X159.767 Y131.588 E4.09323
G1 X155.829 Y132.262 E4.22611
G1 X151.734 Y132.942 E4.36418
G1 X147.453 Y133.627 E4.50838
G1 X143.034 Y134.304 E4.65707
G1 X138.906 Y134.906 E4.79582
G1 X134.7 Y135.481 E4.93701
G1 X130.527 Y136.01 E5.07692
G1 X128.429 Y136.257 E5.14718
G1 X126.271 Y136.5 E5.21941
G1 X124.181 Y136.72 E5.2893
G1 X122.305 Y136.904 E5.352
G1 X120.118 Y137.107 E5.42505
G1 X117.598 Y137.314 E5.50915
G1 X115.64 Y137.459 E5.57445
G1 X113.367 Y137.607 E5.65021
G1 X111.264 Y137.724 E5.72027
G1 X109.13 Y137.822 E5.79132
G1 X106.847 Y137.904 E5.8673
G1 X104.629 Y137.959 E5.94109
G1 X102.617 Y137.989 E6.00802
G1 X100.53 Y137.999 E6.07744
G1 X66.197 Y137.994 E7.21936
G1 X65.833 Y137.983 E7.23147
G1 X65.186 Y137.951 E7.25301
G1 X64.287 Y137.866 E7.28305
G1 X63.553 Y137.737 E7.30784
G1 X63.301 Y137.683 E7.31641
G1 X62.427 Y137.454 E7.34646
G1 X61.921 Y137.284 E7.36421
G1 X61.646 Y137.183 E7.37396
G1 X60.813 Y136.834 E7.40399
G1 X60.335 Y136.593 E7.4218
G1 X60.121 Y136.478 E7.42988
G1 X59.345 Y136.016 E7.45992
G1 X58.948 Y135.741 E7.47598
G1 X58.702 Y135.562 E7.4861
G1 X57.996 Y134.998 E7.51615
G1 X57.547 Y134.582 E7.53651
G1 X57.353 Y134.391 E7.54557
G1 X56.738 Y133.73 E7.5756
G1 X56.437 Y133.359 E7.59149
G1 X56.257 Y133.126 E7.60128
G1 X55.737 Y132.387 E7.63133
G1 X55.45 Y131.911 E7.64982
G1 X55.342 Y131.72 E7.65712
G1 X54.888 Y130.814 E7.69082
G1 X54.806 Y130.628 E7.69758
G1 X54.372 Y129.454 E7.73921
G1 X54.288 Y129.175 E7.74891
G1 X54.066 Y128.299 E7.77896
G1 X53.955 Y127.66 E7.80053
G1 X53.918 Y127.398 E7.80933
G1 X53.82 Y126.177 E7.85008
G1 X53.794 Y124.779 E7.89658
G1 X53.799 Y109.391 E8.40839
G1 X53.811 Y109.033 E8.4203
G1 X53.843 Y108.393 E8.44162
G1 X53.928 Y107.494 E8.47165
G1 X54.036 Y106.862 E8.49297
G1 X54.086 Y106.617 E8.50129
G1 X54.306 Y105.741 E8.53133
G1 X54.503 Y105.148 E8.55211
G1 X54.61 Y104.856 E8.56246
G1 X54.958 Y104.022 E8.59252
G1 X55.235 Y103.475 E8.61291
G1 X55.359 Y103.248 E8.62151
G1 X56.037 Y102.173 E8.66378
G1 X56.161 Y102.001 E8.67084
G1 X56.997 Y100.986 E8.71457
G1 X57.241 Y100.726 E8.72643
G1 X57.888 Y100.095 E8.75649
G1 X58.48 Y99.606 E8.78203
G1 X58.693 Y99.443 E8.79095
G1 X59.434 Y98.926 E8.821
G1 X59.877 Y98.661 E8.83817
G1 X60.109 Y98.53 E8.84703
G1 X60.914 Y98.121 E8.87706
G1 X61.375 Y97.926 E8.89371
G1 X61.671 Y97.809 E8.9043
G1 X62.524 Y97.515 E8.93431
G1 X63.204 Y97.339 E8.95767
G1 X63.496 Y97.274 E8.96762
G1 X64.385 Y97.117 E8.99764
G1 X65.148 Y97.046 E9.02313
G1 X65.527 Y97.025 E9.03576
G1 X65.952 Y97.01 E9.0499
G1 X66.753 Y97 E9.07654
G1 X97.257 Y97.001 E10.09111
G1 X97.917 Y97.01 E10.11306
G0 F6000 X97.923 Y96.61
G1 F1200 X98.842 Y96.663 E10.14368
G1 X99.753 Y96.795 E10.1743
G1 X100.664 Y97.009 E10.20542
G1 X101.873 Y97.352 E10.24722
G1 X103.922 Y97.962 E10.31833
G1 X105.735 Y98.477 E10.38101
G1 X107.168 Y98.869 E10.43043
G1 X108.226 Y99.147 E10.46681
G1 X109.477 Y99.465 E10.50974
G1 X110.802 Y99.789 E10.55511
G1 X111.789 Y100.022 E10.58884
G1 X113.616 Y100.429 E10.6511
G1 X115.424 Y100.802 E10.7125
G1 X117.056 Y101.115 E10.76777
G1 X118.816 Y101.426 E10.82721
G1 X119.627 Y101.559 E10.85455
G1 X121.03 Y101.773 E10.90175
G1 X122.889 Y102.031 E10.96417
G1 X123.657 Y102.126 E10.98991
G1 X124.952 Y102.274 E11.03326
G1 X127.248 Y102.497 E11.10999
G1 X128.322 Y102.584 E11.14583
G1 X129.616 Y102.673 E11.18897
G1 X130.605 Y102.729 E11.22191
G1 X131.649 Y102.777 E11.25667
G1 X133.508 Y102.839 E11.31854
G1 X135.583 Y102.867 E11.38756
G1 X138.499 Y102.84 E11.48455
G1 X139.955 Y102.797 E11.533
G1 X141.987 Y102.707 E11.60065
G1 X143.555 Y102.613 E11.65289
G1 X145.112 Y102.501 E11.70481
G1 X147.096 Y102.327 E11.77106
G1 X148.61 Y102.175 E11.82166
G1 X150.063 Y102.013 E11.87029
G1 X151.943 Y101.781 E11.93329
G1 X153.508 Y101.567 E11.98583
G1 X154.787 Y101.379 E12.02883
G1 X157.362 Y100.95 E12.11565
G1 X159.865 Y100.46 E12.20048
G1 X161.529 Y100.094 E12.25715
G1 X162.775 Y99.808 E12.29967
G1 X163.74 Y99.633 E12.33229
G1 X164.143 Y99.579 E12.34581
G1 X165.152 Y99.493 E12.3795
G1 X165.683 Y99.473 E12.39717
G1 X166.66 Y99.481 E12.42967
G1 X167.063 Y99.503 E12.44309
G1 X168.07 Y99.606 E12.47676
G1 X168.599 Y99.686 E12.49455
G1 X169.601 Y99.888 E12.52855
G1 X170.038 Y99.998 E12.54354
G1 X170.97 Y100.278 E12.5759
G1 X171.399 Y100.429 E12.59103
G1 X172.318 Y100.802 E12.62402
G1 X172.754 Y101.003 E12.63999
G1 X173.649 Y101.468 E12.67353
G1 X174.051 Y101.702 E12.689
G1 X174.909 Y102.259 E12.72303
G1 X175.287 Y102.531 E12.73852
G1 X176.057 Y103.141 E12.77119
G1 X176.421 Y103.458 E12.78724
G1 X177.154 Y104.161 E12.82102
G1 X177.48 Y104.505 E12.83679
G1 X178.11 Y105.233 E12.86881
G1 X178.397 Y105.597 E12.88422
G1 X178.996 Y106.437 E12.91854
G1 X179.241 Y106.819 E12.93363
G1 X179.741 Y107.687 E12.96695
G1 X179.977 Y108.145 E12.98409
G1 X180.376 Y109.013 E13.01586
G1 X180.527 Y109.385 E13.02921
G1 X180.871 Y110.369 E13.06388
G1 X181.024 Y110.887 E13.08185
G1 X181.259 Y111.845 E13.11466
G1 X181.341 Y112.262 E13.12879
G1 X181.487 Y113.248 E13.16194
G1 X181.537 Y113.746 E13.17859
G1 X181.59 Y114.755 E13.2122
G1 X181.592 Y115.183 E13.22643
G1 X181.55 Y116.17 E13.25929
G1 X181.505 Y116.677 E13.27622
G1 X181.367 Y117.684 E13.31002
G1 X181.281 Y118.145 E13.32562
G1 X181.064 Y119.075 E13.35738
G1 X180.944 Y119.501 E13.3721
G1 X180.605 Y120.508 E13.40744
G1 X180.426 Y120.963 E13.42371
G1 X180.029 Y121.851 E13.45606
G1 X179.826 Y122.254 E13.47107
G1 X179.334 Y123.124 E13.50431
G1 X179.05 Y123.576 E13.52206
G1 X178.469 Y124.411 E13.5559
G1 X178.233 Y124.717 E13.56875
G1 X177.607 Y125.456 E13.60096
G1 X177.256 Y125.834 E13.61812
G1 X176.547 Y126.529 E13.65114
G1 X176.193 Y126.845 E13.66692
G1 X175.39 Y127.494 E13.70126
G1 X175.033 Y127.755 E13.71597
G1 X174.197 Y128.308 E13.74931
G1 X173.765 Y128.565 E13.76603
G1 X172.886 Y129.033 E13.79915
G1 X172.481 Y129.225 E13.81406
G1 X171.583 Y129.601 E13.84644
G1 X171.154 Y129.758 E13.86163
G1 X170.2 Y130.057 E13.89489
G1 X169.628 Y130.207 E13.91455
G1 X168.739 Y130.4 E13.94481
G1 X167.829 Y130.557 E13.97552
G1 X164.106 Y131.23 E14.10136
G1 X159.786 Y131.991 E14.24725
G1 X155.895 Y132.657 E14.37855
G1 X151.798 Y133.337 E14.51668
G1 X147.513 Y134.023 E14.66102
G1 X143.092 Y134.7 E14.80977
G1 X138.96 Y135.302 E14.94866
G1 X134.75 Y135.878 E15.08999
G1 X130.574 Y136.407 E15.22999
G1 X128.474 Y136.655 E15.30032
G1 X126.313 Y136.897 E15.37265
G1 X124.221 Y137.118 E15.44261
G1 X122.342 Y137.303 E15.50541
G1 X120.151 Y137.505 E15.57859
G1 X117.628 Y137.713 E15.66279
G1 X115.666 Y137.859 E15.72823
G1 X113.389 Y138.007 E15.80412
G1 X111.282 Y138.124 E15.87431
G1 X109.144 Y138.222 E15.9455
G1 X106.857 Y138.304 E16.02161
G1 X104.635 Y138.359 E16.09554
G1 X102.619 Y138.389 E16.1626
G1 X100.53 Y138.399 E16.23208
G1 X66.192 Y138.394 E17.37416
G1 X65.813 Y138.382 E17.38678
G1 X65.166 Y138.35 E17.40832
G1 X64.25 Y138.265 E17.43892
G1 X63.469 Y138.128 E17.46529
G1 X63.217 Y138.074 E17.47386
G1 X62.326 Y137.842 E17.50449
G1 X61.784 Y137.659 E17.52351
G1 X61.509 Y137.558 E17.53326
G1 X60.659 Y137.204 E17.56388
G1 X60.145 Y136.945 E17.58303
G1 X59.931 Y136.83 E17.59111
G1 X59.14 Y136.36 E17.62171
G1 X58.712 Y136.064 E17.63902
G1 X58.466 Y135.885 E17.64914
G1 X57.746 Y135.312 E17.67974
G1 X57.266 Y134.868 E17.70149
G1 X57.072 Y134.677 E17.71054
G1 X56.445 Y134.003 E17.74116
G1 X56.121 Y133.603 E17.75828
G1 X55.941 Y133.37 E17.76807
G1 X55.41 Y132.618 E17.79869
G1 X55.102 Y132.107 E17.81854
G1 X54.994 Y131.916 E17.82584
G1 X54.522 Y130.975 E17.86085
G1 X54.44 Y130.789 E17.86761
G1 X53.989 Y129.569 E17.91087
G1 X53.905 Y129.29 E17.92056
G1 X53.678 Y128.398 E17.95118
G1 X53.559 Y127.716 E17.9742
G1 X53.522 Y127.454 E17.983
G1 X53.42 Y126.185 E18.02535
G1 X53.394 Y124.779 E18.07212
G1 X53.399 Y109.385 E18.58413
G1 X53.411 Y109.013 E18.5965
G1 X53.443 Y108.373 E18.61782
G1 X53.529 Y107.456 E18.64845
G1 X53.644 Y106.782 E18.67119
G1 X53.694 Y106.537 E18.67951
G1 X53.917 Y105.644 E18.71012
G1 X54.127 Y105.01 E18.73234
G1 X54.234 Y104.718 E18.74268
G1 X54.588 Y103.868 E18.7733
G1 X54.884 Y103.283 E18.79511
G1 X55.008 Y103.056 E18.80371
G1 X55.713 Y101.939 E18.84765
G1 X55.837 Y101.767 E18.8547
G1 X56.706 Y100.712 E18.90016
G1 X56.95 Y100.452 E18.91202
G1 X57.608 Y99.809 E18.94262
G1 X58.237 Y99.288 E18.96978
G1 X58.45 Y99.125 E18.9787
G1 X59.205 Y98.598 E19.00933
G1 X59.68 Y98.313 E19.02775
G1 X59.912 Y98.182 E19.03661
G1 X60.733 Y97.764 E19.06726
G1 X61.227 Y97.554 E19.08511
G1 X61.523 Y97.437 E19.09569
G1 X62.394 Y97.136 E19.12635
G1 X63.117 Y96.948 E19.15119
G1 X63.409 Y96.883 E19.16114
G1 X64.315 Y96.722 E19.19175
G1 X65.126 Y96.646 E19.21884
G1 X65.505 Y96.625 E19.23146
G1 X65.947 Y96.61 E19.24617
G1 X66.753 Y96.6 E19.27298
G1 X97.263 Y96.601 E20.28775
G1 X97.923 Y96.61 E20.3097
G0 F6000 X97.928 Y96.21
G1 F1200 X98.864 Y96.263 E20.34089
G1 X99.793 Y96.395 E20.37209
G1 X100.773 Y96.624 E20.40557
G1 X101.987 Y96.969 E20.44754
G1 X103.992 Y97.566 E20.51712
G1 X105.852 Y98.095 E20.58144
G1 X107.279 Y98.484 E20.63064
G1 X108.3 Y98.753 E20.66575
G1 X109.64 Y99.094 E20.71174
G1 X110.807 Y99.379 E20.7517
G1 X111.961 Y99.651 E20.79113
G1 X113.656 Y100.028 E20.84888
G1 X115.502 Y100.41 E20.91158
G1 X117.147 Y100.725 E20.96729
G1 X118.857 Y101.027 E21.02505
G1 X119.671 Y101.16 E21.05248
G1 X121.137 Y101.385 E21.10181
G1 X122.917 Y101.631 E21.16157
G1 X123.735 Y101.733 E21.18899
G1 X124.972 Y101.874 E21.2304
G1 X127.321 Y102.103 E21.3089
G1 X128.299 Y102.182 E21.34153
G1 X129.663 Y102.275 E21.38701
G1 X130.649 Y102.331 E21.41985
G1 X131.599 Y102.375 E21.45148
G1 X133.528 Y102.44 E21.51568
G1 X135.585 Y102.467 E21.5841
G1 X138.478 Y102.44 E21.68033
G1 X139.993 Y102.395 E21.73074
G1 X141.88 Y102.312 E21.79356
G1 X143.581 Y102.21 E21.85024
G1 X145.115 Y102.099 E21.90139
G1 X147.023 Y101.933 E21.96509
G1 X148.61 Y101.773 E22.01814
G1 X149.978 Y101.621 E22.06392
G1 X151.831 Y101.392 E22.12602
G1 X153.481 Y101.166 E22.18142
G1 X154.779 Y100.975 E22.22505
G1 X157.285 Y100.558 E22.30955
G1 X159.789 Y100.068 E22.39441
G1 X161.372 Y99.72 E22.44832
G1 X162.686 Y99.418 E22.49316
G1 X163.687 Y99.236 E22.527
G1 X164.09 Y99.182 E22.54053
G1 X165.137 Y99.093 E22.57547
G1 X165.668 Y99.073 E22.59315
G1 X166.682 Y99.081 E22.62688
G1 X167.085 Y99.103 E22.6403
G1 X168.13 Y99.211 E22.67524
G1 X168.659 Y99.291 E22.69304
G1 X169.699 Y99.5 E22.72832
G1 X170.136 Y99.61 E22.74331
G1 X171.103 Y99.901 E22.77689
G1 X171.532 Y100.052 E22.79202
G1 X172.485 Y100.438 E22.82622
G1 X172.921 Y100.639 E22.84219
G1 X173.85 Y101.122 E22.87701
G1 X174.252 Y101.356 E22.89248
G1 X175.143 Y101.934 E22.92781
G1 X175.521 Y102.206 E22.9433
G1 X176.32 Y102.84 E22.97722
G1 X176.684 Y103.157 E22.99327
G1 X177.444 Y103.886 E23.0283
G1 X177.77 Y104.23 E23.04406
G1 X178.424 Y104.985 E23.07729
G1 X178.711 Y105.349 E23.0927
G1 X179.332 Y106.221 E23.12831
G1 X179.577 Y106.603 E23.1434
G1 X180.096 Y107.503 E23.17796
G1 X180.332 Y107.961 E23.19509
G1 X180.746 Y108.863 E23.2281
G1 X180.897 Y109.235 E23.24146
G1 X181.254 Y110.256 E23.27743
G1 X181.407 Y110.774 E23.2954
G1 X181.651 Y111.768 E23.32944
G1 X181.733 Y112.185 E23.34357
G1 X181.885 Y113.208 E23.37797
G1 X181.935 Y113.706 E23.39462
G1 X181.99 Y114.754 E23.42952
G1 X181.992 Y115.182 E23.44376
G1 X181.949 Y116.206 E23.47785
G1 X181.904 Y116.713 E23.49478
G1 X181.76 Y117.757 E23.52983
G1 X181.674 Y118.218 E23.54543
G1 X181.449 Y119.184 E23.57842
G1 X181.329 Y119.61 E23.59314
G1 X180.977 Y120.654 E23.62978
G1 X180.798 Y121.109 E23.64604
G1 X180.386 Y122.031 E23.67963
G1 X180.183 Y122.434 E23.69464
G1 X179.673 Y123.337 E23.72913
G1 X179.389 Y123.789 E23.74689
G1 X178.785 Y124.655 E23.782
G1 X178.549 Y124.961 E23.79486
G1 X177.9 Y125.728 E23.82827
G1 X177.549 Y126.106 E23.84543
G1 X176.813 Y126.827 E23.8797
G1 X176.459 Y127.143 E23.89548
G1 X175.626 Y127.817 E23.93112
G1 X175.269 Y128.078 E23.94583
G1 X174.401 Y128.652 E23.98044
G1 X173.969 Y128.909 E23.99716
G1 X173.057 Y129.395 E24.03153
